; generated by PrusaSlicer 2.6.0-alpha3+MacOS-x64 on 2023-02-18 at 00:39:19 UTC


;
;

;
;
; 

; external perimeters extrusion width = 0.45mm
; perimeters extrusion width = 0.45mm
; infill extrusion width = 0.45mm
; solid infill extrusion width = 0.45mm
; top infill extrusion width = 0.40mm
; first layer extrusion width = 0.42mm

M73 P0 R38
M201 X2500 Y2500 Z400 E5000 ; sets maximum accelerations, mm/sec^2
M203 X180 Y180 Z12 E80 ; sets maximum feedrates, mm / sec
M204 P1250 R1250 T2500 ; sets acceleration (P, T) and retract acceleration (R), mm/sec^2
M205 X8.00 Y8.00 Z2.00 E10.00 ; sets the jerk limits, mm/sec
M205 S0 T0 ; sets the minimum extruding and travel feed rate, mm/sec
M107
;TYPE:Custom
M862.3 P "MINI" ; printer model check
G90 ; use absolute coordinates
M83 ; extruder relative mode
M104 S170 ; set extruder temp for bed leveling
M140 S100 ; set bed temp
M109 R170 ; wait for bed leveling temp
M190 S100 ; wait for bed temp
M204 T1250 ; set travel acceleration
G28 ; home all without mesh bed level
G29 ; mesh bed leveling 
M204 T2500 ; restore travel acceleration
M104 S290 ; set extruder temp
G92 E0
G1 Y-2 X179 F2400
G1 Z3 F720
M109 S290 ; wait for extruder temp

; intro line
G1 X170 F1000
G1 Z0.2 F720
G1 X110 E8 F900
G1 X40 E10 F700
G92 E0

M221 S95 ; set flow
G21 ; set units to millimeters
G90 ; use absolute coordinates
M83 ; use relative distances for extrusion
M900 K0.2 ; Filament gcode
ENC O1 W0 S32 ; Set enclosure temperature
M107
;LAYER_CHANGE
;Z:0.2
;HEIGHT:0.2
;BEFORE_LAYER_CHANGE
G92 E0.0
;0.2


G1 E-3.2 F4200
G1 Z.2 F720
;AFTER_LAYER_CHANGE
;0.2
G1 Z.4
G1 X114.249 Y54.595 F9000
G1 Z.2 F720
G1 E3.2 F2400
M204 P800
;TYPE:Skirt/Brim
;WIDTH:0.42
G1 F1200
G1 X115.01 Y53.493 E.04073
G1 X115.822 Y52.82 E.03208
G1 X116.771 Y52.361 E.03206
G1 X117.803 Y52.142 E.03209
G1 X150.331 Y52.127 E.9893
G1 X151.095 Y52.22 E.02341
G1 X151.872 Y52.462 E.02475
G1 X152.553 Y52.82 E.0234
G1 X153.195 Y53.322 E.02479
G1 X153.868 Y54.134 E.03208
G1 X154.225 Y54.815 E.02339
G1 X154.468 Y55.593 E.02479
G1 X154.56 Y56.356 E.02337
G1 X154.565 Y123.5 E2.0421
G1 X154.468 Y124.407 E.02774
G1 X154.126 Y125.405 E.03209
G1 X153.556 Y126.292 E.03207
G1 X152.553 Y127.18 E.04074
G1 X151.373 Y127.711 E.03935
G1 X150.331 Y127.873 E.03207
G1 X118.187 Y127.877 E.97762
G1 X117.28 Y127.78 E.02774
M73 P1 R38
G1 X116.282 Y127.439 E.03208
G1 X115.395 Y126.868 E.03208
G1 X114.507 Y125.866 E.04072
G1 X113.976 Y124.686 E.03935
G1 X113.81 Y123.5 E.03642
G1 X113.81 Y56.5 E2.03772
G1 X113.907 Y55.593 E.02774
G1 X114.229 Y54.652 E.03025
M204 P1000
; printing object computer boot.stl id:0 copy 0
G1 E-2.24 F4200
;WIPE_START
G1 F7200
G1 X115.01 Y53.493 E-.77449
G1 X115.268 Y53.279 E-.18551
;WIPE_END
G1 Z.4 F720
G1 X151.154 Y55.813 F9000
G1 Z.2 F720
G1 E3.2 F2400
M204 P800
;TYPE:Perimeter
;WIDTH:0.419999
G1 F1200
G1 X151.317 Y56.072 E.00931
G1 X151.4 Y56.524 E.01398
G1 X151.4 Y123.379 E2.0333
G1 X151.378 Y123.644 E.00809
M73 P1 R37
G1 X151.257 Y124.062 E.01323
G1 X150.983 Y124.398 E.01319
G1 X150.616 Y124.63 E.01321
G1 X150.164 Y124.713 E.01398
G1 X118.308 Y124.713 E.96886
G1 X118.044 Y124.691 E.00806
G1 X117.626 Y124.57 E.01323
G1 X117.29 Y124.296 E.01319
G1 X117.058 Y123.928 E.01323
G1 X116.975 Y123.476 E.01398
G1 X116.975 Y56.541 E2.03574
G1 X116.997 Y56.356 E.00567
G1 X117.118 Y55.938 E.01323
G1 X117.392 Y55.602 E.01319
G1 X117.759 Y55.37 E.01321
G1 X118.211 Y55.287 E.01398
G1 X150.069 Y55.287 E.96892
G1 X150.331 Y55.309 E.008
G1 X150.749 Y55.43 E.01323
G1 X151.085 Y55.704 E.01319
G1 X151.122 Y55.762 E.00209
M204 P1000
G1 X151.495 Y55.598 F9000
M204 P800
;TYPE:External perimeter
G1 F1200
G1 X151.672 Y55.937 E.01163
G1 X151.777 Y56.512 E.01778
G1 X151.777 Y123.379 E2.03367
G1 X151.73 Y123.88 E.0153
G1 X151.594 Y124.238 E.01165
G1 X151.376 Y124.553 E.01165
G1 X151.09 Y124.807 E.01163
G1 X150.751 Y124.985 E.01165
G1 X150.175 Y125.09 E.01781
G1 X118.308 Y125.09 E.96919
G1 X117.807 Y125.042 E.01531
G1 X117.449 Y124.906 E.01165
G1 X117.134 Y124.689 E.01163
G1 X116.88 Y124.402 E.01166
G1 X116.702 Y124.063 E.01165
G1 X116.597 Y123.488 E.01778
G1 X116.597 Y56.518 E2.0368
G1 X116.645 Y56.12 E.01219
M73 P2 R37
G1 X116.781 Y55.762 E.01165
G1 X116.999 Y55.447 E.01165
G1 X117.285 Y55.193 E.01163
G1 X117.624 Y55.015 E.01165
G1 X118.2 Y54.91 E.01781
G1 X150.069 Y54.91 E.96925
G1 X150.568 Y54.958 E.01525
G1 X150.926 Y55.094 E.01165
G1 X151.241 Y55.311 E.01163
G1 X151.455 Y55.553 E.00983
M204 P1000
G1 X151.33 Y55.944 F9000
G1 E-2.24 F4200
;WIPE_START
G1 F7200
G1 X151.672 Y55.937 E-.24443
G1 X151.777 Y56.512 E-.32392
G1 X151.777 Y57.219 E-.39165
;WIPE_END
G1 Z.4 F720
G1 X122.771 Y58.877 F9000
G1 Z.2 F720
G1 E3.2 F2400
M204 P800
;TYPE:Perimeter
G1 F1200
G1 X123.161 Y58.921 E.01194
G1 X123.77 Y59.164 E.01994
G1 X124.172 Y59.47 E.01537
G1 X124.553 Y59.966 E.01902
G1 X124.782 Y60.602 E.02056
G1 X124.808 Y61.227 E.01902
G1 X124.629 Y61.879 E.02056
G1 X124.363 Y62.304 E.01525
G1 X124.172 Y62.53 E.009
G1 X123.77 Y62.836 E.01537
G1 X123.161 Y63.079 E.01994
G1 X122.633 Y63.124 E.01612
G1 X122.37 Y63.108 E.00801
G1 X121.883 Y62.974 E.01536
G1 X121.321 Y62.637 E.01993
G1 X120.891 Y62.148 E.0198
G1 X120.628 Y61.553 E.01979
G1 X120.557 Y60.905 E.01983
G1 X120.674 Y60.296 E.01886
G1 X120.997 Y59.701 E.02059
G1 X121.446 Y59.266 E.01901
G1 X122.023 Y58.974 E.01967
G1 X122.711 Y58.87 E.02116
M204 P1000
G1 X122.887 Y59.26 F9000
M204 P800
;TYPE:External perimeter
G1 F1200
G1 X123.036 Y59.277 E.00456
G1 X123.541 Y59.463 E.01637
G1 X123.943 Y59.77 E.01538
G1 X124.244 Y60.183 E.01554
G1 X124.422 Y60.716 E.01709
G1 X124.431 Y61.227 E.01554
G1 X124.27 Y61.766 E.01711
G1 X123.983 Y62.189 E.01555
G1 X123.541 Y62.537 E.01711
G1 X123.036 Y62.723 E.01637
G1 X122.527 Y62.751 E.0155
G1 X121.983 Y62.61 E.01709
G1 X121.529 Y62.322 E.01635
G1 X121.184 Y61.911 E.01632
G1 X120.979 Y61.414 E.01635
G1 X120.934 Y60.88 E.0163
G1 X121.042 Y60.382 E.0155
G1 X121.321 Y59.894 E.0171
G1 X121.697 Y59.547 E.01556
G1 X122.18 Y59.317 E.01627
G1 X122.739 Y59.243 E.01715
G1 X122.828 Y59.253 E.00272
M204 P1000
G1 X122.969 Y59.134 F9000
G1 E-2.24 F4200
;WIPE_START
G1 F7200
G1 X123.036 Y59.277 E-.11603
G1 X123.541 Y59.463 E-.29823
G1 X123.943 Y59.77 E-.28031
G1 X124.225 Y60.157 E-.26543
;WIPE_END
G1 Z.4 F720
G1 X131.386 Y66.231 F9000
G1 Z.2 F720
G1 E3.2 F2400
M204 P800
;WIDTH:0.440886
G1 F1200
G1 X131.417 Y66.284 E.00197
;WIDTH:0.39784
G1 X131.448 Y66.338 E.00178
;WIDTH:0.354793
G1 X132.609 Y68.362 E.05869
;WIDTH:0.39784
G1 X132.64 Y68.416 E.00178
;WIDTH:0.440886
G1 X132.671 Y68.47 E.002
G1 X132.624 Y68.537 E.00263
;WIDTH:0.414441
G1 X132.578 Y68.604 E.00244
;WIDTH:0.387996
G1 X131.451 Y70.545 E.06247
;WIDTH:0.414441
G1 X131.416 Y70.593 E.00178
;WIDTH:0.440886
G1 X131.381 Y70.641 E.00191
G1 X131.301 Y70.642 E.00257
;WIDTH:0.410342
G1 X128.98 Y70.636 E.06878
;WIDTH:0.440886
G1 X128.894 Y70.637 E.00276
G1 X128.863 Y70.583 E.002
;WIDTH:0.39784
G1 X128.832 Y70.53 E.00176
;WIDTH:0.354793
G1 X127.67 Y68.505 E.05873
;WIDTH:0.39784
G1 X127.64 Y68.452 E.00174
;WIDTH:0.440886
G1 X127.609 Y68.398 E.002
G1 X127.655 Y68.331 E.00261
;WIDTH:0.414441
G1 X127.702 Y68.263 E.00248
;WIDTH:0.387996
G1 X128.829 Y66.323 E.06244
;WIDTH:0.414442
G1 X128.864 Y66.275 E.00178
;WIDTH:0.440887
G1 X128.899 Y66.227 E.00191
G1 X128.979 Y66.226 E.00257
;WIDTH:0.41034
G1 X131.3 Y66.232 E.06878
;WIDTH:0.440886
G1 X131.326 Y66.231 E.00084
M204 P1000
G1 X131.657 Y66.075 F9000
M204 P800
G1 F1200
G1 X131.703 Y66.008 E.00261
;WIDTH:0.414441
G1 X131.749 Y65.941 E.00244
;WIDTH:0.387996
G1 X132.877 Y64 E.06248
;WIDTH:0.414442
G1 X132.912 Y63.952 E.00178
;WIDTH:0.440888
G1 X132.947 Y63.904 E.00191
G1 X133.026 Y63.903 E.00254
;WIDTH:0.410344
G1 X135.348 Y63.909 E.06881
;WIDTH:0.440886
G1 X135.434 Y63.908 E.00276
G1 X135.464 Y63.962 E.00198
;WIDTH:0.397839
G1 X135.495 Y64.015 E.00176
;WIDTH:0.354792
G1 X136.657 Y66.04 E.05873
;WIDTH:0.397839
G1 X136.688 Y66.093 E.00176
;WIDTH:0.440886
G1 X136.718 Y66.147 E.00198
G1 X136.672 Y66.214 E.00261
;WIDTH:0.414441
G1 X136.626 Y66.282 E.00246
;WIDTH:0.387995
G1 X135.498 Y68.222 E.06246
;WIDTH:0.414441
G1 X135.463 Y68.27 E.00178
;WIDTH:0.440886
G1 X135.428 Y68.318 E.00191
G1 X135.349 Y68.319 E.00254
;WIDTH:0.410342
G1 X133.027 Y68.313 E.06881
;WIDTH:0.440886
G1 X132.941 Y68.314 E.00276
G1 X132.911 Y68.261 E.00195
;WIDTH:0.39784
G1 X132.88 Y68.207 E.00178
;WIDTH:0.354793
G1 X131.718 Y66.183 E.05871
;WIDTH:0.39784
G1 X131.687 Y66.129 E.00178
;WIDTH:0.440886
G1 X131.686 Y66.127 E.00007
M204 P1000
G1 E-2.24 F4200
;WIPE_START
G1 F7200
G1 X131.703 Y66.008 E-.06662
G1 X131.749 Y65.941 E-.04504
G1 X132.518 Y64.617 E-.84834
;WIPE_END
G1 Z.4 F720
G1 X136.958 Y70.716 F9000
G1 Z.2 F720
G1 E3.2 F2400
M204 P800
;WIDTH:0.397839
G1 F1200
G1 X136.927 Y70.662 E.00178
;WIDTH:0.354792
G1 X135.766 Y68.638 E.05869
;WIDTH:0.397839
G1 X135.735 Y68.584 E.00178
;WIDTH:0.440886
G1 X135.704 Y68.53 E.002
G1 X135.75 Y68.463 E.00261
;WIDTH:0.414441
G1 X135.797 Y68.396 E.00245
;WIDTH:0.387995
G1 X136.924 Y66.455 E.06247
;WIDTH:0.414441
G1 X136.959 Y66.407 E.00178
;WIDTH:0.440886
G1 X136.994 Y66.359 E.00191
G1 X137.074 Y66.358 E.00257
;WIDTH:0.410342
G1 X139.395 Y66.364 E.06878
;WIDTH:0.440886
G1 X139.481 Y66.363 E.00276
G1 X139.512 Y66.417 E.002
;WIDTH:0.397839
G1 X139.543 Y66.47 E.00176
;WIDTH:0.354793
G1 X140.704 Y68.495 E.05872
;WIDTH:0.39784
G1 X140.735 Y68.548 E.00176
;WIDTH:0.440886
G1 X140.766 Y68.602 E.002
G1 X140.72 Y68.669 E.00261
;WIDTH:0.414441
G1 X140.673 Y68.737 E.00248
;WIDTH:0.387995
G1 X139.546 Y70.677 E.06244
;WIDTH:0.414441
G1 X139.511 Y70.725 E.00178
;WIDTH:0.440886
G1 X139.476 Y70.773 E.00191
G1 X139.396 Y70.774 E.00257
;WIDTH:0.41034
G1 X137.075 Y70.768 E.06878
;WIDTH:0.440886
G1 X136.988 Y70.768 E.00279
M204 P1000
G1 E-2.24 F4200
;WIPE_START
G1 F7200
G1 X136.927 Y70.662 E-.06777
G1 X136.126 Y69.265 E-.89223
;WIPE_END
G1 Z.4 F720
G1 X132.941 Y73.092 F9000
G1 Z.2 F720
G1 E3.2 F2400
M204 P800
G1 F1200
G1 X132.911 Y73.038 E.00198
;WIDTH:0.39784
G1 X132.88 Y72.985 E.00176
;WIDTH:0.354793
G1 X131.718 Y70.96 E.05873
;WIDTH:0.39784
G1 X131.687 Y70.907 E.00176
;WIDTH:0.440886
G1 X131.657 Y70.853 E.00198
G1 X131.703 Y70.786 E.00261
;WIDTH:0.414441
G1 X131.749 Y70.718 E.00246
;WIDTH:0.387996
G1 X132.877 Y68.778 E.06246
;WIDTH:0.414441
G1 X132.912 Y68.73 E.00178
;WIDTH:0.440886
G1 X132.947 Y68.682 E.00191
G1 X133.026 Y68.681 E.00254
;WIDTH:0.410342
G1 X135.348 Y68.687 E.06881
;WIDTH:0.440886
G1 X135.434 Y68.686 E.00276
G1 X135.464 Y68.739 E.00195
;WIDTH:0.397839
G1 X135.495 Y68.793 E.00178
;WIDTH:0.354792
G1 X136.657 Y70.817 E.05871
;WIDTH:0.397839
G1 X136.688 Y70.871 E.00178
;WIDTH:0.440886
G1 X136.718 Y70.925 E.00198
G1 X136.672 Y70.992 E.00261
;WIDTH:0.414441
G1 X136.626 Y71.059 E.00244
;WIDTH:0.387996
G1 X135.498 Y73 E.06248
;WIDTH:0.414442
G1 X135.463 Y73.048 E.00178
;WIDTH:0.440888
G1 X135.428 Y73.096 E.00191
G1 X135.349 Y73.097 E.00254
;WIDTH:0.410342
G1 X133.027 Y73.091 E.06881
;WIDTH:0.440886
G1 X133.001 Y73.091 E.00083
M204 P1000
G1 X132.671 Y73.247 F9000
M204 P800
G1 F1200
G1 X132.624 Y73.315 E.00265
;WIDTH:0.414441
G1 X132.578 Y73.382 E.00244
;WIDTH:0.387997
G1 X131.451 Y75.323 E.06247
;WIDTH:0.414442
G1 X131.416 Y75.371 E.00178
;WIDTH:0.440887
G1 X131.381 Y75.419 E.00191
G1 X131.301 Y75.42 E.00257
;WIDTH:0.410342
G1 X128.98 Y75.414 E.06878
;WIDTH:0.440886
G1 X128.894 Y75.415 E.00276
G1 X128.863 Y75.361 E.002
;WIDTH:0.397839
G1 X128.832 Y75.308 E.00176
;WIDTH:0.354793
G1 X127.67 Y73.283 E.05873
;WIDTH:0.39784
G1 X127.64 Y73.229 E.00177
;WIDTH:0.440887
G1 X127.609 Y73.176 E.00197
G1 X127.655 Y73.108 E.00264
;WIDTH:0.414442
G1 X127.702 Y73.041 E.00245
;WIDTH:0.387997
G1 X128.829 Y71.1 E.06247
;WIDTH:0.414441
G1 X128.864 Y71.052 E.00178
;WIDTH:0.440886
G1 X128.899 Y71.004 E.00191
G1 X128.979 Y71.003 E.00257
;WIDTH:0.410342
G1 X131.3 Y71.009 E.06878
;WIDTH:0.440886
G1 X131.386 Y71.008 E.00276
G1 X131.417 Y71.062 E.002
;WIDTH:0.39784
G1 X131.448 Y71.116 E.00178
;WIDTH:0.354793
G1 X132.609 Y73.14 E.05869
;WIDTH:0.39784
G1 X132.64 Y73.194 E.00178
;WIDTH:0.440886
G1 X132.641 Y73.195 E.00005
M204 P1000
G1 E-2.24 F4200
;WIPE_START
G1 F7200
G1 X132.624 Y73.315 E-.06716
G1 X132.578 Y73.382 E-.04504
G1 X131.81 Y74.705 E-.8478
;WIPE_END
G1 Z.4 F720
G1 X124.846 Y77.738 F9000
G1 Z.2 F720
G1 E3.2 F2400
M204 P800
;WIDTH:0.440888
G1 F1200
G1 X124.815 Y77.684 E.002
;WIDTH:0.397841
G1 X124.785 Y77.63 E.00177
;WIDTH:0.354793
G1 X123.623 Y75.606 E.05871
;WIDTH:0.39784
G1 X123.592 Y75.552 E.00178
;WIDTH:0.440887
G1 X123.561 Y75.499 E.00197
G1 X123.608 Y75.431 E.00265
;WIDTH:0.414442
G1 X123.654 Y75.364 E.00244
;WIDTH:0.387997
G1 X124.781 Y73.423 E.06247
;WIDTH:0.41444
G1 X124.816 Y73.375 E.00178
;WIDTH:0.440885
G1 X124.852 Y73.327 E.00193
G1 X124.931 Y73.326 E.00254
;WIDTH:0.410342
G1 X127.253 Y73.332 E.06881
;WIDTH:0.440887
G1 X127.338 Y73.331 E.00273
G1 X127.369 Y73.385 E.002
;WIDTH:0.39784
G1 X127.4 Y73.438 E.00176
;WIDTH:0.354793
G1 X128.562 Y75.463 E.05873
;WIDTH:0.397839
G1 X128.593 Y75.516 E.00176
;WIDTH:0.440886
G1 X128.623 Y75.57 E.00198
G1 X128.577 Y75.637 E.00261
;WIDTH:0.414441
G1 X128.531 Y75.705 E.00246
;WIDTH:0.387997
G1 X127.403 Y77.646 E.06248
;WIDTH:0.414442
G1 X127.368 Y77.693 E.00176
;WIDTH:0.440887
G1 X127.333 Y77.741 E.00191
G1 X127.254 Y77.743 E.00254
;WIDTH:0.410344
G1 X124.932 Y77.736 E.06881
;WIDTH:0.440888
G1 X124.906 Y77.737 E.00084
M204 P1000
G1 E-2.24 F4200
;WIPE_START
G1 F7200
G1 X124.815 Y77.684 E-.05836
G1 X124.785 Y77.63 E-.03423
G1 X124.006 Y76.273 E-.86741
;WIPE_END
G1 Z.4 F720
G1 X132.671 Y78.025 F9000
G1 Z.2 F720
G1 E3.2 F2400
M204 P800
G1 F1200
G1 X132.624 Y78.093 E.00265
;WIDTH:0.414443
G1 X132.578 Y78.16 E.00244
;WIDTH:0.387997
G1 X131.451 Y80.101 E.06247
;WIDTH:0.414442
G1 X131.416 Y80.149 E.00178
;WIDTH:0.440887
G1 X131.381 Y80.197 E.00191
G1 X131.301 Y80.198 E.00257
;WIDTH:0.410344
G1 X128.98 Y80.192 E.06878
;WIDTH:0.440888
G1 X128.894 Y80.193 E.00276
G1 X128.863 Y80.139 E.002
;WIDTH:0.397841
G1 X128.832 Y80.085 E.00178
;WIDTH:0.354793
G1 X127.67 Y78.061 E.05871
;WIDTH:0.39784
G1 X127.64 Y78.007 E.00177
;WIDTH:0.440887
G1 X127.609 Y77.954 E.00197
G1 X127.655 Y77.886 E.00264
;WIDTH:0.414442
G1 X127.702 Y77.819 E.00245
;WIDTH:0.387997
G1 X128.829 Y75.878 E.06247
;WIDTH:0.414441
G1 X128.864 Y75.83 E.00178
;WIDTH:0.440886
G1 X128.899 Y75.782 E.00191
G1 X128.979 Y75.781 E.00257
;WIDTH:0.410342
G1 X131.3 Y75.787 E.06878
;WIDTH:0.440887
G1 X131.386 Y75.786 E.00276
G1 X131.417 Y75.84 E.002
;WIDTH:0.39784
G1 X131.448 Y75.893 E.00176
;WIDTH:0.354793
G1 X132.609 Y77.918 E.05872
;WIDTH:0.39784
G1 X132.64 Y77.972 E.00178
;WIDTH:0.440888
G1 X132.641 Y77.973 E.00005
M204 P1000
G1 E-2.24 F4200
;WIPE_START
G1 F7200
G1 X132.624 Y78.093 E-.06716
G1 X132.578 Y78.16 E-.04504
G1 X131.81 Y79.483 E-.8478
;WIPE_END
G1 Z.4 F720
G1 X124.816 Y78.153 F9000
G1 Z.2 F720
G1 E3.2 F2400
M204 P800
G1 F1200
G1 X124.852 Y78.105 E.00193
G1 X124.931 Y78.104 E.00254
;WIDTH:0.410344
G1 X127.253 Y78.11 E.06881
;WIDTH:0.440887
G1 X127.338 Y78.109 E.00273
G1 X127.369 Y78.163 E.002
;WIDTH:0.39784
G1 X127.4 Y78.216 E.00176
;WIDTH:0.354793
G1 X128.562 Y80.241 E.05873
;WIDTH:0.397841
G1 X128.593 Y80.294 E.00176
;WIDTH:0.440888
G1 X128.623 Y80.348 E.00198
G1 X128.577 Y80.415 E.00261
;WIDTH:0.414442
G1 X128.531 Y80.483 E.00246
;WIDTH:0.387997
G1 X127.403 Y82.423 E.06246
;WIDTH:0.414442
G1 X127.368 Y82.471 E.00178
;WIDTH:0.440887
G1 X127.333 Y82.519 E.00191
G1 X127.254 Y82.52 E.00254
;WIDTH:0.410343
G1 X124.932 Y82.514 E.06881
;WIDTH:0.440886
G1 X124.846 Y82.515 E.00276
G1 X124.815 Y82.462 E.00197
;WIDTH:0.397839
G1 X124.785 Y82.408 E.00177
;WIDTH:0.354792
G1 X123.623 Y80.384 E.05871
;WIDTH:0.39784
G1 X123.592 Y80.33 E.00178
;WIDTH:0.440888
G1 X123.561 Y80.276 E.002
G1 X123.608 Y80.209 E.00263
;WIDTH:0.414443
G1 X123.654 Y80.142 E.00244
;WIDTH:0.387997
G1 X124.781 Y78.201 E.06247
M204 P1000
G1 E-2.24 F4200
;WIPE_START
G1 F7200
G1 X124.852 Y78.105 E-.06617
G1 X124.931 Y78.104 E-.04378
G1 X126.465 Y78.108 E-.85005
;WIPE_END
G1 Z.4 F720
G1 X127.333 Y87.297 F9000
G1 Z.2 F720
G1 E3.2 F2400
M204 P800
;WIDTH:0.440887
G1 F1200
G1 X127.254 Y87.298 E.00254
