; generated by PrusaSlicer 2.6.0-alpha3+MacOS-x64 on 2023-02-18 at 00:40:43 UTC


;
;

;
;
; 

; external perimeters extrusion width = 0.45mm
; perimeters extrusion width = 0.45mm
; infill extrusion width = 0.45mm
; solid infill extrusion width = 0.45mm
; top infill extrusion width = 0.40mm
; first layer extrusion width = 0.42mm

M73 P0 R29
M201 X2500 Y2500 Z400 E5000 ; sets maximum accelerations, mm/sec^2
M203 X180 Y180 Z12 E80 ; sets maximum feedrates, mm / sec
M204 P1250 R1250 T2500 ; sets acceleration (P, T) and retract acceleration (R), mm/sec^2
M205 X8.00 Y8.00 Z2.00 E10.00 ; sets the jerk limits, mm/sec
M205 S0 T0 ; sets the minimum extruding and travel feed rate, mm/sec
M107
;TYPE:Custom
M862.3 P "MINI" ; printer model check
G90 ; use absolute coordinates
M83 ; extruder relative mode
M104 S170 ; set extruder temp for bed leveling
M140 S100 ; set bed temp
M109 R170 ; wait for bed leveling temp
M190 S100 ; wait for bed temp
M204 T1250 ; set travel acceleration
G28 ; home all without mesh bed level
G29 ; mesh bed leveling 
M204 T2500 ; restore travel acceleration
M104 S290 ; set extruder temp
G92 E0
G1 Y-2 X179 F2400
G1 Z3 F720
M109 S290 ; wait for extruder temp

; intro line
G1 X170 F1000
G1 Z0.2 F720
G1 X110 E8 F900
G1 X40 E10 F700
G92 E0

M221 S95 ; set flow
G21 ; set units to millimeters
G90 ; use absolute coordinates
M83 ; use relative distances for extrusion
M900 K0.2 ; Filament gcode
ENC O1 W0 S32 ; Set enclosure temperature
M107
;LAYER_CHANGE
;Z:0.2
;HEIGHT:0.2
;BEFORE_LAYER_CHANGE
G92 E0.0
;0.2


G1 E-3.2 F4200
G1 Z.2 F720
;AFTER_LAYER_CHANGE
;0.2
G1 Z.4
G1 X114.954 Y54.595 F9000
G1 Z.2 F720
G1 E3.2 F2400
M204 P800
;TYPE:Skirt/Brim
;WIDTH:0.42
G1 F1200
G1 X115.715 Y53.493 E.04073
G1 X116.527 Y52.82 E.03208
G1 X117.476 Y52.361 E.03206
G1 X118.508 Y52.142 E.03209
G1 X151.036 Y52.127 E.9893
G1 X151.8 Y52.22 E.02341
M73 P1 R29
G1 X152.578 Y52.462 E.02478
G1 X153.259 Y52.82 E.0234
G1 X153.9 Y53.322 E.02476
G1 X154.573 Y54.134 E.03208
G1 X154.93 Y54.815 E.02339
G1 X155.173 Y55.593 E.02479
G1 X155.266 Y56.356 E.02338
G1 X155.27 Y123.5 E2.0421
G1 X155.173 Y124.407 E.02774
G1 X154.831 Y125.405 E.03209
G1 X154.261 Y126.292 E.03207
G1 X153.259 Y127.18 E.04072
G1 X152.079 Y127.711 E.03935
G1 X151.036 Y127.873 E.0321
G1 X118.893 Y127.877 E.97759
G1 X117.986 Y127.78 E.02774
G1 X116.988 Y127.439 E.03208
G1 X116.101 Y126.868 E.03208
G1 X115.213 Y125.866 E.04072
G1 X114.681 Y124.686 E.03937
G1 X114.516 Y123.5 E.03642
G1 X114.516 Y56.5 E2.03772
G1 X114.613 Y55.593 E.02774
G1 X114.935 Y54.652 E.03025
M204 P1000
; printing object computer boot.stl id:0 copy 0
G1 E-2.24 F4200
;WIPE_START
G1 F7200
G1 X115.715 Y53.493 E-.77419
G1 X115.973 Y53.279 E-.18581
;WIPE_END
G1 Z.4 F720
G1 X123.476 Y58.877 F9000
G1 Z.2 F720
G1 E3.2 F2400
M204 P800
;TYPE:Perimeter
;WIDTH:0.419999
G1 F1200
G1 X123.866 Y58.921 E.01194
G1 X124.475 Y59.164 E.01994
G1 X124.877 Y59.47 E.01537
G1 X125.258 Y59.966 E.01902
G1 X125.487 Y60.602 E.02056
G1 X125.513 Y61.227 E.01902
G1 X125.347 Y61.852 E.01967
G1 X124.999 Y62.402 E.01979
G1 X124.501 Y62.821 E.01979
G1 X123.87 Y63.077 E.02071
G1 X123.217 Y63.125 E.01991
G1 X122.612 Y62.985 E.01889
G1 X122.03 Y62.639 E.02059
G1 X121.596 Y62.148 E.01993
G1 X121.334 Y61.553 E.01977
G1 X121.261 Y60.936 E.0189
G1 X121.379 Y60.3 E.01967
G1 X121.703 Y59.701 E.02071
G1 X122.151 Y59.266 E.01899
G1 X122.728 Y58.974 E.01967
G1 X123.416 Y58.87 E.02116
M204 P1000
G1 X123.593 Y59.26 F9000
M204 P800
;TYPE:External perimeter
G1 F1200
G1 X123.742 Y59.277 E.00456
G1 X124.246 Y59.463 E.01634
G1 X124.648 Y59.77 E.01538
G1 X124.949 Y60.183 E.01554
G1 X125.127 Y60.716 E.01709
G1 X125.136 Y61.227 E.01554
G1 X124.987 Y61.741 E.01628
G1 X124.689 Y62.187 E.01631
G1 X124.27 Y62.523 E.01633
G1 X123.743 Y62.722 E.01713
G1 X123.205 Y62.748 E.01638
G1 X122.712 Y62.621 E.01548
G1 X122.235 Y62.323 E.01711
G1 X121.889 Y61.911 E.01636
G1 X121.684 Y61.414 E.01635
G1 X121.637 Y60.907 E.01549
G1 X121.747 Y60.383 E.01628
G1 X122.027 Y59.894 E.01714
G1 X122.402 Y59.547 E.01554
G1 X122.885 Y59.317 E.01627
G1 X123.444 Y59.243 E.01715
G1 X123.533 Y59.253 E.00272
M204 P1000
G1 X123.674 Y59.134 F9000
G1 E-2.24 F4200
;WIPE_START
G1 F7200
G1 X123.742 Y59.277 E-.11658
G1 X124.246 Y59.463 E-.29771
G1 X124.648 Y59.77 E-.28031
G1 X124.93 Y60.157 E-.2654
;WIPE_END
G1 Z.4 F720
G1 X151.859 Y55.813 F9000
G1 Z.2 F720
G1 E3.2 F2400
M204 P800
;TYPE:Perimeter
G1 F1200
G1 X152.023 Y56.072 E.00932
G1 X152.106 Y56.524 E.01398
G1 X152.106 Y123.379 E2.0333
G1 X152.083 Y123.644 E.00809
G1 X151.963 Y124.062 E.01323
G1 X151.688 Y124.398 E.01321
G1 X151.321 Y124.63 E.01321
G1 X150.869 Y124.713 E.01398
G1 X119.013 Y124.713 E.96886
G1 X118.749 Y124.691 E.00806
G1 X118.331 Y124.57 E.01323
G1 X117.995 Y124.296 E.01319
G1 X117.763 Y123.928 E.01323
G1 X117.68 Y123.476 E.01398
G1 X117.68 Y56.541 E2.03574
G1 X117.702 Y56.356 E.00567
M73 P2 R28
G1 X117.823 Y55.938 E.01323
G1 X118.097 Y55.602 E.01319
G1 X118.464 Y55.37 E.01321
G1 X118.917 Y55.287 E.01401
G1 X150.774 Y55.287 E.96889
G1 X151.037 Y55.309 E.00803
G1 X151.454 Y55.43 E.01321
G1 X151.791 Y55.704 E.01321
G1 X151.827 Y55.762 E.00208
M204 P1000
G1 X152.2 Y55.598 F9000
M204 P800
;TYPE:External perimeter
G1 F1200
G1 X152.378 Y55.937 E.01165
G1 X152.483 Y56.512 E.01778
G1 X152.483 Y123.379 E2.03367
G1 X152.435 Y123.88 E.01531
G1 X152.299 Y124.238 E.01165
G1 X152.082 Y124.553 E.01163
G1 X151.795 Y124.807 E.01166
G1 X151.456 Y124.985 E.01165
G1 X150.88 Y125.09 E.01781
G1 X119.013 Y125.09 E.96919
G1 X118.513 Y125.042 E.01528
G1 X118.155 Y124.906 E.01165
G1 X117.84 Y124.689 E.01163
G1 X117.586 Y124.402 E.01166
G1 X117.408 Y124.063 E.01165
G1 X117.303 Y123.488 E.01778
G1 X117.303 Y56.518 E2.0368
G1 X117.351 Y56.12 E.01219
G1 X117.486 Y55.762 E.01164
G1 X117.704 Y55.447 E.01165
G1 X117.991 Y55.193 E.01166
G1 X118.33 Y55.015 E.01165
G1 X118.905 Y54.91 E.01778
G1 X150.774 Y54.91 E.96925
G1 X151.273 Y54.958 E.01525
G1 X151.631 Y55.094 E.01165
G1 X151.946 Y55.311 E.01163
G1 X152.16 Y55.553 E.00983
M204 P1000
G1 X152.036 Y55.944 F9000
G1 E-2.24 F4200
;WIPE_START
G1 F7200
G1 X152.378 Y55.937 E-.2447
G1 X152.483 Y56.512 E-.32392
G1 X152.483 Y57.218 E-.39138
;WIPE_END
G1 Z.4 F720
G1 X142.826 Y117.39 F9000
G1 Z.2 F720
G1 E3.2 F2400
M204 P800
;TYPE:Perimeter
G1 F1200
G1 X142.656 Y117.35 E.00531
G1 X142.478 Y117.21 E.00689
G1 X142.354 Y116.954 E.00865
G1 X142.343 Y93.787 E.70459
G1 X125.171 Y93.787 E.52226
G1 X124.905 Y93.721 E.00834
M73 P3 R28
G1 X124.699 Y93.533 E.00848
G1 X124.614 Y93.319 E.007
G1 X124.606 Y93.221 E.00299
G1 X124.606 Y75.779 E.53047
G1 X124.651 Y75.558 E.00686
G1 X124.838 Y75.322 E.00916
G1 X125.062 Y75.224 E.00744
G1 X142.343 Y75.213 E.52558
G1 X142.343 Y63.156 E.3667
G1 X142.395 Y62.92 E.00735
G1 X142.539 Y62.729 E.00727
G1 X142.76 Y62.611 E.00762
G1 X144.624 Y62.585 E.0567
;WIDTH:0.449081
G1 X144.744 Y62.596 E.00395
;WIDTH:0.478162
G1 X144.864 Y62.606 E.00423
;WIDTH:0.503696
G1 X144.973 Y62.652 E.0044
G1 X144.786 Y62.402 E.0116
;WIDTH:0.461848
G1 X144.599 Y62.152 E.01055
;WIDTH:0.419999
G1 X144.341 Y61.582 E.01903
G1 X144.261 Y60.941 E.01965
G1 X144.379 Y60.3 E.01982
G1 X144.703 Y59.701 E.02071
G1 X145.152 Y59.266 E.01901
G1 X145.757 Y58.965 E.02055
G1 X146.406 Y58.868 E.01996
G1 X146.87 Y58.923 E.01421
G1 X147.346 Y59.093 E.01537
G1 X147.88 Y59.473 E.01993
G1 X148.258 Y59.966 E.01889
G1 X148.487 Y60.602 E.02056
G1 X148.513 Y61.209 E.01848
G1 X148.347 Y61.852 E.0202
;WIDTH:0.449696
G1 X148.058 Y62.344 E.01872
;WIDTH:0.492169
G1 X147.987 Y62.458 E.00487
;WIDTH:0.534642
G1 X147.916 Y62.573 E.00536
G1 X148.134 Y62.573 E.00865
;WIDTH:0.496428
G1 X148.352 Y62.573 E.00797
;WIDTH:0.458214
G1 X148.57 Y62.573 E.0073
;WIDTH:0.419999
G1 X149.877 Y62.569 E.03975
G1 X150.179 Y62.655 E.00955
G1 X150.364 Y62.843 E.00802
G1 X150.445 Y63.135 E.00922
G1 X150.445 Y116.865 E1.63412
G1 X150.364 Y117.157 E.00922
G1 X150.179 Y117.345 E.00802
G1 X149.859 Y117.431 E.01008
G1 X148.539 Y117.427 E.04015
;WIDTH:0.45361
G1 X148.33 Y117.424 E.00692
;WIDTH:0.487221
G1 X148.122 Y117.422 E.00745
;WIDTH:0.520831
G1 X147.914 Y117.419 E.00802
;WIDTH:0.528182
G1 X147.888 Y117.41 E.00108
G1 X148.011 Y117.596 E.00873
;WIDTH:0.492121
G1 X148.135 Y117.781 E.00807
;WIDTH:0.45606
G1 X148.258 Y117.966 E.0074
;WIDTH:0.419999
G1 X148.487 Y118.602 E.02056
G1 X148.513 Y119.188 E.01784
G1 X148.487 Y119.398 E.00644
G1 X148.334 Y119.88 E.01538
G1 X147.997 Y120.406 E.019
G1 X147.475 Y120.836 E.02057
G1 X146.896 Y121.072 E.01902
G1 X146.252 Y121.127 E.01966
G1 X145.616 Y120.986 E.01981
G1 X145.053 Y120.659 E.0198
G1 X144.599 Y120.152 E.0207
G1 X144.334 Y119.553 E.01992
G1 X144.261 Y118.936 E.0189
G1 X144.379 Y118.3 E.01967
G1 X144.703 Y117.701 E.02071
;WIDTH:0.455747
G1 X144.784 Y117.594 E.00447
;WIDTH:0.491495
G1 X144.866 Y117.486 E.00491
;WIDTH:0.527242
G1 X144.947 Y117.378 E.00527
G1 X144.786 Y117.398 E.00634
;WIDTH:0.477453
G1 X144.624 Y117.419 E.00573
;WIDTH:0.427664
G1 X144.035 Y117.413 E.01828
;WIDTH:0.419999
G1 X142.884 Y117.404 E.03501
M204 P1000
G1 X142.908 Y117.032 F9000
M204 P800
;TYPE:External perimeter
G1 F1200
G1 X142.765 Y116.966 E.00479
G1 X142.721 Y116.844 E.00394
G1 X142.721 Y93.41 E.71271
G1 X125.171 Y93.41 E.53376
G1 X125.035 Y93.351 E.00451
G1 X124.983 Y93.221 E.00426
G1 X124.983 Y75.779 E.53047
G1 X125.036 Y75.647 E.00433
G1 X125.171 Y75.59 E.00446
G1 X142.721 Y75.59 E.53376
G1 X142.721 Y63.156 E.37816
G1 X142.786 Y63.014 E.00475
G1 X142.908 Y62.968 E.00397
G1 X144.625 Y62.962 E.05222
G1 X144.788 Y63.034 E.00542
G1 X145.232 Y63.299 E.01573
G1 X145.539 Y63.44 E.01027
G1 X146.049 Y63.562 E.01595
G1 X146.575 Y63.578 E.016
G1 X147.092 Y63.488 E.01596
G1 X147.581 Y63.295 E.01599
G1 X148.071 Y62.981 E.0177
G1 X148.172 Y62.951 E.0032
G1 X149.879 Y62.946 E.05192
G1 X149.979 Y62.975 E.00317
G1 X150.068 Y63.135 E.00557
G1 X150.068 Y116.865 E1.63412
G1 X150.041 Y116.963 E.00309
G1 X149.914 Y117.051 E.0047
G1 X148.172 Y117.049 E.05298
G1 X148.064 Y117.014 E.00345
G1 X147.579 Y116.714 E.01734
G1 X147.262 Y116.566 E.01064
G1 X146.752 Y116.44 E.01598
G1 X146.232 Y116.421 E.01583
G1 X145.709 Y116.507 E.01612
G1 X145.218 Y116.698 E.01602
G1 X144.724 Y117.01 E.01777
G1 X144.036 Y117.036 E.02094
G1 X142.968 Y117.032 E.03248
M204 P1000
G1 X142.794 Y117.141 F9000
G1 E-2.24 F4200
;WIPE_START
G1 F7200
G1 X142.765 Y116.966 E-.11829
G1 X142.721 Y116.844 E-.07187
G1 X142.721 Y115.455 E-.76984
;WIPE_END
G1 Z.4 F720
G1 X147.889 Y61.887 F9000
G1 Z.2 F720
G1 E3.2 F2400
M204 P800
G1 F1200
G1 X147.689 Y62.187 E.01097
G1 X147.27 Y62.523 E.01633
G1 X146.743 Y62.722 E.01713
G1 X146.233 Y62.751 E.01554
G1 X145.688 Y62.61 E.01712
G1 X145.254 Y62.34 E.01555
G1 X144.89 Y61.912 E.01709
G1 X144.691 Y61.441 E.01555
G1 X144.637 Y60.909 E.01626
G1 X144.747 Y60.383 E.01634
G1 X145.027 Y59.894 E.01714
G1 X145.402 Y59.547 E.01554
G1 X145.912 Y59.309 E.01712
G1 X146.446 Y59.243 E.01636
G1 X146.743 Y59.278 E.0091
G1 X147.218 Y59.448 E.01534
G1 X147.649 Y59.771 E.01638
G1 X147.949 Y60.183 E.0155
G1 X148.127 Y60.716 E.01709
G1 X148.136 Y61.227 E.01554
G1 X147.987 Y61.741 E.01628
G1 X147.923 Y61.837 E.00351
M204 P1000
G1 X148.074 Y62.198 F9000
G1 X147.916 Y62.573
M204 P800
;TYPE:Perimeter
;WIDTH:0.534642
G1 F1200
G1 X147.696 Y62.725 E.01061
;WIDTH:0.508576
G1 X147.477 Y62.877 E.01001
;WIDTH:0.50468
G1 X146.945 Y63.096 E.02143
;WIDTH:0.508694
G1 X146.51 Y63.162 E.01653
G1 X146.065 Y63.145 E.01673
;WIDTH:0.497746
G1 X145.579 Y63.009 E.01851
;WIDTH:0.502226
G1 X145.027 Y62.691 E.0236
;WIDTH:0.503696
G1 X144.973 Y62.652 E.00248
M204 P1000
G1 E-2.24 F4200
;WIPE_START
G1 F7200
G1 X145.027 Y62.691 E-.03691
G1 X145.579 Y63.009 E-.35303
G1 X146.065 Y63.145 E-.27967
G1 X146.51 Y63.162 E-.24678
G1 X146.588 Y63.15 E-.04361
;WIPE_END
G1 Z.4 F720
G1 X148.122 Y119.275 F9000
G1 Z.2 F720
G1 E3.2 F2400
M204 P800
;TYPE:External perimeter
;WIDTH:0.419999
G1 F1200
G1 X147.975 Y119.766 E.01559
G1 X147.688 Y120.189 E.01555
G1 X147.246 Y120.536 E.01709
G1 X146.768 Y120.718 E.01556
G1 X146.234 Y120.751 E.01627
G1 X145.713 Y120.621 E.01633
G1 X145.256 Y120.341 E.0163
G1 X144.89 Y119.912 E.01715
G1 X144.684 Y119.415 E.01636
G1 X144.637 Y118.907 E.01552
G1 X144.747 Y118.383 E.01628
G1 X145.027 Y117.894 E.01714
G1 X145.425 Y117.532 E.01636
G1 X145.913 Y117.309 E.01632
G1 X146.446 Y117.243 E.01633
G1 X146.742 Y117.277 E.00906
G1 X147.216 Y117.445 E.01529
G1 X147.627 Y117.753 E.01562
G1 X147.949 Y118.183 E.01634
G1 X148.127 Y118.716 E.01709
G1 X148.136 Y119.217 E.01524
M204 P1000
G1 X148.437 Y119.522 F9000
G1 E-2.24 F4200
;WIPE_START
M73 P4 R28
G1 F7200
G1 X147.975 Y119.766 E-.31705
G1 X147.688 Y120.189 E-.28328
G1 X147.246 Y120.536 E-.31141
G1 X147.165 Y120.567 E-.04826
;WIPE_END
G1 Z.4 F720
G1 X144.947 Y117.378 F9000
G1 Z.2 F720
G1 E3.2 F2400
M204 P800
;TYPE:Perimeter
;WIDTH:0.527242
G1 F1200
G1 X145.443 Y117.055 E.02312
;WIDTH:0.50887
G1 X145.925 Y116.884 E.01922
;WIDTH:0.491178
G1 X146.498 Y116.835 E.02079
;WIDTH:0.487456
G1 X146.877 Y116.889 E.01373
G1 X147.398 Y117.079 E.01988
;WIDTH:0.519288
G1 X147.819 Y117.363 E.01951
;WIDTH:0.528182
G1 X147.888 Y117.41 E.00327
M204 P1000
G1 E-2.24 F4200
;WIPE_START
G1 F7200
G1 X147.819 Y117.363 E-.04627
G1 X147.398 Y117.079 E-.28143
G1 X146.877 Y116.889 E-.30732
G1 X146.498 Y116.835 E-.21215
G1 X146.295 Y116.852 E-.11283
;WIPE_END
G1 Z.4 F720
G1 X123.478 Y116.876 F9000
G1 Z.2 F720
G1 E3.2 F2400
M204 P800
;WIDTH:0.419999
G1 F1200
G1 X123.866 Y116.921 E.01188
G1 X124.357 Y117.094 E.01583
G1 X124.877 Y117.47 E.01952
G1 X125.258 Y117.966 E.01902
G1 X125.487 Y118.602 E.02056
G1 X125.513 Y119.227 E.01902
G1 X125.334 Y119.88 E.02059
G1 X124.997 Y120.406 E.019
G1 X124.475 Y120.836 E.02057
G1 X123.896 Y121.072 E.01902
G1 X123.252 Y121.127 E.01966
G1 X122.616 Y120.986 E.01981
G1 X122.053 Y120.659 E.0198
G1 X121.599 Y120.152 E.0207
G1 X121.334 Y119.553 E.01992
G1 X121.263 Y118.905 E.01983
G1 X121.38 Y118.296 E.01886
G1 X121.703 Y117.701 E.02059
G1 X122.177 Y117.249 E.01992
G1 X122.762 Y116.963 E.0198
G1 X123.418 Y116.869 E.02016
M204 P1000
G1 X123.333 Y117.257 F9000
M204 P800
;TYPE:External perimeter
G1 F1200
G1 X123.446 Y117.243 E.00346
G1 X123.742 Y117.277 E.00906
G1 X124.218 Y117.446 E.01536
G1 X124.648 Y117.77 E.01637
G1 X124.949 Y118.183 E.01554
G1 X125.127 Y118.716 E.01709
G1 X125.136 Y119.227 E.01554
G1 X124.975 Y119.766 E.01711
G1 X124.688 Y120.189 E.01555
G1 X124.246 Y120.536 E.01709
G1 X123.768 Y120.718 E.01556
G1 X123.234 Y120.751 E.01627
G1 X122.713 Y120.621 E.01633
G1 X122.256 Y120.341 E.0163
G1 X121.89 Y119.912 E.01715
G1 X121.684 Y119.414 E.01639
G1 X121.639 Y118.88 E.0163
G1 X121.747 Y118.382 E.0155
G1 X122.027 Y117.894 E.01711
G1 X122.425 Y117.532 E.01636
G1 X122.913 Y117.309 E.01632
G1 X123.273 Y117.264 E.01103
M204 P1000
G1 X123.371 Y117.15 F9000
G1 E-2.24 F4200
;WIPE_START
G1 F7200
G1 X123.446 Y117.243 E-.09657
G1 X123.742 Y117.277 E-.16511
G1 X124.218 Y117.446 E-.27992
G1 X124.648 Y117.77 E-.29836
G1 X124.776 Y117.945 E-.12004
;WIPE_END
G1 Z.4 F720
G1 X150.54 Y55.457 F9000
G1 Z.2 F720
G1 E3.2 F2400
M204 P800
;TYPE:Solid infill
;WIDTH:0.420472
G1 F1200
G1 X151.766 Y56.683 E.0528
G1 X151.766 Y57.217 E.01626
G1 X150.176 Y55.627 E.06847
G1 X149.642 Y55.627 E.01626
G1 X151.766 Y57.751 E.09147
G1 X151.766 Y58.285 E.01626
G1 X149.108 Y55.627 E.11447
G1 X148.574 Y55.627 E.01626
G1 X151.766 Y58.819 E.13746
G1 X151.766 Y59.353 E.01626
G1 X148.04 Y55.627 E.16046
G1 X147.506 Y55.627 E.01626
G1 X151.766 Y59.887 E.18346
G1 X151.766 Y60.421 E.01626
G1 X146.972 Y55.627 E.20646
G1 X146.438 Y55.627 E.01626
G1 X151.766 Y60.955 E.22945
G1 X151.766 Y61.489 E.01626
G1 X145.904 Y55.627 E.25245
G1 X145.37 Y55.627 E.01626
G1 X151.766 Y62.023 E.27545
G1 X151.766 Y62.557 E.01626
G1 X144.836 Y55.627 E.29844
G1 X144.302 Y55.627 E.01626
G1 X151.766 Y63.091 E.32144
G1 X151.766 Y63.624 E.01623
G1 X148.843 Y60.702 E.12586
G1 X148.852 Y61.244 E.01651
G1 X149.849 Y62.241 E.04294
G1 X150.045 Y62.242 E.00597
G1 X150.364 Y62.366 E.01042
G1 X150.661 Y62.668 E.0129
G1 X150.784 Y63.114 E.01409
G1 X150.784 Y63.176 E.00189
G1 X151.766 Y64.158 E.04229
G1 X151.766 Y64.692 E.01626
G1 X150.784 Y63.71 E.04229
