; generated by PrusaSlicer 2.6.0-alpha3+MacOS-x64 on 2023-02-11 at 22:01:43 UTC


;
;

;
;
; 

; external perimeters extrusion width = 0.45mm
; perimeters extrusion width = 0.45mm
; infill extrusion width = 0.45mm
; solid infill extrusion width = 0.45mm
; top infill extrusion width = 0.40mm
; first layer extrusion width = 0.42mm

; external perimeters extrusion width = 0.45mm
; perimeters extrusion width = 0.45mm
; infill extrusion width = 0.45mm
; solid infill extrusion width = 0.45mm
; top infill extrusion width = 0.40mm
; first layer extrusion width = 0.42mm

; external perimeters extrusion width = 0.45mm
; perimeters extrusion width = 0.45mm
; infill extrusion width = 0.45mm
; solid infill extrusion width = 0.45mm
; top infill extrusion width = 0.40mm
; first layer extrusion width = 0.42mm

; external perimeters extrusion width = 0.45mm
; perimeters extrusion width = 0.45mm
; infill extrusion width = 0.45mm
; solid infill extrusion width = 0.45mm
; top infill extrusion width = 0.40mm
; first layer extrusion width = 0.42mm

M73 P0 R83
M201 X2500 Y2500 Z400 E5000 ; sets maximum accelerations, mm/sec^2
M203 X180 Y180 Z12 E80 ; sets maximum feedrates, mm / sec
M204 P1250 R1250 T2500 ; sets acceleration (P, T) and retract acceleration (R), mm/sec^2
M205 X8.00 Y8.00 Z2.00 E10.00 ; sets the jerk limits, mm/sec
M205 S0 T0 ; sets the minimum extruding and travel feed rate, mm/sec
M107
;TYPE:Custom
M862.3 P "MINI" ; printer model check
G90 ; use absolute coordinates
M83 ; extruder relative mode
M104 S170 ; set extruder temp for bed leveling
M140 S85 ; set bed temp
M109 R170 ; wait for bed leveling temp
M190 S85 ; wait for bed temp
M204 T1250 ; set travel acceleration
G28 ; home all without mesh bed level
G29 ; mesh bed leveling 
M204 T2500 ; restore travel acceleration
M104 S240 ; set extruder temp
G92 E0
G1 Y-2 X179 F2400
G1 Z3 F720
M109 S240 ; wait for extruder temp

; intro line
G1 X170 F1000
G1 Z0.2 F720
G1 X110 E8 F900
G1 X40 E10 F700
G92 E0

M221 S95 ; set flow
G21 ; set units to millimeters
G90 ; use absolute coordinates
M83 ; use relative distances for extrusion
M900 K0.2 ; Filament gcode
M107
;LAYER_CHANGE
;Z:0.2
;HEIGHT:0.2
;BEFORE_LAYER_CHANGE
G92 E0.0
;0.2


G1 E-3.2 F2700
G1 Z.2 F720
;AFTER_LAYER_CHANGE
;0.2
G1 Z.4
G1 X98.828 Y11.736 F9000
G1 Z.2 F720
G1 E3.2 F1500
M204 P800
;TYPE:Skirt/Brim
;WIDTH:0.42
G1 F1200
G1 X98.97 Y10.925 E.02582
G1 X100.97 Y5.415 E.18379
G1 X101.784 Y4.32 E.04278
G1 X103.205 Y3.849 E.04694
G1 X169.205 Y3.849 E2.06938
G1 X170.512 Y4.241 E.04278
G1 X171.439 Y5.415 E.0469
G1 X173.439 Y10.925 E.18379
G1 X173.581 Y11.693 E.02449
G1 X176.04 Y146.981 E4.24256
G1 X176.04 Y169.481 E.70547
G1 X175.897 Y170.292 E.02582
G1 X173.897 Y175.802 E.18379
G1 X173.083 Y176.897 E.04278
G1 X171.663 Y177.368 E.04691
G1 X105.663 Y177.368 E2.06938
G1 X104.356 Y176.977 E.04277
G1 X103.428 Y175.802 E.04695
G1 X101.428 Y170.292 E.18379
G1 X101.286 Y169.525 E.02446
G1 X98.828 Y34.236 E4.24259
G1 X98.828 Y11.796 E.70359
M204 P1000
; printing object left.stl id:0 copy 0
G1 E-2.24 F2700
;WIPE_START
G1 F7200
G1 X98.97 Y10.925 E-.31439
G1 X99.588 Y9.222 E-.64561
;WIPE_END
G1 Z.4 F720
G1 X106.429 Y156.285 F9000
G1 Z.2 F720
G1 E3.2 F1500
M204 P800
;TYPE:Perimeter
;WIDTH:0.419999
G1 F1200
G1 X106.45 Y156.203 E.00265
G1 X106.439 Y151.15 E.15843
G1 X106.312 Y150.89 E.00907
G1 X106.092 Y150.734 E.00846
G1 X105.884 Y150.694 E.00664
G1 X104.45 Y150.694 E.04496
G1 X104.45 Y147.768 E.09174
G1 X105.884 Y147.768 E.04496
G1 X106.092 Y147.729 E.00664
G1 X106.231 Y147.65 E.00501
G1 X106.386 Y147.464 E.00759
G1 X106.45 Y147.203 E.00843
G1 X106.45 Y137.478 E.30492
G1 X111.164 Y137.474 E.1478
G1 X111.689 Y137.448 E.01648
G1 X111.609 Y138.136 E.02172
G1 X111.581 Y138.648 E.01608
G1 X111.575 Y142.702 E.12711
G1 X111.584 Y142.801 E.00312
G1 X111.705 Y143.063 E.00905
G1 X111.874 Y143.202 E.00686
G1 X112.137 Y143.268 E.0085
G1 X122.684 Y143.268 E.33069
G1 X122.789 Y143.259 E.0033
M73 P0 R82
G1 X123.072 Y143.114 E.00997
;WIDTH:0.444352
G1 X123.262 Y142.702 E.01514
;WIDTH:0.449702
G1 X123.259 Y138.648 E.13712
;WIDTH:0.452569
G1 X123.258 Y138.597 E.00174
;WIDTH:0.489778
G1 X123.233 Y138.095 E.01868
;WIDTH:0.523579
G1 X123.196 Y137.497 E.02395
G1 X123.705 Y137.499 E.02034
G1 X123.72 Y137.569 E.00286
G1 X123.676 Y138.134 E.02265
;WIDTH:0.485792
G1 X123.666 Y138.648 E.01893
;WIDTH:0.449702
G1 X123.663 Y142.702 E.13712
;WIDTH:0.444352
G1 X123.853 Y143.114 E.01514
;WIDTH:0.419999
G1 X124 Y143.214 E.00557
G1 X124.241 Y143.268 E.00774
G1 X130.986 Y143.268 E.21148
;WIDTH:0.444381
G1 X134.784 Y143.281 E.12678
;WIDTH:0.45028
G1 X134.884 Y143.275 E.00339
G1 X135.237 Y143.042 E.01433
;WIDTH:0.419999
G1 X135.35 Y142.702 E.01123
G1 X135.344 Y138.648 E.12711
G1 X135.228 Y137.443 E.03796
G1 X136.162 Y137.477 E.0293
G1 X149.375 Y137.478 E.41428
G1 X149.375 Y142.626 E.16141
G1 X149.404 Y142.879 E.00798
G1 X149.499 Y143.056 E.0063
G1 X149.739 Y143.231 E.00931
G1 X149.941 Y143.268 E.00644
G1 X166.941 Y143.268 E.53302
G1 X167.708 Y143.255 E.02405
G1 X167.994 Y143.093 E.01031
G1 X168.106 Y142.92 E.00646
G1 X168.15 Y142.703 E.00694
G1 X168.15 Y137.478 E.16383
G1 X170.875 Y137.478 E.08544
G1 X170.875 Y146.56 E.28476
G1 X170.897 Y147.356 E.02497
G1 X171.044 Y147.606 E.00909
G1 X171.26 Y147.739 E.00795
G1 X171.441 Y147.768 E.00575
G1 X172.875 Y147.768 E.04496
G1 X172.875 Y150.694 E.09174
G1 X171.392 Y150.696 E.0465
G1 X171.129 Y150.788 E.00874
G1 X170.937 Y151.002 E.00901
G1 X170.875 Y151.26 E.00832
G1 X170.875 Y156.203 E.15498
G1 X170.934 Y156.453 E.00805
G1 X171.052 Y156.614 E.00626
G1 X171.266 Y156.741 E.0078
G1 X171.441 Y156.768 E.00555
G1 X172.875 Y156.768 E.04496
G1 X172.875 Y159.694 E.09174
G1 X171.433 Y159.694 E.04521
G1 X171.138 Y159.783 E.00966
G1 X170.934 Y160.01 E.00957
G1 X170.875 Y160.26 E.00805
G1 X170.875 Y165.203 E.15498
G1 X170.934 Y165.453 E.00805
G1 X171.052 Y165.614 E.00626
G1 X171.266 Y165.741 E.0078
G1 X171.441 Y165.768 E.00555
G1 X172.875 Y165.768 E.04496
G1 X172.875 Y168.694 E.09174
G1 X171.433 Y168.694 E.04521
G1 X171.138 Y168.783 E.00966
G1 X170.934 Y169.01 E.00957
G1 X170.875 Y169.26 E.00805
M73 P1 R82
G1 X170.875 Y174.204 E.15502
G1 X106.45 Y174.204 E2.02
G1 X106.45 Y169.26 E.15502
G1 X106.429 Y169.108 E.00481
G1 X106.3 Y168.876 E.00832
G1 X106.081 Y168.73 E.00825
G1 X105.884 Y168.694 E.00628
G1 X104.45 Y168.694 E.04496
G1 X104.45 Y165.768 E.09174
G1 X105.884 Y165.768 E.04496
G1 X106.081 Y165.733 E.00627
G1 X106.217 Y165.66 E.00484
G1 X106.378 Y165.478 E.00762
G1 X106.45 Y165.203 E.00891
G1 X106.45 Y160.701 E.14116
G1 X106.436 Y160.135 E.01775
G1 X106.304 Y159.881 E.00898
G1 X106.085 Y159.731 E.00832
G1 X105.884 Y159.694 E.00641
G1 X104.45 Y159.694 E.04496
G1 X104.45 Y156.768 E.09174
G1 X105.884 Y156.768 E.04496
G1 X106.085 Y156.732 E.0064
G1 X106.222 Y156.656 E.00491
G1 X106.381 Y156.473 E.0076
G1 X106.414 Y156.343 E.00421
M204 P1000
G1 X106.073 Y156.203 F9000
M204 P800
;TYPE:External perimeter
G1 F1200
G1 X106.073 Y151.26 E.15498
G1 X106.027 Y151.137 E.00412
G1 X105.887 Y151.071 E.00485
G1 X104.073 Y151.071 E.05688
G1 X104.073 Y147.391 E.11538
;WIDTH:0.419998
G1 X105.884 Y147.391 E.05678
G1 X106.027 Y147.326 E.00493
G1 X106.073 Y147.203 E.00412
G1 X106.073 Y137.101 E.31674
G1 X111.047 Y137.097 E.15596
G1 X111.611 Y137.075 E.0177
G1 X112.111 Y137.02 E.01577
G1 X112.667 Y137.003 E.01744
G1 X122.583 Y137.01 E.31091
;WIDTH:0.417275
G1 X122.661 Y137.012 E.00243
;WIDTH:0.419998
G1 X123.16 Y137.068 E.01574
G1 X123.698 Y137.069 E.01687
G1 X124.676 Y137.003 E.03073
G1 X134.639 Y137.005 E.31238
;WIDTH:0.418759
G1 X134.748 Y137.014 E.00342
;WIDTH:0.419999
G1 X135.329 Y137.07 E.0183
G1 X136.162 Y137.1 E.02614
G1 X149.753 Y137.101 E.42614
G1 X149.753 Y142.626 E.17323
G1 X149.794 Y142.82 E.00622
G1 X149.941 Y142.891 E.00512
G1 X167.584 Y142.891 E.55318
G1 X167.721 Y142.833 E.00466
G1 X167.773 Y142.703 E.00439
G1 X167.773 Y137.101 E.17565
G1 X171.253 Y137.101 E.10911
G1 X171.253 Y147.203 E.31674
G1 X171.291 Y147.317 E.00377
G1 X171.438 Y147.391 E.00516
G1 X173.253 Y147.391 E.05691
G1 X173.253 Y151.071 E.11538
G1 X171.441 Y151.071 E.05681
G1 X171.309 Y151.126 E.00448
G1 X171.253 Y151.26 E.00455
G1 X171.253 Y156.203 E.15498
G1 X171.294 Y156.32 E.00389
G1 X171.438 Y156.391 E.00503
G1 X173.253 Y156.391 E.05691
G1 X173.253 Y160.071 E.11538
G1 X171.441 Y160.071 E.05681
G1 X171.312 Y160.123 E.00436
G1 X171.253 Y160.26 E.00468
G1 X171.253 Y165.203 E.15498
G1 X171.294 Y165.32 E.00389
G1 X171.438 Y165.391 E.00503
G1 X173.253 Y165.391 E.05691
G1 X173.253 Y169.071 E.11538
G1 X171.441 Y169.071 E.05681
G1 X171.312 Y169.123 E.00436
G1 X171.253 Y169.26 E.00468
G1 X171.253 Y174.581 E.16684
G1 X106.073 Y174.581 E2.04367
G1 X106.073 Y169.26 E.16684
G1 X106.023 Y169.132 E.00431
G1 X105.887 Y169.071 E.00467
G1 X104.073 Y169.071 E.05688
G1 X104.073 Y165.391 E.11538
G1 X105.884 Y165.391 E.05678
G1 X106.023 Y165.331 E.00475
G1 X106.073 Y165.203 E.00431
G1 X106.073 Y160.26 E.15498
G1 X106.024 Y160.134 E.00424
G1 X105.887 Y160.071 E.00473
G1 X104.073 Y160.071 E.05688
G1 X104.073 Y156.391 E.11538
G1 X105.884 Y156.391 E.05678
G1 X106.024 Y156.329 E.0048
G1 X106.051 Y156.259 E.00235
M204 P1000
G1 X106.459 Y156.099 F9000
G1 E-2.24 F2700
;WIPE_START
G1 F7200
G1 X106.063 Y153.564 E-.96
;WIPE_END
G1 Z.4 F720
G1 X111.952 Y142.703 F9000
G1 Z.2 F720
G1 E3.2 F1500
M204 P800
G1 F1200
G1 X111.958 Y138.648 E.12714
G1 X111.986 Y138.147 E.01573
G1 X112.055 Y137.547 E.01894
G1 X112.188 Y137.388 E.0065
G1 X122.583 Y137.382 E.32593
G1 X122.636 Y137.387 E.00167
G1 X122.771 Y137.552 E.00668
G1 X122.867 Y138.648 E.0345
G1 X122.873 Y142.703 E.12714
G1 X122.813 Y142.84 E.00469
G1 X122.684 Y142.891 E.00435
G1 X112.141 Y142.891 E.33057
G1 X111.996 Y142.823 E.00502
G1 X111.973 Y142.759 E.00213
M204 P1000
G1 X111.566 Y142.599 F9000
G1 E-2.24 F2700
;WIPE_START
G1 F7200
G1 X111.963 Y140.064 E-.96
;WIPE_END
G1 Z.4 F720
G1 X134.973 Y142.703 F9000
G1 Z.2 F720
G1 E3.2 F1500
M204 P800
G1 F1200
G1 X134.935 Y142.816 E.00374
G1 X134.784 Y142.891 E.00529
G1 X124.241 Y142.891 E.33057
G1 X124.112 Y142.84 E.00435
G1 X124.053 Y142.703 E.00468
G1 X124.058 Y138.648 E.12714
G1 X124.087 Y138.147 E.01573
G1 X124.155 Y137.547 E.01893
G1 X124.329 Y137.386 E.00743
G1 X134.639 Y137.381 E.32326
;WIDTH:0.418759
G1 X134.705 Y137.384 E.00206
;WIDTH:0.419999
G1 X134.857 Y137.495 E.0059
G1 X134.967 Y138.648 E.03632
G1 X134.973 Y142.643 E.12526
M204 P1000
G1 X135.062 Y142.782 F9000
G1 E-2.24 F2700
;WIPE_START
G1 F7200
G1 X134.935 Y142.816 E-.0631
G1 X134.784 Y142.891 E-.06006
G1 X132.435 Y142.891 E-.83684
;WIPE_END
G1 Z.4 F720
G1 X148.51 Y153.611 F9000
G1 Z.2 F720
G1 E3.2 F1500
M204 P800
;TYPE:Perimeter
;WIDTH:0.538115
G1 F1200
G1 X148.504 Y153.616 E.00032
;WIDTH:0.577487
G1 X148.418 Y153.69 E.00504
G1 X147.691 Y153.696 E.03232
;WIDTH:0.570631
G1 X147.465 Y153.677 E.00995
;WIDTH:0.532973
G1 X147.239 Y153.659 E.00924
;WIDTH:0.495315
G1 X147.012 Y153.64 E.00857
;WIDTH:0.457657
G1 X146.786 Y153.621 E.00782
;WIDTH:0.419999
G1 X131.764 Y153.621 E.471
G1 X131.494 Y153.552 E.00874
G1 X131.289 Y153.363 E.00874
G1 X131.198 Y153.055 E.01007
G1 X131.198 Y144.26 E.27576
G1 X131.312 Y143.921 E.01121
;WIDTH:0.45028
G1 X131.664 Y143.688 E.0143
G1 X131.764 Y143.682 E.00339
;WIDTH:0.444381
G1 X135.564 Y143.694 E.12685
;WIDTH:0.419999
G1 X148.307 Y143.694 E.39955
G1 X148.509 Y143.732 E.00644
G1 X148.749 Y143.907 E.00931
G1 X148.845 Y144.084 E.00631
G1 X148.873 Y144.337 E.00798
G1 X148.873 Y153.055 E.27335
G1 X148.759 Y153.395 E.01124
;WIDTH:0.459371
G1 X148.674 Y153.469 E.0039
;WIDTH:0.498743
G1 X148.589 Y153.542 E.00425
;WIDTH:0.538115
G1 X148.555 Y153.571 E.00184
M204 P1000
G1 X148.307 Y153.244 F9000
M204 P800
;TYPE:External perimeter
;WIDTH:0.419999
G1 F1200
G1 X131.764 Y153.244 E.51869
G1 X131.619 Y153.175 E.00503
G1 X131.576 Y153.055 E.004
G1 X131.576 Y144.26 E.27576
G1 X131.613 Y144.147 E.00373
G1 X131.764 Y144.071 E.0053
G1 X148.307 Y144.071 E.51869
G1 X148.454 Y144.142 E.00512
G1 X148.496 Y144.337 E.00625
G1 X148.496 Y153.055 E.27335
G1 X148.458 Y153.168 E.00374
G1 X148.361 Y153.217 E.00341
M204 P1000
G1 X148.203 Y153.63 F9000
G1 E-2.24 F2700
;WIPE_START
G1 F7200
G1 X145.666 Y153.221 E-.96
;WIPE_END
G1 Z.4 F720
G1 X166.183 Y171.483 F9000
G1 Z.2 F720
G1 E3.2 F1500
M204 P800
;TYPE:Perimeter
G1 F1200
G1 X166.149 Y171.642 E.0051
G1 X166.044 Y171.797 E.00587
G1 X165.866 Y171.924 E.00686
G1 X165.634 Y171.973 E.00743
G1 X147.691 Y171.973 E.56259
G1 X147.425 Y171.907 E.00859
G1 X147.239 Y171.747 E.00769
G1 X147.148 Y171.566 E.00635
G1 X147.125 Y171.408 E.00501
G1 X147.125 Y154.865 E.51869
G1 X147.239 Y154.526 E.01121
;WIDTH:0.459371
G1 X147.324 Y154.452 E.0039
;WIDTH:0.498743
G1 X147.409 Y154.378 E.00427
;WIDTH:0.538115
G1 X147.494 Y154.304 E.00464
;WIDTH:0.577487
G1 X147.58 Y154.23 E.00504
G1 X148.307 Y154.224 E.03232
;WIDTH:0.57063
G1 X148.533 Y154.243 E.00995
;WIDTH:0.532973
G1 X148.759 Y154.262 E.00924
;WIDTH:0.495315
G1 X148.986 Y154.28 E.00857
;WIDTH:0.457657
G1 X149.212 Y154.299 E.00782
;WIDTH:0.419999
G1 X165.634 Y154.299 E.5149
G1 X165.885 Y154.358 E.00808
G1 X166.062 Y154.495 E.00702
G1 X166.182 Y154.727 E.00819
G1 X166.2 Y154.865 E.00436
G1 X166.196 Y171.424 E.51919
M204 P1000
G1 X165.823 Y171.408 F9000
M204 P800
;TYPE:External perimeter
G1 F1200
G1 X165.771 Y171.538 E.00439
G1 X165.634 Y171.596 E.00466
G1 X147.691 Y171.596 E.56259
G1 X147.54 Y171.521 E.00529
G1 X147.503 Y171.408 E.00373
G1 X147.503 Y154.865 E.51869
G1 X147.54 Y154.752 E.00373
G1 X147.691 Y154.676 E.0053
G1 X165.634 Y154.676 E.56259
G1 X165.777 Y154.742 E.00494
G1 X165.823 Y154.865 E.00412
G1 X165.823 Y171.348 E.51681
M204 P1000
G1 X165.922 Y171.506 F9000
G1 E-2.24 F2700
;WIPE_START
G1 F7200
G1 X165.771 Y171.538 E-.07018
G1 X165.634 Y171.596 E-.053
G1 X163.285 Y171.596 E-.83682
;WIPE_END
G1 Z.4 F720
G1 X172.117 Y156.938 F9000
G1 Z.2 F720
G1 E3.2 F1500
M204 P800
;TYPE:Solid infill
;WIDTH:0.421103
G1 F1200
G1 X172.536 Y157.358 E.01866
G1 X172.536 Y157.893 E.01682
G1 X171.582 Y156.938 E.04245
M204 P1000
G1 E-2.24 F2700
;WIPE_START
G1 F7200
G1 X172.536 Y157.893 E-.48089
G1 X172.536 Y157.358 E-.19059
G1 X172.117 Y156.938 E-.21135
;WIPE_END
G1 E-.07717 F2700
G1 Z.4 F720
G1 X172.706 Y148.435 F9000
G1 Z.2 F720
G1 E3.2 F1500
M204 P800
G1 F1200
G1 X172.378 Y148.108 E.01456
G1 X171.843 Y148.108 E.01682
G1 X172.706 Y148.97 E.03836
M204 P1000
G1 E-2.24 F2700
;WIPE_START
G1 F7200
G1 X171.843 Y148.108 E-.43454
G1 X172.378 Y148.108 E-.19059
G1 X172.706 Y148.435 E-.165
;WIPE_END
G1 E-.16987 F2700
G1 Z.4 F720
G1 X170.706 Y138.413 F9000
G1 Z.2 F720
G1 E3.2 F1500
M204 P800
G1 F1200
G1 X170.111 Y137.818 E.02646
G1 X169.576 Y137.818 E.01682
G1 X170.537 Y138.779 E.04274
G1 X170.537 Y139.314 E.01682
G1 X169.041 Y137.818 E.06653
G1 X168.506 Y137.818 E.01682
G1 X170.538 Y139.849 E.09034
G1 X170.538 Y140.385 E.01686
G1 X168.488 Y138.334 E.09119
G1 X168.486 Y138.867 E.01676
G1 X170.539 Y140.92 E.0913
G1 X170.539 Y141.455 E.01682
G1 X168.485 Y139.401 E.09134
G1 X168.484 Y139.935 E.01679
G1 X170.539 Y141.99 E.09139
G1 X170.54 Y142.526 E.01686
G1 X168.483 Y140.468 E.0915
G1 X168.482 Y141.002 E.01679
G1 X170.54 Y143.061 E.09154
G1 X170.541 Y143.596 E.01682
G1 X168.48 Y141.536 E.09163
G1 X168.479 Y142.069 E.01676
G1 X170.541 Y144.131 E.0917
G1 X170.542 Y144.667 E.01686
G1 X168.478 Y142.603 E.09179
G1 X168.478 Y142.855 E.00792
G1 X168.41 Y143.07 E.00709
G1 X170.542 Y145.202 E.09481
G1 X170.542 Y145.737 E.01682
G1 X168.18 Y143.375 E.10504
G1 X168.012 Y143.502 E.00662
G1 X167.837 Y143.567 E.00587
G1 X170.543 Y146.272 E.12032
G1 X170.543 Y146.808 E.01686
G1 X167.344 Y143.608 E.14229
G1 X166.809 Y143.608 E.01682
G1 X172.536 Y149.335 E.25469
G1 X172.536 Y149.87 E.01682
G1 X166.274 Y143.608 E.27848
G1 X165.739 Y143.608 E.01682
G1 X172.486 Y150.355 E.30005
G1 X171.951 Y150.355 E.01682
G1 X165.204 Y143.608 E.30005
G1 X164.669 Y143.608 E.01682
G1 X171.417 Y150.355 E.30007
G1 X171.153 Y150.4 E.00842
G1 X171.001 Y150.475 E.00533
G1 X164.135 Y143.608 E.30536
G1 X163.6 Y143.608 E.01682
G1 X170.714 Y150.722 E.31637
G1 X170.595 Y150.934 E.00765
G1 X170.555 Y151.098 E.00531
