; generated by PrusaSlicer 2.6.0-alpha3+MacOS-x64 on 2023-02-12 at 01:56:44 UTC


;
;

;
;
; 

; external perimeters extrusion width = 0.45mm
; perimeters extrusion width = 0.45mm
; infill extrusion width = 0.45mm
; solid infill extrusion width = 0.45mm
; top infill extrusion width = 0.40mm
; first layer extrusion width = 0.42mm

; external perimeters extrusion width = 0.45mm
; perimeters extrusion width = 0.45mm
; infill extrusion width = 0.45mm
; solid infill extrusion width = 0.45mm
; top infill extrusion width = 0.40mm
; first layer extrusion width = 0.42mm

M73 P0 R59
M201 X2500 Y2500 Z400 E5000 ; sets maximum accelerations, mm/sec^2
M203 X180 Y180 Z12 E80 ; sets maximum feedrates, mm / sec
M204 P1250 R1250 T2500 ; sets acceleration (P, T) and retract acceleration (R), mm/sec^2
M205 X8.00 Y8.00 Z2.00 E10.00 ; sets the jerk limits, mm/sec
M205 S0 T0 ; sets the minimum extruding and travel feed rate, mm/sec
M107
;TYPE:Custom
M862.3 P "MINI" ; printer model check
G90 ; use absolute coordinates
M83 ; extruder relative mode
M104 S170 ; set extruder temp for bed leveling
M140 S85 ; set bed temp
M109 R170 ; wait for bed leveling temp
M190 S85 ; wait for bed temp
M204 T1250 ; set travel acceleration
G28 ; home all without mesh bed level
G29 ; mesh bed leveling 
M204 T2500 ; restore travel acceleration
M104 S230 ; set extruder temp
G92 E0
G1 Y-2 X179 F2400
G1 Z3 F720
M109 S230 ; wait for extruder temp

; intro line
G1 X170 F1000
G1 Z0.2 F720
G1 X110 E8 F900
G1 X40 E10 F700
G92 E0

M221 S95 ; set flow
G21 ; set units to millimeters
G90 ; use absolute coordinates
M83 ; use relative distances for extrusion
M900 K0.2 ; Filament gcode
M107
;LAYER_CHANGE
;Z:0.2
;HEIGHT:0.2
;BEFORE_LAYER_CHANGE
G92 E0.0
;0.2


G1 E-3.2 F2700
M73 P0 R58
G1 Z.2 F720
;AFTER_LAYER_CHANGE
;0.2
G1 Z.4
G1 X143.785 Y18.856 F9000
G1 Z.2 F720
G1 E3.2 F1500
M204 P800
;TYPE:Skirt/Brim
;WIDTH:0.42
G1 F1200
G1 X143.97 Y18.045 E.02608
G1 X144.221 Y17.441 E.02051
G1 X144.978 Y16.379 E.04089
G1 X145.481 Y15.933 E.02108
G1 X146.146 Y15.516 E.02461
G1 X147.385 Y15.107 E.04091
G1 X148.118 Y15.043 E.02307
G1 X166.214 Y15.044 E.56739
G1 X167.012 Y15.134 E.02518
G1 X167.806 Y15.379 E.02605
G1 X168.516 Y15.755 E.02519
G1 X169.272 Y16.379 E.03074
G1 X169.79 Y17.029 E.02606
G1 X170.165 Y17.739 E.02518
G1 X170.41 Y18.533 E.02605
G1 X170.502 Y19.42 E.02796
G1 X170.502 Y31.453 E.37729
G1 X168.63 Y161.76 E4.08611
G1 X168.498 Y162.401 E.02052
G1 X168.194 Y163.175 E.02607
G1 X167.437 Y164.237 E.04089
G1 X166.401 Y165.03 E.04091
G1 X165.665 Y165.351 E.02518
G1 X165.031 Y165.509 E.02049
G1 X164.295 Y165.573 E.02316
G1 X145.726 Y165.536 E.58222
G1 X144.916 Y165.351 E.02605
G1 X144.312 Y165.1 E.02051
G1 X143.632 Y164.672 E.02519
G1 X143.023 Y164.107 E.02605
G1 X142.546 Y163.461 E.02518
G1 X142.185 Y162.712 E.02607
G1 X141.977 Y161.936 E.02519
G1 X141.913 Y161.196 E.02329
G1 X141.914 Y149.162 E.37732
G1 X143.784 Y18.916 E4.08419
M204 P1000
; printing object base.stl id:0 copy 1
G1 E-2.24 F2700
;WIPE_START
G1 F7200
G1 X143.97 Y18.045 E-.31729
G1 X144.221 Y17.441 E-.23302
G1 X144.889 Y16.505 E-.40969
;WIPE_END
G1 Z.4 F720
G1 X146.923 Y21.209 F9000
G1 Z.2 F720
G1 E3.2 F1500
M204 P800
;TYPE:Perimeter
;WIDTH:0.443004
G1 F1200
G1 X146.954 Y21.31 E.00351
;WIDTH:0.436799
G1 X147.204 Y21.923 E.02168
;WIDTH:0.419999
G1 X147.566 Y22.48 E.02083
G1 X147.954 Y22.886 E.01761
G1 X148.377 Y23.191 E.01635
G1 X148.79 Y23.416 E.01475
G1 X148.452 Y23.504 E.01095
G1 X148 Y23.724 E.01576
G1 X147.689 Y23.977 E.01257
G1 X147.372 Y24.389 E.0163
;WIDTH:0.468539
G1 X147.281 Y24.581 E.00752
;WIDTH:0.517078
G1 X147.191 Y24.772 E.00832
;WIDTH:0.565617
G1 X147.1 Y24.963 E.0092
;WIDTH:0.614156
G1 X147.009 Y25.155 E.01009
G1 X146.985 Y25.043 E.00544
;WIDTH:0.565617
G1 X146.961 Y24.932 E.00494
;WIDTH:0.517078
G1 X146.936 Y24.82 E.00452
;WIDTH:0.468539
G1 X146.912 Y24.709 E.00402
;WIDTH:0.419999
G1 X146.912 Y21.865 E.08917
;WIDTH:0.443004
G1 X146.922 Y21.269 E.01983
M204 P1000
G1 E-2.24 F2700
;WIPE_START
G1 F7200
G1 X146.954 Y21.31 E-.01853
G1 X147.204 Y21.923 E-.23584
G1 X147.566 Y22.48 E-.23666
G1 X147.954 Y22.886 E-.20007
G1 X148.377 Y23.191 E-.18578
G1 X148.582 Y23.303 E-.08312
;WIPE_END
G1 Z.4 F720
G1 X149.395 Y17.719 F9000
G1 Z.2 F720
G1 E3.2 F1500
M204 P800
;TYPE:External perimeter
;WIDTH:0.598222
G1 F1200
G1 X149.656 Y17.697 E.01209
;WIDTH:0.553602
G1 X149.917 Y17.674 E.01113
;WIDTH:0.521794
G1 X150.462 Y17.681 E.0217
;WIDTH:0.526552
G1 X150.503 Y17.683 E.00165
M204 P1000
G1 E-2.24 F2700
;WIPE_START
G1 F7200
G1 X150.462 Y17.681 E-.01462
G1 X149.917 Y17.674 E-.19417
G1 X149.656 Y17.697 E-.09334
G1 X149.395 Y17.719 E-.09331
;WIPE_END
G1 E-.56456 F2700
M73 P1 R58
G1 Z.4 F720
G1 X150.519 Y23.67 F9000
G1 Z.2 F720
G1 E3.2 F1500
M204 P800
;TYPE:Perimeter
;WIDTH:0.419999
G1 F1200
G1 X150.844 Y23.625 E.01029
G1 X151.23 Y23.501 E.01271
G1 X151.709 Y23.287 E.01645
G1 X152.141 Y23.013 E.01604
G1 X152.621 Y22.555 E.0208
G1 X153.011 Y21.984 E.02168
G1 X153.279 Y21.315 E.0226
G1 X153.387 Y20.823 E.01579
G1 X153.407 Y20.286 E.01685
G1 X153.319 Y19.652 E.02007
G1 X153.095 Y19.02 E.02102
G1 X152.815 Y18.547 E.01723
G1 X152.455 Y18.178 E.01616
G1 X152.807 Y18.201 E.01106
G1 X154.217 Y18.228 E.04422
G1 X156.501 Y18.537 E.07227
G1 X157.028 Y18.57 E.01656
G1 X157.975 Y18.522 E.02973
G1 X159.504 Y18.289 E.04849
G1 X160.277 Y18.212 E.02436
G1 X166.057 Y18.212 E.18123
G1 X166.471 Y18.263 E.01308
G1 X166.824 Y18.432 E.01227
G1 X167.04 Y18.642 E.00945
G1 X167.25 Y18.978 E.01242
G1 X167.338 Y19.445 E.0149
G1 X167.338 Y24.67 E.16383
;WIDTH:0.461028
G1 X167.317 Y24.751 E.00291
;WIDTH:0.502057
G1 X167.297 Y24.833 E.00322
;WIDTH:0.543086
G1 X167.276 Y24.915 E.00352
;WIDTH:0.584115
G1 X167.256 Y24.996 E.00375
;WIDTH:0.625144
G1 X167.235 Y25.078 E.0041
G1 X167.207 Y25.02 E.00312
;WIDTH:0.592125
G1 X167.18 Y24.962 E.00292
;WIDTH:0.559105
G1 X167.075 Y24.763 E.00966
;WIDTH:0.512737
G1 X166.97 Y24.564 E.00879
;WIDTH:0.466368
G1 X166.866 Y24.365 E.00791
;WIDTH:0.419999
G1 X166.516 Y23.937 E.01734
G1 X166.189 Y23.685 E.01294
G1 X165.841 Y23.515 E.01214
G1 X165.468 Y23.413 E.01212
G1 X165.082 Y23.385 E.01213
G1 X164.697 Y23.43 E.01215
G1 X164.328 Y23.547 E.01214
G1 X163.988 Y23.731 E.01212
G1 X163.675 Y23.992 E.01278
G1 X163.354 Y24.42 E.01677
G1 X163.188 Y24.795 E.01286
G1 X163.104 Y25.173 E.01214
G1 X163.094 Y25.56 E.01214
G1 X163.157 Y25.942 E.01214
G1 X163.292 Y26.304 E.01211
G1 X163.492 Y26.635 E.01213
G1 X163.752 Y26.922 E.01214
G1 X164.061 Y27.155 E.01213
G1 X164.409 Y27.325 E.01214
G1 X164.782 Y27.426 E.01212
G1 X165.168 Y27.455 E.01214
G1 X165.552 Y27.41 E.01212
G1 X165.921 Y27.293 E.01214
G1 X166.261 Y27.109 E.01212
G1 X166.56 Y26.863 E.01214
G1 X166.866 Y26.475 E.01549
;WIDTH:0.462443
G1 X166.939 Y26.343 E.00526
;WIDTH:0.504887
G1 X167.012 Y26.211 E.00579
;WIDTH:0.547331
G1 X167.085 Y26.079 E.00633
;WIDTH:0.589775
G1 X167.159 Y25.947 E.00688
;WIDTH:0.632218
G1 X167.232 Y25.814 E.00743
G1 X167.253 Y25.913 E.00496
;WIDTH:0.589775
G1 X167.274 Y26.012 E.0046
;WIDTH:0.547331
G1 X167.295 Y26.111 E.00424
;WIDTH:0.504887
G1 X167.317 Y26.21 E.0039
;WIDTH:0.462443
G1 X167.338 Y26.309 E.00353
;WIDTH:0.419999
G1 X167.338 Y31.347 E.15796
G1 X167.293 Y31.703 E.01125
G1 X167.119 Y32.111 E.01391
G1 X166.909 Y32.331 E.00954
G1 X166.567 Y32.545 E.01265
G1 X166.1 Y32.633 E.0149
G1 X160.277 Y32.627 E.18258
G1 X159.505 Y32.55 E.02433
G1 X157.925 Y32.312 E.0501
G1 X157.147 Y32.269 E.02443
G1 X156.202 Y32.326 E.02968
G1 X154.746 Y32.551 E.04619
G1 X153.971 Y32.627 E.02442
G1 X148.199 Y32.633 E.18098
G1 X147.842 Y32.588 E.01128
G1 X147.434 Y32.414 E.01391
G1 X147.214 Y32.204 E.00954
G1 X146.999 Y31.862 E.01267
G1 X146.912 Y31.394 E.01493
G1 X146.912 Y26.098 E.16605
;WIDTH:0.468033
G1 X146.936 Y25.992 E.00384
;WIDTH:0.516067
G1 X146.96 Y25.886 E.00428
;WIDTH:0.564101
G1 X146.984 Y25.78 E.00471
;WIDTH:0.612134
G1 X147.008 Y25.674 E.00514
G1 X147.009 Y25.685 E.00052
;WIDTH:0.606788
G1 X147.08 Y25.84 E.00799
;WIDTH:0.560091
G1 X147.15 Y25.995 E.00731
;WIDTH:0.513394
G1 X147.221 Y26.15 E.00667
;WIDTH:0.466697
G1 X147.292 Y26.305 E.00601
;WIDTH:0.419999
G1 X147.492 Y26.635 E.0121
G1 X147.752 Y26.922 E.01214
G1 X148.061 Y27.155 E.01213
G1 X148.409 Y27.325 E.01214
G1 X148.782 Y27.426 E.01212
G1 X149.168 Y27.455 E.01214
G1 X149.552 Y27.41 E.01212
G1 X149.921 Y27.293 E.01214
G1 X150.261 Y27.109 E.01212
G1 X150.56 Y26.863 E.01214
G1 X150.808 Y26.565 E.01216
G1 X150.994 Y26.226 E.01212
G1 X151.113 Y25.858 E.01213
G1 X151.16 Y25.474 E.01213
G1 X151.129 Y25.054 E.0132
G1 X150.967 Y24.56 E.0163
G1 X150.758 Y24.204 E.01294
G1 X150.498 Y23.917 E.01214
G1 X150.215 Y23.703 E.01112
G1 X150.46 Y23.678 E.00772
M204 P1000
G1 E-2.24 F2700
;WIPE_START
G1 F7200
G1 X150.844 Y23.625 E-.1381
G1 X151.23 Y23.501 E-.14443
G1 X151.709 Y23.287 E-.1869
G1 X152.141 Y23.013 E-.18225
G1 X152.621 Y22.555 E-.23635
G1 X152.735 Y22.388 E-.07197
;WIPE_END
G1 Z.4 F720
G1 X148.852 Y23.798 F9000
G1 Z.2 F720
G1 E3.2 F1500
M204 P800
;TYPE:External perimeter
;WIDTH:0.440799
G1 F1200
G1 X149.064 Y23.751 E.00718
;WIDTH:0.471397
G1 X149.226 Y23.746 E.00577
;WIDTH:0.501994
G1 X149.388 Y23.74 E.00619
G1 X149.699 Y23.826 E.01232
;WIDTH:0.490018
G1 X149.949 Y23.99 E.01112
;WIDTH:0.455009
G1 X150.198 Y24.154 E.01022
;WIDTH:0.419999
G1 X150.44 Y24.408 E.011
G1 X150.611 Y24.683 E.01015
G1 X150.758 Y25.123 E.01455
G1 X150.784 Y25.438 E.00991
G1 X150.751 Y25.752 E.0099
G1 X150.659 Y26.053 E.00987
G1 X150.511 Y26.332 E.0099
G1 X150.314 Y26.578 E.00988
G1 X150.073 Y26.782 E.0099
G1 X149.798 Y26.937 E.0099
G1 X149.499 Y27.037 E.00989
G1 X149.186 Y27.078 E.0099
G1 X148.871 Y27.06 E.00989
G1 X148.565 Y26.982 E.0099
G1 X148.28 Y26.848 E.00987
G1 X148.025 Y26.662 E.0099
G1 X147.809 Y26.432 E.00989
G1 X147.642 Y26.164 E.0099
G1 X147.528 Y25.87 E.00989
G1 X147.475 Y25.595 E.00878
G1 X147.475 Y25.244 E.01101
G1 X147.541 Y24.927 E.01015
G1 X147.739 Y24.508 E.01453
G1 X147.936 Y24.262 E.00988
G1 X148.189 Y24.051 E.01033
G1 X148.575 Y23.86 E.0135
;WIDTH:0.440799
G1 X148.794 Y23.811 E.00742
M204 P1000
G1 E-2.24 F2700
;WIPE_START
G1 F7200
G1 X149.064 Y23.751 E-.09853
G1 X149.226 Y23.746 E-.05774
G1 X149.388 Y23.74 E-.05775
G1 X149.699 Y23.826 E-.11495
G1 X149.949 Y23.99 E-.10652
G1 X150.198 Y24.154 E-.10622
G1 X150.44 Y24.408 E-.12498
G1 X150.611 Y24.683 E-.11536
G1 X150.758 Y25.123 E-.16527
G1 X150.761 Y25.158 E-.01268
;WIPE_END
G1 Z.4 F720
G1 X147.008 Y25.674 F9000
G1 Z.2 F720
G1 E3.2 F1500
M204 P800
;TYPE:Perimeter
;WIDTH:0.614156
G1 F1200
G1 X147.009 Y25.155 E.02465
M204 P1000
G1 E-2.24 F2700
;WIPE_START
G1 F7200
G1 X147.008 Y25.674 E-.18489
;WIPE_END
G1 E-.77511 F2700
G1 Z.4 F720
G1 X149.211 Y17.83 F9000
G1 Z.2 F720
G1 E3.2 F1500
M204 P800
;TYPE:External perimeter
;WIDTH:0.510692
G1 F1200
G1 X149.119 Y17.886 E.00419
;WIDTH:0.466926
G1 X148.721 Y18.049 E.01516
;WIDTH:0.434984
G1 X148.224 Y18.295 E.01808
;WIDTH:0.419999
G1 X147.927 Y18.544 E.01215
G1 X147.643 Y18.908 E.01448
G1 X147.386 Y19.438 E.01847
G1 X147.245 Y20.008 E.01841
G1 X147.221 Y20.596 E.01845
G1 X147.315 Y21.175 E.01839
G1 X147.524 Y21.723 E.01839
G1 X147.839 Y22.22 E.01845
G1 X148.247 Y22.642 E.0184
G1 X148.863 Y23.035 E.02291
;WIDTH:0.460443
G1 X149.141 Y23.153 E.01048
;WIDTH:0.500887
G1 X149.418 Y23.272 E.01148
;WIDTH:0.510343
G1 X149.733 Y23.342 E.01254
G1 X149.99 Y23.334 E.00999
;WIDTH:0.465171
G1 X150.247 Y23.327 E.00903
;WIDTH:0.419999
G1 X150.841 Y23.238 E.01883
G1 X151.383 Y23.043 E.01806
G1 X151.886 Y22.736 E.01848
G1 X152.315 Y22.335 E.01841
G1 X152.667 Y21.829 E.01933
G1 X152.892 Y21.319 E.01748
G1 X153.011 Y20.782 E.01725
G1 X153.033 Y20.332 E.01413
G1 X152.961 Y19.771 E.01773
G1 X152.771 Y19.212 E.01851
G1 X152.437 Y18.679 E.01972
G1 X152.002 Y18.279 E.01853
G1 X151.317 Y17.98 E.02343
;WIDTH:0.455517
G1 X151.045 Y17.881 E.00993
;WIDTH:0.491035
G1 X150.774 Y17.782 E.01075
;WIDTH:0.526552
G1 X150.503 Y17.683 E.0116
G1 X150.679 Y17.66 E.00714
;WIDTH:0.479345
G1 X150.856 Y17.636 E.00648
;WIDTH:0.432137
G1 X151.395 Y17.63 E.01745
;WIDTH:0.419999
G1 X152.304 Y17.788 E.02893
G1 X152.816 Y17.824 E.01609
G1 X154.242 Y17.851 E.04472
G1 X154.791 Y17.915 E.01733
G1 X156.275 Y18.143 E.04708
G1 X157.01 Y18.193 E.0231
G1 X157.919 Y18.149 E.02853
G1 X159.457 Y17.915 E.04878
G1 X160.258 Y17.835 E.02524
G1 X166.091 Y17.835 E.18289
G1 X166.59 Y17.901 E.01578
G1 X167.026 Y18.111 E.01517
G1 X167.27 Y18.33 E.01028
G1 X167.517 Y18.676 E.01333
G1 X167.649 Y19.008 E.0112
G1 X167.715 Y19.431 E.01342
G1 X167.715 Y31.347 E.37362
G1 X167.708 Y31.5 E.0048
G1 X167.604 Y32 E.01601
G1 X167.436 Y32.318 E.01128
G1 X167.205 Y32.573 E.01079
G1 X166.862 Y32.815 E.01316
G1 X166.533 Y32.945 E.01109
G1 X166.113 Y33.01 E.01333
G1 X160.258 Y33.004 E.18358
G1 X159.457 Y32.925 E.02524
G1 X157.902 Y32.689 E.04931
G1 X157.168 Y32.646 E.02305
G1 X156.26 Y32.698 E.02852
G1 X154.793 Y32.925 E.04654
G1 X153.99 Y33.004 E.0253
G1 X148.2 Y33.01 E.18154
G1 X148.045 Y33.003 E.00486
G1 X147.545 Y32.899 E.01601
G1 X147.227 Y32.731 E.01128
G1 X146.972 Y32.5 E.01079
G1 X146.729 Y32.157 E.01318
G1 X146.6 Y31.828 E.01108
G1 X146.535 Y31.408 E.01333
G1 X146.535 Y19.469 E.37434
G1 X146.599 Y19.008 E.01459
G1 X146.724 Y18.684 E.01089
G1 X147.045 Y18.256 E.01677
G1 X147.487 Y17.968 E.01654
G1 X148.04 Y17.788 E.01823
;WIDTH:0.434984
G1 X148.613 Y17.674 E.01905
;WIDTH:0.466926
G1 X149.069 Y17.654 E.01609
;WIDTH:0.510692
G1 X149.177 Y17.675 E.00428
;WIDTH:0.554457
G1 X149.286 Y17.697 E.00473
;WIDTH:0.598222
G1 X149.395 Y17.719 E.00513
G1 X149.303 Y17.775 E.00497
;WIDTH:0.554457
G1 X149.262 Y17.799 E.00202
M204 P1000
G1 E-2.24 F2700
;WIPE_START
G1 F7200
G1 X149.119 Y17.886 E-.05963
G1 X148.721 Y18.049 E-.15322
G1 X148.224 Y18.295 E-.19756
G1 X147.927 Y18.544 E-.13807
G1 X147.643 Y18.908 E-.16447
G1 X147.386 Y19.438 E-.20984
G1 X147.361 Y19.539 E-.03721
;WIPE_END
G1 Z.4 F720
G1 X146.923 Y21.209 F9000
G1 Z.2 F720
G1 E3.2 F1500
M204 P800
;TYPE:Perimeter
;WIDTH:0.443004
G1 F1200
G1 X146.902 Y20.929 E.00934
;WIDTH:0.399541
G1 X146.88 Y20.649 E.00833
;WIDTH:0.376314
G1 X146.89 Y19.992 E.01822
;WIDTH:0.416268
G1 X146.91 Y19.818 E.00544
;WIDTH:0.456222
G1 X146.93 Y19.643 E.00605
;WIDTH:0.496176
G1 X146.95 Y19.469 E.0066
;WIDTH:0.53786
G1 X147.001 Y19.273 E.00833
;WIDTH:0.579544
G1 X147.051 Y19.076 E.00907
G1 X147.32 Y18.608 E.02409
;WIDTH:0.535702
G1 X147.344 Y18.578 E.00157
M204 P1000
G1 E-2.24 F2700
;WIPE_START
G1 F7200
G1 X147.32 Y18.608 E-.01369
G1 X147.051 Y19.076 E-.1923
G1 X147.001 Y19.273 E-.07241
G1 X146.95 Y19.469 E-.07215
G1 X146.93 Y19.643 E-.0624
G1 X146.91 Y19.818 E-.06275
G1 X146.89 Y19.992 E-.0624
G1 X146.88 Y20.649 E-.23408
G1 X146.902 Y20.929 E-.10006
G1 X146.92 Y21.175 E-.08776
;WIPE_END
G1 Z.4 F720
G1 X163.537 Y25.895 F9000
G1 Z.2 F720
G1 E3.2 F1500
M204 P800
;TYPE:External perimeter
;WIDTH:0.419999
G1 F1200
G1 X163.471 Y25.28 E.01939
G1 X163.538 Y24.935 E.01102
G1 X163.662 Y24.637 E.01012
G1 X163.924 Y24.275 E.01401
G1 X164.177 Y24.058 E.01045
G1 X164.452 Y23.903 E.0099
G1 X164.751 Y23.803 E.00989
G1 X165.064 Y23.761 E.0099
G1 X165.379 Y23.78 E.00989
G1 X165.685 Y23.858 E.0099
G1 X165.97 Y23.992 E.00987
G1 X166.231 Y24.184 E.01016
G1 X166.531 Y24.538 E.01455
G1 X166.672 Y24.82 E.00989
G1 X166.758 Y25.123 E.00988
G1 X166.784 Y25.438 E.00991
G1 X166.751 Y25.752 E.0099
G1 X166.659 Y26.053 E.00987
G1 X166.511 Y26.332 E.0099
G1 X166.314 Y26.578 E.00988
G1 X166.073 Y26.782 E.0099
G1 X165.798 Y26.937 E.0099
G1 X165.499 Y27.037 E.00989
G1 X165.186 Y27.078 E.0099
G1 X164.871 Y27.06 E.00989
G1 X164.565 Y26.982 E.0099
G1 X164.28 Y26.848 E.00987
G1 X164.025 Y26.662 E.0099
G1 X163.809 Y26.432 E.00989
G1 X163.642 Y26.164 E.0099
G1 X163.559 Y25.951 E.00717
M204 P1000
G1 X163.155 Y25.778 F9000
G1 E-2.24 F2700
;WIPE_START
G1 F7200
G1 X163.471 Y25.28 E-.24109
G1 X163.538 Y24.935 E-.1252
G1 X163.662 Y24.637 E-.11499
G1 X163.924 Y24.275 E-.1592
G1 X164.177 Y24.058 E-.11874
G1 X164.452 Y23.903 E-.11246
G1 X164.687 Y23.824 E-.08832
;WIPE_END
G1 Z.4 F720
G1 X167.235 Y25.078 F9000
G1 Z.2 F720
G1 E3.2 F1500
M204 P800
;TYPE:Perimeter
;WIDTH:0.625144
G1 F1200
G1 X167.235 Y25.762 E.03311
;WIDTH:0.632218
