; generated by PrusaSlicer 2.6.0-alpha3+MacOS-x64 on 2023-02-18 at 00:55:45 UTC


;
;

;
;
; 

; external perimeters extrusion width = 0.45mm
; perimeters extrusion width = 0.45mm
; infill extrusion width = 0.45mm
; solid infill extrusion width = 0.45mm
; top infill extrusion width = 0.40mm
; first layer extrusion width = 0.42mm

M73 P0 R128
M201 X2500 Y2500 Z400 E5000 ; sets maximum accelerations, mm/sec^2
M203 X180 Y180 Z12 E80 ; sets maximum feedrates, mm / sec
M204 P1250 R1250 T2500 ; sets acceleration (P, T) and retract acceleration (R), mm/sec^2
M205 X8.00 Y8.00 Z2.00 E10.00 ; sets the jerk limits, mm/sec
M205 S0 T0 ; sets the minimum extruding and travel feed rate, mm/sec
M107
;TYPE:Custom
M862.3 P "MINI" ; printer model check
G90 ; use absolute coordinates
M83 ; extruder relative mode
M104 S170 ; set extruder temp for bed leveling
M140 S100 ; set bed temp
M109 R170 ; wait for bed leveling temp
M190 S100 ; wait for bed temp
M204 T1250 ; set travel acceleration
G28 ; home all without mesh bed level
G29 ; mesh bed leveling 
M204 T2500 ; restore travel acceleration
M104 S290 ; set extruder temp
G92 E0
G1 Y-2 X179 F2400
G1 Z3 F720
M109 S290 ; wait for extruder temp

; intro line
G1 X170 F1000
G1 Z0.2 F720
G1 X110 E8 F900
G1 X40 E10 F700
G92 E0

M221 S95 ; set flow
G21 ; set units to millimeters
G90 ; use absolute coordinates
M83 ; use relative distances for extrusion
M900 K0.2 ; Filament gcode
ENC O1 W0 S32 ; Set enclosure temperature
M107
;LAYER_CHANGE
;Z:0.2
;HEIGHT:0.2
;BEFORE_LAYER_CHANGE
G92 E0.0
;0.2


G1 E-3.2 F4200
M73 P0 R127
G1 Z.2 F720
;AFTER_LAYER_CHANGE
;0.2
G1 Z.4
G1 X116.043 Y53.012 F9000
G1 Z.2 F720
G1 E3.2 F2400
M204 P800
;TYPE:Skirt/Brim
;WIDTH:0.42
G1 F1200
G1 X116.613 Y52.125 E.03207
G1 X117.615 Y51.237 E.04072
G1 X118.565 Y50.778 E.03209
G1 X119.597 Y50.559 E.03209
G1 X152.125 Y50.544 E.9893
G1 X152.888 Y50.637 E.02338
G1 X153.666 Y50.879 E.02478
G1 X154.347 Y51.237 E.0234
G1 X155.003 Y51.754 E.0254
G1 X155.661 Y52.551 E.03143
G1 X156.019 Y53.232 E.0234
G1 X156.261 Y54.01 E.02478
G1 X156.354 Y54.774 E.02341
G1 X157.968 Y94.611 E1.21258
G1 X157.968 Y114.611 E.60827
G1 X156.805 Y122.587 E.24514
G1 X156.42 Y123.822 E.03934
G1 X155.849 Y124.709 E.03208
G1 X154.847 Y125.597 E.04072
G1 X153.898 Y126.057 E.03207
G1 X152.625 Y126.29 E.03936
G1 X119.481 Y126.294 E1.00803
G1 X118.574 Y126.197 E.02774
G1 X117.576 Y125.856 E.03208
G1 X116.879 Y125.434 E.02478
G1 X116.113 Y124.709 E.03208
G1 X115.676 Y124.076 E.02339
G1 X115.342 Y123.333 E.02478
G1 X115.145 Y122.508 E.0258
G1 X113.995 Y114.611 E.24271
G1 X113.997 Y94.515 E.61119
G1 X115.606 Y54.821 E1.20823
G1 X115.701 Y54.01 E.02483
G1 X116.023 Y53.069 E.03025
M204 P1000
; printing object computer hanger.stl id:0 copy 0
G1 E-2.24 F4200
;WIPE_START
G1 F7200
G1 X116.613 Y52.125 E-.6169
G1 X117.076 Y51.714 E-.3431
;WIPE_END
G1 Z.4 F720
G1 X118.227 Y111.669 F9000
G1 Z.2 F720
G1 E3.2 F2400
M204 P800
;TYPE:Perimeter
;WIDTH:0.404017
G1 F1200
G1 X118.202 Y111.908 E.007
;WIDTH:0.45398
G1 X118.177 Y112.147 E.00797
;WIDTH:0.503943
G1 X118.152 Y112.386 E.00894
G1 X118.175 Y112.799 E.01538
;WIDTH:0.458126
G1 X118.18 Y113.358 E.01872
;WIDTH:0.474089
G1 X118.167 Y113.651 E.0102
;WIDTH:0.499968
G1 X118.154 Y113.944 E.01081
G1 X118.179 Y114.211 E.00989
;WIDTH:0.450671
G1 X118.204 Y114.478 E.00882
;WIDTH:0.401374
G1 X118.228 Y114.745 E.00775
G1 X118.107 Y114.551 E.00661
;WIDTH:0.450671
G1 X117.985 Y114.357 E.00754
;WIDTH:0.499968
G1 X117.863 Y114.163 E.00845
G1 X117.638 Y114.139 E.00834
G1 X117.702 Y113.897 E.00923
G1 X117.738 Y113.617 E.01041
;WIDTH:0.474219
G1 X117.775 Y113.337 E.00982
;WIDTH:0.458126
G1 X117.76 Y112.806 E.01779
;WIDTH:0.503943
G1 X117.625 Y112.185 E.02363
G1 X117.862 Y112.163 E.00885
G1 X117.983 Y111.999 E.00758
;WIDTH:0.45398
G1 X118.105 Y111.834 E.0068
;WIDTH:0.404017
G1 X118.192 Y111.717 E.00425
M204 P1000
G1 E-2.24 F4200
;WIPE_START
G1 F7200
G1 X118.202 Y111.908 E-.10599
G1 X118.177 Y112.147 E-.13317
G1 X118.152 Y112.386 E-.13317
G1 X118.175 Y112.799 E-.22923
G1 X118.18 Y113.358 E-.30979
G1 X118.176 Y113.446 E-.04865
;WIPE_END
G1 Z.4 F720
G1 X118.832 Y54.12 F9000
G1 Z.2 F720
G1 E3.2 F2400
M204 P800
;TYPE:External perimeter
;WIDTH:0.423403
G1 F1200
G1 X118.834 Y54.114 E.00019
;WIDTH:0.421222
G1 X119.063 Y53.85 E.01066
;WIDTH:0.42633
G1 X119.464 Y53.663 E.01368
G1 X120.455 Y53.607 E.03069
;WIDTH:0.424523
G1 X120.466 Y53.607 E.00034
;WIDTH:0.424208
G1 X151.497 Y53.607 E.9543
;WIDTH:0.4436
G1 X152.171 Y53.636 E.0218
G1 X152.571 Y53.685 E.01302
;WIDTH:0.421647
G1 X152.965 Y53.906 E.0138
;WIDTH:0.425383
G1 X153.184 Y54.234 E.01217
;WIDTH:0.440021
G1 X153.268 Y54.731 E.01614
G1 X153.279 Y54.912 E.00581
;WIDTH:0.432673
G1 X153.294 Y55.913 E.03147
;WIDTH:0.422516
G1 X153.293 Y87.402 E.96409
;WIDTH:0.420015
G1 X153.368 Y88.412 E.0308
G1 X153.391 Y89.417 E.03057
G1 X153.388 Y121.564 E.97775
;WIDTH:0.469832
G1 X153.413 Y121.686 E.00429
;WIDTH:0.519665
G1 X153.437 Y121.809 E.00482
;WIDTH:0.569497
G1 X153.462 Y121.932 E.00533
G1 X153.433 Y122.22 E.01229
;WIDTH:0.541478
G1 X153.403 Y122.508 E.01164
;WIDTH:0.513458
G1 X153.283 Y122.726 E.00944
;WIDTH:0.474548
G1 X153.162 Y122.945 E.00871
;WIDTH:0.435638
G1 X152.839 Y123.155 E.0122
;WIDTH:0.420455
G1 X152.45 Y123.228 E.01205
G1 X119.512 Y123.228 E1.00298
G1 X119.191 Y123.181 E.00988
;WIDTH:0.426601
G1 X118.92 Y123.045 E.00938
;WIDTH:0.46996
G1 X118.628 Y122.704 E.01546
;WIDTH:0.515001
G1 X118.572 Y122.451 E.00987
;WIDTH:0.560041
G1 X118.517 Y122.199 E.01076
G1 X118.532 Y121.872 E.01365
;WIDTH:0.517879
G1 X118.554 Y121.746 E.0049
;WIDTH:0.468939
G1 X118.576 Y121.621 E.00436
;WIDTH:0.419999
G1 X118.571 Y89.417 E.97944
G1 X118.595 Y88.412 E.03057
G1 X118.67 Y87.402 E.0308
;WIDTH:0.42424
G1 X118.668 Y55.917 E.96834
;WIDTH:0.434169
G1 X118.682 Y54.944 E.03071
G1 X118.729 Y54.396 E.01736
;WIDTH:0.423403
G1 X118.811 Y54.176 E.00721
M204 P1000
G1 E-2.24 F4200
;WIPE_START
G1 F7200
G1 X118.834 Y54.114 E-.03665
G1 X119.063 Y53.85 E-.19367
G1 X119.464 Y53.663 E-.2452
G1 X120.337 Y53.614 E-.48448
;WIPE_END
G1 Z.4 F720
G1 X118.153 Y104.626 F9000
G1 Z.2 F720
G1 E3.2 F2400
M204 P800
;TYPE:Perimeter
;WIDTH:0.401379
G1 F1200
G1 X118.107 Y104.551 E.00254
;WIDTH:0.450676
G1 X117.985 Y104.357 E.00754
;WIDTH:0.499972
G1 X117.863 Y104.163 E.00845
G1 X117.638 Y104.139 E.00834
G1 X117.702 Y103.897 E.00923
G1 X117.738 Y103.617 E.01041
;WIDTH:0.474222
G1 X117.775 Y103.337 E.00983
;WIDTH:0.458129
G1 X117.76 Y102.806 E.01779
;WIDTH:0.503947
G1 X117.625 Y102.185 E.02363
G1 X117.862 Y102.163 E.00885
G1 X117.983 Y101.999 E.00758
;WIDTH:0.453985
G1 X118.105 Y101.834 E.0068
;WIDTH:0.404023
G1 X118.227 Y101.669 E.00598
G1 X118.202 Y101.908 E.007
;WIDTH:0.453985
G1 X118.177 Y102.147 E.00797
;WIDTH:0.503947
G1 X118.152 Y102.386 E.00894
G1 X118.175 Y102.799 E.01538
;WIDTH:0.458129
G1 X118.18 Y103.358 E.01872
;WIDTH:0.474092
G1 X118.167 Y103.651 E.0102
;WIDTH:0.499972
G1 X118.154 Y103.944 E.01081
G1 X118.179 Y104.211 E.00989
;WIDTH:0.450676
G1 X118.204 Y104.478 E.00882
;WIDTH:0.401379
G1 X118.228 Y104.745 E.00775
G1 X118.185 Y104.677 E.00233
M204 P1000
G1 E-2.24 F4200
;WIPE_START
G1 F7200
G1 X118.107 Y104.551 E-.08212
G1 X117.985 Y104.357 E-.127
G1 X117.863 Y104.163 E-.127
G1 X117.638 Y104.139 E-.12539
G1 X117.702 Y103.897 E-.13872
G1 X117.738 Y103.617 E-.15644
G1 X117.775 Y103.337 E-.15652
G1 X117.773 Y103.253 E-.04681
;WIPE_END
G1 Z.4 F720
G1 X118.228 Y94.745 F9000
G1 Z.2 F720
G1 E3.2 F2400
M204 P800
;WIDTH:0.401386
G1 F1200
G1 X118.107 Y94.551 E.00661
;WIDTH:0.450681
G1 X117.985 Y94.357 E.00754
;WIDTH:0.499976
G1 X117.863 Y94.163 E.00845
G1 X117.638 Y94.139 E.00834
G1 X117.702 Y93.897 E.00923
G1 X117.738 Y93.617 E.01041
;WIDTH:0.474227
G1 X117.775 Y93.337 E.00983
;WIDTH:0.458133
G1 X117.76 Y92.806 E.01779
;WIDTH:0.503949
G1 X117.625 Y92.185 E.02363
G1 X117.862 Y92.164 E.00885
G1 X117.983 Y91.999 E.00761
;WIDTH:0.453979
G1 X118.105 Y91.834 E.0068
;WIDTH:0.404009
G1 X118.227 Y91.669 E.00598
G1 X118.202 Y91.908 E.007
;WIDTH:0.453979
G1 X118.177 Y92.147 E.00797
;WIDTH:0.503949
G1 X118.152 Y92.386 E.00894
G1 X118.175 Y92.799 E.01538
;WIDTH:0.458133
G1 X118.18 Y93.358 E.01872
;WIDTH:0.474097
G1 X118.167 Y93.651 E.0102
;WIDTH:0.499976
G1 X118.154 Y93.944 E.01081
G1 X118.179 Y94.211 E.00989
;WIDTH:0.450681
G1 X118.204 Y94.478 E.00882
;WIDTH:0.401386
G1 X118.223 Y94.685 E.00601
M204 P1000
G1 E-2.24 F4200
;WIPE_START
G1 F7200
G1 X118.107 Y94.551 E-.09822
G1 X117.985 Y94.357 E-.127
G1 X117.863 Y94.163 E-.127
G1 X117.638 Y94.139 E-.12539
G1 X117.702 Y93.897 E-.13872
G1 X117.738 Y93.617 E-.15644
G1 X117.775 Y93.337 E-.15652
G1 X117.773 Y93.282 E-.03071
;WIPE_END
G1 Z.4 F720
G1 X153.734 Y94.745 F9000
G1 Z.2 F720
G1 E3.2 F2400
M204 P800
;WIDTH:0.4018
G1 F1200
G1 X153.758 Y94.478 E.00776
;WIDTH:0.45099
G1 X153.783 Y94.211 E.00883
;WIDTH:0.500179
G1 X153.808 Y93.943 E.00993
G1 X153.795 Y93.638 E.01126
;WIDTH:0.474407
G1 X153.782 Y93.332 E.01066
;WIDTH:0.476775
G1 X153.796 Y92.859 E.01656
;WIDTH:0.504916
G1 X153.81 Y92.387 E.0176
G1 X153.791 Y92.208 E.00671
;WIDTH:0.46725
G1 X153.773 Y92.028 E.00619
;WIDTH:0.429584
G1 X153.754 Y91.849 E.00561
;WIDTH:0.391918
G1 X153.735 Y91.669 E.00509
G1 X153.827 Y91.793 E.00435
;WIDTH:0.429584
G1 X153.918 Y91.917 E.0048
;WIDTH:0.46725
G1 X154.01 Y92.04 E.00526
;WIDTH:0.504916
G1 X154.101 Y92.164 E.00573
G1 X154.337 Y92.185 E.00883
G1 X154.201 Y92.827 E.02445
;WIDTH:0.457328
G1 X154.195 Y93.477 E.02173
;WIDTH:0.500179
G1 X154.324 Y94.139 E.02487
G1 X154.099 Y94.163 E.00835
G1 X153.977 Y94.357 E.00845
;WIDTH:0.45099
G1 X153.856 Y94.551 E.00753
;WIDTH:0.4018
G1 X153.766 Y94.694 E.00489
M204 P1000
G1 E-2.24 F4200
;WIPE_START
G1 F7200
G1 X153.758 Y94.478 E-.11978
G1 X153.783 Y94.211 E-.14861
G1 X153.808 Y93.943 E-.14916
G1 X153.795 Y93.638 E-.16917
G1 X153.782 Y93.332 E-.16973
G1 X153.793 Y92.965 E-.20355
;WIPE_END
G1 Z.4 F720
G1 X153.734 Y101.669 F9000
G1 Z.2 F720
G1 E3.2 F2400
M204 P800
;WIDTH:0.405011
G1 F1200
G1 X153.856 Y101.834 E.00599
;WIDTH:0.454761
G1 X153.978 Y101.999 E.00682
;WIDTH:0.504511
G1 X154.1 Y102.164 E.00764
G1 X154.337 Y102.185 E.00886
G1 X154.202 Y102.806 E.02366
;WIDTH:0.458782
G1 X154.195 Y103.477 E.02251
;WIDTH:0.500627
G1 X154.324 Y104.139 E.0249
G1 X154.099 Y104.163 E.00835
G1 X153.977 Y104.357 E.00846
;WIDTH:0.451612
G1 X153.855 Y104.551 E.00755
;WIDTH:0.402596
G1 X153.733 Y104.745 E.00665
G1 X153.758 Y104.478 E.00778
;WIDTH:0.451612
G1 X153.782 Y104.21 E.00887
;WIDTH:0.500627
G1 X153.807 Y103.943 E.0099
G1 X153.794 Y103.636 E.01134
;WIDTH:0.474891
G1 X153.781 Y103.33 E.01067
;WIDTH:0.476833
G1 X153.795 Y102.858 E.01653
;WIDTH:0.504511
G1 X153.809 Y102.386 E.01758
G1 X153.784 Y102.147 E.00895
;WIDTH:0.454761
G1 X153.759 Y101.908 E.00798
;WIDTH:0.405011
G1 X153.741 Y101.729 E.00525
M204 P1000
G1 E-2.24 F4200
;WIPE_START
G1 F7200
G1 X153.856 Y101.834 E-.0863
G1 X153.978 Y101.999 E-.11372
G1 X154.1 Y102.164 E-.11372
G1 X154.337 Y102.185 E-.13185
G1 X154.202 Y102.806 E-.35218
G1 X154.199 Y103.099 E-.16223
;WIPE_END
G1 Z.4 F720
G1 X153.734 Y111.669 F9000
G1 Z.2 F720
G1 E3.2 F2400
M204 P800
;WIDTH:0.405809
G1 F1200
G1 X153.856 Y111.834 E.00601
;WIDTH:0.455377
G1 X153.978 Y111.999 E.00683
;WIDTH:0.504945
G1 X154.1 Y112.164 E.00765
G1 X154.337 Y112.185 E.00887
G1 X154.202 Y112.806 E.02368
;WIDTH:0.459268
G1 X154.195 Y113.477 E.02253
;WIDTH:0.501075
G1 X154.324 Y114.139 E.02492
G1 X154.098 Y114.163 E.0084
G1 X153.977 Y114.357 E.00845
;WIDTH:0.452234
G1 X153.855 Y114.551 E.00757
;WIDTH:0.403392
G1 X153.733 Y114.745 E.00666
G1 X153.757 Y114.478 E.00779
;WIDTH:0.452234
G1 X153.782 Y114.21 E.00889
;WIDTH:0.501075
G1 X153.806 Y113.943 E.00991
G1 X153.793 Y113.636 E.01135
;WIDTH:0.475358
G1 X153.781 Y113.33 E.01068
;WIDTH:0.477293
G1 X153.794 Y112.858 E.01654
;WIDTH:0.504945
G1 X153.808 Y112.387 E.01756
G1 X153.784 Y112.148 E.00895
;WIDTH:0.455377
G1 X153.759 Y111.908 E.00803
;WIDTH:0.405809
G1 X153.74 Y111.729 E.00527
M204 P1000
G1 E-2.24 F4200
;WIPE_START
G1 F7200
G1 X153.856 Y111.834 E-.08671
G1 X153.978 Y111.999 E-.11372
G1 X154.1 Y112.164 E-.11372
G1 X154.337 Y112.185 E-.13185
G1 X154.202 Y112.806 E-.35218
G1 X154.199 Y113.098 E-.16182
;WIPE_END
G1 Z.4 F720
G1 X117.885 Y104.745 F9000
G1 Z.2 F720
G1 E3.2 F2400
M204 P800
;TYPE:External perimeter
;WIDTH:0.420029
G1 F1200
G1 X117.748 Y104.564 E.0069
G1 X117.674 Y104.558 E.00226
G1 X116.867 Y104.655 E.02472
G1 X117.03 Y104.439 E.00823
G1 X117.272 Y103.917 E.0175
G1 X117.384 Y103.351 E.01755
G1 X117.364 Y102.821 E.01613
G1 X117.243 Y102.374 E.01409
G1 X117.041 Y101.942 E.01451
G1 X117.104 Y101.766 E.00569
G1 X117.752 Y101.759 E.01971
G1 X117.891 Y101.577 E.00697
G1 X117.885 Y94.745 E.2078
G1 X117.748 Y94.564 E.0069
G1 X117.674 Y94.558 E.00226
G1 X116.867 Y94.655 E.02472
G1 X117.03 Y94.439 E.00823
G1 X117.272 Y93.917 E.0175
G1 X117.384 Y93.351 E.01755
G1 X117.364 Y92.821 E.01613
G1 X117.243 Y92.374 E.01409
G1 X117.041 Y91.942 E.01451
G1 X117.104 Y91.766 E.00569
G1 X117.752 Y91.759 E.01971
G1 X117.891 Y91.577 E.00697
G1 X117.884 Y88.217 E.1022
G1 X118.284 Y87.67 E.02061
G1 X118.293 Y87.402 E.00816
;WIDTH:0.42428
G1 X118.287 Y55.909 E.96869
;WIDTH:0.431956
G1 X118.298 Y54.863 E.03282
G1 X118.351 Y54.359 E.0159
;WIDTH:0.423403
G1 X118.508 Y53.928 E.01408
;WIDTH:0.420641
G1 X118.792 Y53.58 E.01368
;WIDTH:0.426575
G1 X119.243 Y53.329 E.01597
;WIDTH:0.443658
G1 X119.78 Y53.235 E.01762
G1 X120.466 Y53.226 E.02217
;WIDTH:0.424208
G1 X151.497 Y53.226 E.9543
;WIDTH:0.424486
G1 X151.519 Y53.226 E.00068
;WIDTH:0.4436
G1 X152.183 Y53.236 E.02146
G1 X152.54 Y53.283 E.01164
;WIDTH:0.428752
G1 X152.972 Y53.449 E.0144
G1 X153.224 Y53.644 E.00992
;WIDTH:0.41596
G1 X153.485 Y53.993 E.01311
;WIDTH:0.425906
G1 X153.614 Y54.349 E.0117
;WIDTH:0.432673
G1 X153.668 Y54.908 E.01765
G1 X153.673 Y55.909 E.03147
;WIDTH:0.422477
G1 X153.67 Y87.402 E.96411
;WIDTH:0.420015
G1 X153.674 Y87.624 E.00675
;WIDTH:0.416354
G1 X153.711 Y87.739 E.00364
;WIDTH:0.419999
G1 X154.079 Y88.217 E.01835
G1 X154.071 Y91.577 E.10219
G1 X154.211 Y91.759 E.00698
G1 X154.858 Y91.766 E.01968
G1 X154.921 Y91.942 E.00569
G1 X154.75 Y92.266 E.01114
G1 X154.596 Y92.84 E.01807
G1 X154.583 Y93.397 E.01694
G1 X154.705 Y93.959 E.01749
G1 X154.932 Y94.439 E.01615
G1 X155.095 Y94.655 E.00823
G1 X154.239 Y94.559 E.0262
G1 X154.077 Y94.745 E.0075
G1 X154.071 Y101.577 E.20779
G1 X154.21 Y101.759 E.00696
G1 X154.858 Y101.766 E.01971
G1 X154.921 Y101.942 E.00569
G1 X154.75 Y102.265 E.01112
G1 X154.598 Y102.821 E.01753
G1 X154.583 Y103.397 E.01752
G1 X154.705 Y103.959 E.01749
G1 X154.932 Y104.439 E.01615
G1 X155.095 Y104.655 E.00823
G1 X154.239 Y104.559 E.0262
G1 X154.077 Y104.745 E.0075
G1 X154.071 Y111.577 E.20779
G1 X154.21 Y111.759 E.00696
G1 X154.858 Y111.766 E.01971
G1 X154.921 Y111.942 E.00569
G1 X154.75 Y112.265 E.01112
G1 X154.598 Y112.821 E.01753
G1 X154.583 Y113.397 E.01752
G1 X154.705 Y113.959 E.01749
G1 X154.932 Y114.439 E.01615
G1 X155.095 Y114.655 E.00823
G1 X154.239 Y114.559 E.0262
G1 X154.077 Y114.745 E.0075
G1 X154.071 Y121.564 E.20739
;WIDTH:0.466804
G1 X154.034 Y121.793 E.00793
;WIDTH:0.513608
G1 X153.996 Y122.021 E.00878
;WIDTH:0.560412
G1 X153.958 Y122.25 E.00969
G1 X153.828 Y122.659 E.01791
;WIDTH:0.513458
G1 X153.682 Y122.886 E.01024
;WIDTH:0.480417
G1 X153.537 Y123.113 E.0095
;WIDTH:0.447375
G1 X153.348 Y123.291 E.00847
;WIDTH:0.421691
G1 X152.956 Y123.51 E.01372
;WIDTH:0.420456
G1 X152.464 Y123.605 E.01526
G1 X119.512 Y123.605 E1.0034
G1 X119.188 Y123.563 E.00995
;WIDTH:0.418869
G1 X118.835 Y123.434 E.0114
;WIDTH:0.45036
G1 X118.455 Y123.144 E.01571
;WIDTH:0.482669
G1 X118.193 Y122.791 E.01559
;WIDTH:0.521355
G1 X118.098 Y122.513 E.01134
;WIDTH:0.560041
G1 X118.002 Y122.235 E.01227
G1 X117.965 Y122.033 E.00857
;WIDTH:0.513361
G1 X117.928 Y121.83 E.00783
;WIDTH:0.46668
G1 X117.891 Y121.628 E.00702
;WIDTH:0.420029
G1 X117.885 Y114.745 E.20935
G1 X117.748 Y114.564 E.0069
G1 X117.674 Y114.558 E.00226
G1 X116.867 Y114.655 E.02472
G1 X117.03 Y114.439 E.00823
G1 X117.272 Y113.917 E.0175
G1 X117.384 Y113.351 E.01755
G1 X117.364 Y112.821 E.01613
G1 X117.243 Y112.374 E.01409
G1 X117.041 Y111.942 E.01451
