; generated by PrusaSlicer 2.6.0-alpha3+MacOS-x64 on 2023-03-04 at 21:01:24 UTC


;
;

;
;
; 

; external perimeters extrusion width = 0.45mm
; perimeters extrusion width = 0.45mm
; infill extrusion width = 0.45mm
; solid infill extrusion width = 0.45mm
; top infill extrusion width = 0.40mm
; first layer extrusion width = 0.42mm

M73 P0 R2
M201 X2500 Y2500 Z400 E5000 ; sets maximum accelerations, mm/sec^2
M203 X180 Y180 Z12 E80 ; sets maximum feedrates, mm / sec
M204 P1250 R1250 T2500 ; sets acceleration (P, T) and retract acceleration (R), mm/sec^2
M205 X8.00 Y8.00 Z2.00 E10.00 ; sets the jerk limits, mm/sec
M205 S0 T0 ; sets the minimum extruding and travel feed rate, mm/sec
M107
;TYPE:Custom
M862.3 P "MINI" ; printer model check
G90 ; use absolute coordinates
M83 ; extruder relative mode
M104 S170 ; set extruder temp for bed leveling
M140 S100 ; set bed temp
M109 R170 ; wait for bed leveling temp
M190 S100 ; wait for bed temp
M204 T1250 ; set travel acceleration
G28 ; home all without mesh bed level
G29 ; mesh bed leveling 
M204 T2500 ; restore travel acceleration
M104 S290 ; set extruder temp
G92 E0
G1 Y-2 X179 F2400
G1 Z3 F720
M109 S290 ; wait for extruder temp

; intro line
M73 P2 R2
G1 X170 F1000
G1 Z0.2 F720
G1 X110 E8 F900
M73 P3 R2
G1 X40 E10 F700
G92 E0

M221 S95 ; set flow
G21 ; set units to millimeters
G90 ; use absolute coordinates
M83 ; use relative distances for extrusion
M900 K0.2 ; Filament gcode
ENC O1 W0 S32 ; Set enclosure temperature
M107
;LAYER_CHANGE
;Z:0.2
;HEIGHT:0.2
;BEFORE_LAYER_CHANGE
G92 E0.0
;0.2


M73 P5 R2
G1 E-3.2 F4200
M73 P8 R2
G1 Z.2 F720
;AFTER_LAYER_CHANGE
;0.2
G1 Z.4
G1 X125.822 Y84.24 F9000
G1 Z.2 F720
M73 P9 R2
G1 E3.2 F2400
M204 P800
;TYPE:Skirt/Brim
;WIDTH:0.42
G1 F1200
G1 X126.181 Y83.812 E.01699
G1 X128.911 Y81.09 E.11725
G1 X129.87 Y80.29 E.03798
G1 X131.021 Y79.605 E.04074
G1 X131.508 Y79.397 E.01611
G1 X132.379 Y79.22 E.02703
G1 X137.393 Y79.218 E.15249
G1 X138.27 Y79.389 E.02718
G1 X138.825 Y79.628 E.01838
G1 X139.762 Y80.175 E.033
G1 X140.571 Y80.8 E.03109
G1 X143.856 Y84.082 E.14123
G1 X144.186 Y84.576 E.01807
G1 X144.564 Y85.547 E.03169
G1 X144.88 Y87.316 E.05465
G1 X144.825 Y88.955 E.04988
M73 P10 R2
G1 X143.336 Y96.52 E.23449
G1 X142.971 Y97.755 E.03917
G1 X142.424 Y98.907 E.03879
G1 X141.738 Y99.888 E.03641
G1 X140.981 Y100.499 E.02959
G1 X140.1 Y100.862 E.02898
G1 X139.28 Y100.966 E.02514
G1 X130.52 Y100.966 E.26642
G1 X129.76 Y100.877 E.02327
G1 X129.237 Y100.709 E.01671
G1 X128.401 Y100.209 E.02963
G1 X127.753 Y99.507 E.02906
G1 X127.012 Y98.205 E.04556
G1 X126.508 Y96.736 E.04723
G1 X124.933 Y88.636 E.25096
G1 X124.897 Y87.75 E.02697
M73 P11 R2
G1 X124.968 Y86.782 E.02952
G1 X125.397 Y85.046 E.05439
G1 X125.794 Y84.293 E.02589
M204 P1000
G1 X126.108 Y84.529 F9000
M204 P800
G1 F1200
G1 X126.447 Y84.079 E.01714
G1 X129.171 Y81.363 E.11699
G1 X130.087 Y80.599 E.03628
G1 X131.184 Y79.946 E.03883
G1 X131.632 Y79.753 E.01484
G1 X132.407 Y79.596 E.02405
G1 X137.368 Y79.594 E.15088
G1 X138.147 Y79.746 E.02414
G1 X138.756 Y80.016 E.02026
G1 X139.607 Y80.526 E.03017
G1 X140.378 Y81.133 E.02984
G1 X143.56 Y84.316 E.13688
G1 X143.855 Y84.758 E.01616
G1 X144.204 Y85.657 E.02933
G1 X144.504 Y87.345 E.05214
G1 X144.452 Y88.9 E.04732
G1 X142.966 Y96.445 E.23388
G1 X142.617 Y97.623 E.03737
M73 P12 R2
G1 X142.098 Y98.716 E.0368
G1 X141.46 Y99.633 E.03398
G1 X140.788 Y100.175 E.02626
G1 X140.297 Y100.407 E.01652
G1 X139.753 Y100.55 E.01711
G1 X130.52 Y100.589 E.28081
G1 X129.847 Y100.511 E.02061
G1 X129.383 Y100.361 E.01483
G1 X128.624 Y99.905 E.02693
G1 X127.984 Y99.177 E.02948
G1 X127.327 Y97.986 E.04137
G1 X126.876 Y96.652 E.04283
G1 X125.308 Y88.603 E.2494
G1 X125.274 Y87.759 E.02569
G1 X125.342 Y86.829 E.02836
M73 P13 R2
G1 X125.753 Y85.173 E.05189
G1 X125.953 Y84.736 E.01462
G1 X126.072 Y84.577 E.00604
M204 P1000
G1 X126.37 Y84.802 F9000
M204 P800
G1 F1200
G1 X126.714 Y84.346 E.01737
G1 X129.528 Y81.543 E.1208
G1 X130.453 Y80.803 E.03603
G1 X131.488 Y80.218 E.03616
G1 X132.434 Y79.972 E.02973
G1 X137.344 Y79.971 E.14933
G1 X138.025 Y80.103 E.0211
G1 X138.586 Y80.352 E.01867
G1 X139.391 Y80.835 E.02855
G1 X140.125 Y81.412 E.0284
G1 X143.265 Y84.55 E.13501
G1 X143.525 Y84.94 E.01426
G1 X143.859 Y85.822 E.02868
G1 X144.128 Y87.379 E.04806
G1 X144.079 Y88.846 E.04464
G1 X142.597 Y96.37 E.23323
G1 X142.243 Y97.546 E.03735
M73 P14 R2
G1 X141.773 Y98.526 E.03306
G1 X141.183 Y99.377 E.03149
G1 X140.595 Y99.851 E.02297
G1 X139.694 Y100.178 E.02915
G1 X130.52 Y100.212 E.27902
G1 X129.528 Y100.013 E.03077
G1 X128.863 Y99.613 E.0236
G1 X128.266 Y98.92 E.02782
G1 X127.673 Y97.836 E.03758
G1 X127.243 Y96.567 E.04075
G1 X125.684 Y88.57 E.2478
G1 X125.717 Y86.876 E.05153
G1 X126.108 Y85.299 E.04941
G1 X126.283 Y84.917 E.01278
G1 X126.334 Y84.85 E.00256
M204 P1000
; printing object Body18.stl id:0 copy 0
G1 E-2.24 F4200
;WIPE_START
G1 F7200
G1 X126.714 Y84.346 E-.34979
G1 X127.494 Y83.569 E-.61021
;WIPE_END
G1 Z.4 F720
G1 X136.799 Y89.295 F9000
M73 P15 R2
G1 Z.2 F720
G1 E3.2 F2400
M204 P800
;TYPE:Perimeter
;WIDTH:0.556534
G1 F1200
G1 X136.847 Y89.448 E.00664
;WIDTH:0.538701
G1 X137.064 Y89.99 E.02335
;WIDTH:0.51274
G1 X136.982 Y90.147 E.00671
G1 X136.83 Y90.651 E.01995
G1 X136.626 Y90.201 E.01872
G1 X136.435 Y89.961 E.01162
G1 X136.611 Y89.844 E.00801
;WIDTH:0.538701
G1 X136.784 Y89.456 E.01699
;WIDTH:0.556534
G1 X136.793 Y89.355 E.0042
M204 P1000
G1 X136.475 Y87.928 F9000
M204 P800
;WIDTH:0.38288
G1 F1200
G1 X136.554 Y87.839 E.00326
G1 X136.612 Y87.657 E.00524
;WIDTH:0.383014
G1 X136.677 Y87.353 E.00853
;WIDTH:0.409785
G1 X136.743 Y87.048 E.00923
;WIDTH:0.448589
G1 X136.758 Y86.917 E.00431
;WIDTH:0.487392
G1 X136.773 Y86.786 E.00473
;WIDTH:0.526195
G1 X136.788 Y86.655 E.00514
;WIDTH:0.564998
G1 X136.804 Y86.524 E.00556
G1 X136.898 Y86.657 E.00686
;WIDTH:0.526195
G1 X136.991 Y86.79 E.00633
;WIDTH:0.487392
G1 X137.085 Y86.923 E.00584
;WIDTH:0.448589
G1 X137.179 Y87.056 E.00533
;WIDTH:0.409785
G1 X137.071 Y87.16 E.00444
;WIDTH:0.404816
G1 X136.917 Y87.726 E.01712
;WIDTH:0.38288
G1 X136.855 Y88.194 E.01294
;WIDTH:0.416366
G1 X136.828 Y88.38 E.00566
;WIDTH:0.449851
G1 X136.802 Y88.566 E.00616
;WIDTH:0.483336
G1 X136.776 Y88.752 E.00667
G1 X136.768 Y88.726 E.00097
;WIDTH:0.476485
G1 X136.661 Y88.372 E.01293
;WIDTH:0.429683
G1 X136.554 Y88.017 E.01157
;WIDTH:0.38288
G1 X136.515 Y87.973 E.00161
M204 P1000
G1 E-2.24 F4200
;WIPE_START
G1 F7200
G1 X136.554 Y87.839 E-.07734
G1 X136.612 Y87.657 E-.10586
G1 X136.677 Y87.353 E-.17227
G1 X136.743 Y87.048 E-.17293
G1 X136.758 Y86.917 E-.07307
G1 X136.773 Y86.786 E-.07307
G1 X136.788 Y86.655 E-.07307
G1 X136.804 Y86.524 E-.07314
G1 X136.898 Y86.657 E-.09025
G1 X136.949 Y86.729 E-.049
;WIPE_END
G1 Z.4 F720
G1 X135.128 Y89.648 F9000
G1 Z.2 F720
G1 E3.2 F2400
M204 P800
;TYPE:External perimeter
;WIDTH:0.630896
G1 F1200
G1 X134.802 Y89.641 E.01546
M204 P1000
G1 E-2.24 F4200
;WIPE_START
G1 F7200
G1 X135.128 Y89.648 E-.1807
;WIPE_END
G1 E-.7793 F4200
G1 Z.4 F720
G1 X132.995 Y89.296 F9000
G1 Z.2 F720
G1 E3.2 F2400
M204 P800
;TYPE:Perimeter
;WIDTH:0.558886
G1 F1200
G1 X133.011 Y89.457 E.00673
;WIDTH:0.541215
G1 X133.176 Y89.837 E.01665
;WIDTH:0.515533
G1 X133.399 Y89.951 E.00955
G1 X133.17 Y90.202 E.01295
G1 X132.984 Y90.702 E.02034
G1 X132.878 Y90.355 E.01383
G1 X132.731 Y89.99 E.015
G1 X132.812 Y89.837 E.0066
;WIDTH:0.558886
G1 X132.976 Y89.353 E.02127
M204 P1000
G1 E-2.24 F4200
;WIPE_START
G1 F7200
G1 X133.011 Y89.457 E-.06081
G1 X133.176 Y89.837 E-.22958
G1 X133.399 Y89.951 E-.13879
G1 X133.17 Y90.202 E-.18829
M73 P16 R2
G1 X132.984 Y90.702 E-.29563
G1 X132.959 Y90.621 E-.0469
;WIPE_END
G1 Z.4 F720
G1 X132.991 Y91.554 F9000
G1 Z.2 F720
G1 E3.2 F2400
M204 P800
;WIDTH:0.458208
G1 F1200
G1 X133.197 Y92.098 E.01948
G1 X133.521 Y92.489 E.01701
G1 X133.341 Y92.495 E.00603
G1 X132.818 Y92.583 E.01776
G1 X132.934 Y92.155 E.01485
G1 X132.986 Y91.614 E.0182
M204 P1000
G1 E-2.24 F4200
;WIPE_START
G1 F7200
G1 X133.197 Y92.098 E-.2926
G1 X133.521 Y92.489 E-.2814
G1 X133.341 Y92.495 E-.09981
G1 X132.832 Y92.581 E-.28619
;WIPE_END
G1 Z.4 F720
G1 X136.825 Y91.215 F9000
G1 Z.2 F720
G1 E3.2 F2400
M204 P800
;WIDTH:0.417196
G1 F1200
G1 X136.812 Y91.432 E.00656
;WIDTH:0.448423
G1 X136.799 Y91.649 E.00711
G1 X136.864 Y92.154 E.01665
G1 X136.977 Y92.571 E.01413
G1 X136.778 Y92.535 E.00661
G1 X136.268 Y92.508 E.0167
G1 X136.546 Y92.188 E.01386
G1 X136.771 Y91.719 E.01701
G1 X136.798 Y91.467 E.00829
;WIDTH:0.417196
G1 X136.819 Y91.275 E.00583
M204 P1000
G1 E-2.24 F4200
;WIPE_START
G1 F7200
G1 X136.812 Y91.432 E-.08709
G1 X136.799 Y91.649 E-.12047
G1 X136.864 Y92.154 E-.28216
G1 X136.977 Y92.571 E-.23942
G1 X136.778 Y92.535 E-.11207
G1 X136.564 Y92.524 E-.11879
;WIPE_END
G1 Z.4 F720
G1 X133.01 Y86.662 F9000
G1 Z.2 F720
G1 E3.2 F2400
M204 P800
;WIDTH:0.568336
G1 F1200
G1 X133.014 Y86.69 E.0012
;WIDTH:0.519254
G1 X133.037 Y86.856 E.00644
;WIDTH:0.470171
G1 X133.06 Y87.022 E.00578
;WIDTH:0.421089
G1 X133.083 Y87.189 E.00514
;WIDTH:0.372006
G1 X133.207 Y87.741 E.01502
;WIDTH:0.384392
G1 X133.321 Y87.928 E.00603
G1 X133.242 Y88.018 E.0033
G1 X133.169 Y88.208 E.00561
;WIDTH:0.41829
G1 X133.119 Y88.389 E.00569
;WIDTH:0.452188
G1 X133.069 Y88.57 E.0062
;WIDTH:0.486086
G1 X133.019 Y88.752 E.00675
G1 X133.014 Y88.724 E.00102
;WIDTH:0.479028
G1 X132.969 Y88.392 E.01178
;WIDTH:0.438614
G1 X132.923 Y88.059 E.01073
;WIDTH:0.398199
G1 X132.877 Y87.727 E.0096
;WIDTH:0.406159
G1 X132.724 Y87.16 E.01721
;WIDTH:0.411316
G1 X132.615 Y87.055 E.0045
G1 X132.708 Y86.951 E.00415
;WIDTH:0.450571
G1 X132.779 Y86.845 E.00419
;WIDTH:0.489826
G1 X132.85 Y86.738 E.00463
;WIDTH:0.529081
G1 X132.921 Y86.631 E.00504
;WIDTH:0.568336
G1 X132.991 Y86.524 E.00542
G1 X133.002 Y86.603 E.00338
M204 P1000
G1 E-2.24 F4200
;WIPE_START
G1 F7200
G1 X133.014 Y86.69 E-.04867
G1 X133.037 Y86.856 E-.09287
G1 X133.06 Y87.022 E-.09287
G1 X133.083 Y87.189 E-.09342
G1 X133.207 Y87.741 E-.31352
G1 X133.321 Y87.928 E-.12137
M73 P17 R2
G1 X133.242 Y88.018 E-.06636
G1 X133.169 Y88.208 E-.1128
G1 X133.16 Y88.24 E-.01812
;WIPE_END
G1 Z.4 F720
G1 X136.118 Y86.346 F9000
G1 Z.2 F720
G1 E3.2 F2400
M204 P800
;TYPE:External perimeter
;WIDTH:0.41923
G1 F1200
G1 X136.185 Y86.349 E.00204
;WIDTH:0.419999
G1 X136.354 Y86.539 E.00773
G1 X136.372 Y87.075 E.01631
G1 X136.273 Y87.589 E.01592
G1 X136.207 Y87.698 E.00388
G1 X136.088 Y87.74 E.00384
G1 X133.708 Y87.74 E.07238
G1 X133.548 Y87.65 E.00558
G1 X133.429 Y87.119 E.01655
G1 X133.442 Y86.539 E.01764
G1 X133.579 Y86.354 E.007
;WIDTH:0.41923
G1 X136.058 Y86.346 E.07524
M204 P1000
G1 E-2.24 F4200
;WIPE_START
G1 F7200
G1 X136.185 Y86.349 E-.0704
G1 X136.354 Y86.539 E-.14092
G1 X136.372 Y87.075 E-.2972
G1 X136.273 Y87.589 E-.29008
G1 X136.207 Y87.698 E-.07061
G1 X136.088 Y87.74 E-.06993
G1 X136.05 Y87.74 E-.02086
;WIPE_END
G1 Z.4 F720
G1 X133.589 Y88.159 F9000
G1 Z.2 F720
G1 E3.2 F2400
M204 P800
;WIDTH:0.419999
G1 F1200
G1 X133.708 Y88.117 E.00384
G1 X136.089 Y88.117 E.07241
G1 X136.249 Y88.206 E.00557
G1 X136.369 Y88.798 E.01837
G1 X136.35 Y89.387 E.01792
G1 X136.299 Y89.558 E.00543
G1 X136.134 Y89.618 E.00534
G1 X135.584 Y89.543 E.01688
;WIDTH:0.462179
G1 X135.493 Y89.564 E.00316
;WIDTH:0.504358
G1 X135.402 Y89.585 E.00348
;WIDTH:0.546538
G1 X135.31 Y89.606 E.00383
;WIDTH:0.588717
G1 X135.219 Y89.627 E.00411
;WIDTH:0.630896
G1 X135.128 Y89.648 E.00443
G1 X135.282 Y89.729 E.00825
;WIDTH:0.588717
G1 X135.435 Y89.811 E.00764
;WIDTH:0.546538
G1 X135.589 Y89.892 E.00707
;WIDTH:0.504358
G1 X135.743 Y89.973 E.00648
;WIDTH:0.462179
G1 X135.897 Y90.054 E.00588
;WIDTH:0.419999
G1 X136.241 Y90.377 E.01435
G1 X136.45 Y90.858 E.01595
G1 X136.47 Y91.157 E.00911
G1 X136.378 Y91.66 E.01555
G1 X136.193 Y92.011 E.01207
G1 X136.011 Y92.215 E.00831
G1 X135.671 Y92.46 E.01275
;WIDTH:0.453659
G1 X135.017 Y92.664 E.0227
;WIDTH:0.490032
G1 X134.981 Y92.684 E.00149
;WIDTH:0.526405
G1 X134.946 Y92.705 E.00159
;WIDTH:0.562777
G1 X134.91 Y92.725 E.00173
G1 X134.687 Y92.651 E.00985
;WIDTH:0.513301
G1 X134.463 Y92.577 E.00895
;WIDTH:0.463824
G1 X134.24 Y92.503 E.00798
;WIDTH:0.419999
G1 X133.851 Y92.265 E.01387
G1 X133.517 Y91.858 E.01601
G1 X133.371 Y91.475 E.01247
G1 X133.337 Y91.007 E.01427
G1 X133.494 Y90.493 E.01635
G1 X133.849 Y90.095 E.01622
G1 X134.381 Y89.837 E.01798
;WIDTH:0.467918
G1 X134.484 Y89.788 E.00391
;WIDTH:0.515836
M73 P18 R2
G1 X134.586 Y89.74 E.0043
;WIDTH:0.563754
G1 X134.689 Y89.691 E.00479
;WIDTH:0.611672
G1 X134.791 Y89.642 E.00519
G1 X134.673 Y89.617 E.00553
;WIDTH:0.563754
G1 X134.554 Y89.593 E.0051
;WIDTH:0.515836
G1 X134.435 Y89.568 E.00464
;WIDTH:0.467918
G1 X134.317 Y89.543 E.00413
;WIDTH:0.419999
G1 X133.64 Y89.621 E.02073
G1 X133.482 Y89.541 E.00539
G1 X133.441 Y89.275 E.00819
G1 X133.427 Y88.798 E.01451
G1 X133.522 Y88.272 E.01626
G1 X133.559 Y88.211 E.00217
M204 P1000
G1 X133.571 Y88.034 F9000
G1 E-2.24 F4200
;WIPE_START
G1 F7200
G1 X133.708 Y88.117 E-.09763
G1 X135.264 Y88.117 E-.86237
;WIPE_END
G1 Z.4 F720
G1 X132.126 Y86.816 F9000
G1 Z.2 F720
G1 E3.2 F2400
M204 P800
;WIDTH:0.419621
G1 F1200
G1 X132.329 Y86.829 E.00618
;WIDTH:0.419999
G1 X132.533 Y86.48 E.01229
G1 X132.578 Y86.208 E.00838
G1 X132.628 Y86.101 E.00359
G1 X133.677 Y85.97 E.03215
;WIDTH:0.419294
G1 X136.223 Y85.978 E.07729
;WIDTH:0.419999
G1 X137.023 Y86.062 E.02446
G1 X137.187 Y86.128 E.00538
G1 X137.243 Y86.429 E.00931
G1 X137.464 Y86.83 E.01393
G1 X137.668 Y86.816 E.00622
;WIDTH:0.380678
G1 X138.672 Y86.143 E.03293
;WIDTH:0.40385
G1 X138.772 Y86.055 E.00388
;WIDTH:0.419999
G1 X138.956 Y85.387 E.02107
;WIDTH:0.439604
G1 X138.906 Y84.887 E.01608
G1 X138.704 Y84.42 E.01628
;WIDTH:0.430431
G1 X138.474 Y84.028 E.01421
;WIDTH:0.423651
G1 X138.057 Y83.478 E.0212
;WIDTH:0.461389
G1 X138.03 Y83.407 E.00256
;WIDTH:0.502775
G1 X138.003 Y83.337 E.00278
;WIDTH:0.544161
G1 X137.975 Y83.266 E.00309
;WIDTH:0.585547
G1 X137.948 Y83.196 E.00328
;WIDTH:0.626933
G1 X137.921 Y83.125 E.00358
G1 X137.995 Y83.149 E.00366
;WIDTH:0.585547
G1 X138.068 Y83.173 E.00336
;WIDTH:0.544161
G1 X138.142 Y83.198 E.00316
;WIDTH:0.502775
G1 X138.216 Y83.222 E.00289
;WIDTH:0.461389
G1 X138.29 Y83.246 E.00263
;WIDTH:0.420003
G1 X138.482 Y83.419 E.00786
;WIDTH:0.423299
G1 X138.792 Y83.821 E.01557
;WIDTH:0.430431
G1 X139.058 Y84.263 E.01612
;WIDTH:0.438296
G1 X139.294 Y84.795 E.01856
G1 X139.47 Y85.278 E.01639
;WIDTH:0.419999
G1 X139.583 Y85.78 E.01565
G1 X139.564 Y85.998 E.00666
G1 X139.364 Y86.26 E.01002
G1 X138.86 Y86.424 E.01612
;WIDTH:0.380678
G1 X137.855 Y87.096 E.03293
;WIDTH:0.419998
G1 X137.438 Y87.312 E.01428
G1 X137.348 Y87.429 E.00449
G1 X137.228 Y87.918 E.01531
G1 X137.185 Y88.746 E.02522
G1 X137.248 Y89.268 E.01599
G1 X137.425 Y89.776 E.01636
;WIDTH:0.418729
G1 X137.566 Y89.822 E.0045
;WIDTH:0.380633
G1 X139.71 Y89.822 E.0584
;WIDTH:0.40796
G1 X139.905 Y89.775 E.00591
;WIDTH:0.419999
G1 X140.382 Y89.534 E.01625
;WIDTH:0.449257
G1 X140.714 Y89.213 E.01513
G1 X140.962 Y88.691 E.01894
;WIDTH:0.419921
G1 X141.102 Y88.185 E.01596
M73 P19 R2
G1 X141.181 Y87.656 E.01626
;WIDTH:0.417553
G1 X141.199 Y87.377 E.00845
;WIDTH:0.385414
G1 X141.218 Y87.098 E.00772
;WIDTH:0.353275
G1 X141.235 Y86.415 E.0171
G1 X141.289 Y86.346 E.00219
G1 X141.358 Y86.402 E.00222
;WIDTH:0.359723
G1 X141.534 Y87.191 E.02066
;WIDTH:0.388638
G1 X141.543 Y87.448 E.00717
;WIDTH:0.417553
G1 X141.552 Y87.706 E.0078
;WIDTH:0.418332
G1 X141.459 Y88.307 E.01841
;WIDTH:0.440785
G1 X141.222 Y89.083 E.02604
G1 X140.87 Y89.826 E.02638
;WIDTH:0.419999
G1 X140.649 Y90.164 E.01228
G1 X140.471 Y90.291 E.00665
G1 X140.216 Y90.345 E.00793
G1 X139.854 Y90.217 E.01168
;WIDTH:0.40796
G1 X139.71 Y90.159 E.00457
;WIDTH:0.380633
G1 X137.566 Y90.159 E.0584
;WIDTH:0.418729
G1 X137.425 Y90.205 E.0045
;WIDTH:0.419999
G1 X137.247 Y90.719 E.01654
G1 X137.197 Y91.1 E.01169
G1 X137.19 Y91.644 E.01655
G1 X137.257 Y92.126 E.0148
G1 X137.417 Y92.622 E.01585
;WIDTH:0.405196
G1 X137.567 Y92.699 E.00493
;WIDTH:0.379745
G1 X138.81 Y93.185 E.03626
;WIDTH:0.418965
G1 X138.919 Y93.244 E.00376
;WIDTH:0.458559
G1 X139.028 Y93.302 E.00414
;WIDTH:0.49299
G1 X139.097 Y93.31 E.00252
;WIDTH:0.527421
