; generated by PrusaSlicer 2.6.0-alpha5+MacOS-x64 on 2023-03-11 at 15:45:11 UTC


;
;

;
;
; 

; external perimeters extrusion width = 0.45mm
; perimeters extrusion width = 0.45mm
; infill extrusion width = 0.45mm
; solid infill extrusion width = 0.45mm
; top infill extrusion width = 0.40mm
; first layer extrusion width = 0.42mm

M73 P0 R7
M201 X2500 Y2500 Z400 E5000 ; sets maximum accelerations, mm/sec^2
M203 X180 Y180 Z12 E80 ; sets maximum feedrates, mm / sec
M204 P2000 R1250 T2500 ; sets acceleration (P, T) and retract acceleration (R), mm/sec^2
M205 X8.00 Y8.00 Z2.00 E10.00 ; sets the jerk limits, mm/sec
M205 S0 T0 ; sets the minimum extruding and travel feed rate, mm/sec
M107
;TYPE:Custom
M862.3 P "MINI" ; printer model check
G90 ; use absolute coordinates
M83 ; extruder relative mode
M104 S170 ; set extruder temp for bed leveling
M140 S55 ; set bed temp
M109 R170 ; wait for bed leveling temp
M190 S55 ; wait for bed temp
M204 T1250 ; set travel acceleration
G28 ; home all without mesh bed level
G29 ; mesh bed leveling 
M204 T2500 ; restore travel acceleration
M104 S240 ; set extruder temp
G92 E0
G1 Y-2 X179 F2400
G1 Z3 F720
M109 S240 ; wait for extruder temp

; intro line
M73 P1 R7
G1 X170 F1000
G1 Z0.2 F720
G1 X110 E8 F900
G1 X40 E10 F700
G92 E0

M221 S95 ; set flow
G21 ; set units to millimeters
G90 ; use absolute coordinates
M83 ; use relative distances for extrusion
M900 K0 ; Filament gcode
M107
;LAYER_CHANGE
;Z:0.2
;HEIGHT:0.2
;BEFORE_LAYER_CHANGE
G92 E0.0
;0.2


M73 P2 R7
G1 E-4 F2400
M73 P3 R6
G1 Z.2 F720
;AFTER_LAYER_CHANGE
;0.2
G1 X114.935 Y72.176 F9000
G1 E4 F900
M204 P600
;TYPE:Skirt/Brim
;WIDTH:0.42
G1 F1200
G1 X115.545 Y71.376 E.03627
G1 X116.259 Y70.611 E.03773
G1 X117.048 Y69.923 E.03775
G1 X117.936 Y69.297 E.03918
G1 X118.814 Y68.804 E.03631
G1 X119.811 Y68.371 E.03919
G1 X120.985 Y68.011 E.04428
G1 X122.014 Y67.817 E.03776
G1 X123.426 Y67.723 E.05103
G1 X147.445 Y67.723 E.86606
G1 X149.142 Y67.871 E.06142
M73 P4 R6
G1 X150.657 Y68.252 E.05633
G1 X152.222 Y68.923 E.0614
G1 X153.585 Y69.792 E.05829
G1 X154.758 Y70.823 E.05631
G1 X155.792 Y72.066 E.0583
G1 X156.657 Y73.533 E.06141
G1 X157.225 Y74.982 E.05612
G1 X157.538 Y76.306 E.04906
G1 X157.674 Y77.694 E.05029
G1 X157.658 Y90.654 E.4673
G1 X157.475 Y92.035 E.05023
G1 X157.106 Y93.383 E.05039
G1 X156.558 Y94.666 E.0503
G1 X155.842 Y95.863 E.05029
G1 X154.73 Y97.205 E.06284
G1 X142.418 Y109.509 E.62762
G1 X140.827 Y110.728 E.07227
G1 X139.911 Y111.235 E.03775
G1 X138.986 Y111.632 E.0363
G1 X137.49 Y112.063 E.05614
G1 X135.795 Y112.27 E.06157
G1 X122.835 Y112.261 E.4673
G1 X121.454 Y112.091 E.05017
M73 P5 R6
G1 X120.102 Y111.733 E.05043
G1 X118.814 Y111.196 E.05032
G1 X117.54 Y110.441 E.0534
G1 X116.681 Y109.775 E.03919
G1 X115.802 Y108.917 E.04429
G1 X115.113 Y108.076 E.0392
G1 X114.495 Y107.126 E.04086
G1 X114.003 Y106.157 E.03919
G1 X113.575 Y105.006 E.04428
G1 X113.296 Y103.867 E.04228
G1 X113.156 Y102.789 E.0392
G1 X113.141 Y77.433 E.91427
G1 X113.312 Y76.05 E.05025
G1 X113.669 Y74.7 E.05035
G1 X114.206 Y73.413 E.05028
G1 X114.904 Y72.228 E.04959
M204 P1000
G1 X117.141 Y73.669 F9000
M204 P600
G1 F1200
G1 X117.609 Y73.061 E.02767
G1 X118.105 Y72.532 E.02615
G1 X118.65 Y72.052 E.02619
G1 X119.285 Y71.596 E.02819
G1 X119.962 Y71.208 E.02814
G1 X120.683 Y70.889 E.02843
G1 X121.937 Y70.529 E.04704
G1 X122.851 Y70.407 E.03325
G1 X123.608 Y70.389 E.0273
G1 X124.348 Y70.446 E.02676
G1 X125.079 Y70.574 E.02676
G1 X125.776 Y70.766 E.02607
G1 X126.451 Y71.024 E.02606
G1 X127.116 Y71.354 E.02677
G1 X127.762 Y71.759 E.02749
G1 X128.397 Y72.254 E.02903
G1 X128.937 Y72.772 E.02698
G1 X129.395 Y73.305 E.02534
G1 X130.105 Y72.531 E.03787
G1 X130.664 Y72.04 E.02683
G1 X131.285 Y71.596 E.02753
G1 X131.941 Y71.219 E.02728
G1 X132.65 Y70.901 E.02802
G1 X133.906 Y70.535 E.04717
G1 X134.788 Y70.412 E.03211
G1 X135.605 Y70.389 E.02947
G1 X136.346 Y70.445 E.02679
G1 X137.076 Y70.573 E.02672
G1 X137.757 Y70.76 E.02546
G1 X138.467 Y71.031 E.0274
G1 X139.131 Y71.362 E.02675
G1 X139.775 Y71.768 E.02745
G1 X140.378 Y72.238 E.02757
G1 X140.908 Y72.742 E.02637
G1 X141.395 Y73.305 E.02684
G1 X142.076 Y72.559 E.03642
G1 X142.646 Y72.054 E.02746
G1 X143.266 Y71.608 E.02754
G1 X143.941 Y71.219 E.02809
G1 X144.677 Y70.891 E.02905
M73 P6 R6
G1 X145.907 Y70.535 E.04617
G1 X146.787 Y70.412 E.03204
G1 X147.605 Y70.389 E.02951
G1 X148.366 Y70.448 E.02752
G1 X149.06 Y70.57 E.02541
G1 X149.757 Y70.76 E.02605
G1 X150.468 Y71.031 E.02744
G1 X151.115 Y71.354 E.02607
G1 X151.743 Y71.746 E.02669
G1 X152.35 Y72.214 E.02764
G1 X152.895 Y72.729 E.02704
G1 X153.389 Y73.298 E.02717
G1 X153.913 Y74.055 E.0332
G1 X154.492 Y75.226 E.0471
G1 X154.758 Y76.039 E.03084
G1 X154.904 Y76.705 E.02458
G1 X154.991 Y77.398 E.02518
G1 X155.016 Y78.142 E.02684
G1 X154.856 Y79.549 E.05106
G1 X154.64 Y80.36 E.03026
G1 X154.357 Y81.097 E.02847
G1 X154.022 Y81.758 E.02672
G1 X153.627 Y82.382 E.02663
G1 X153.162 Y82.978 E.02726
G1 X152.665 Y83.501 E.02601
G1 X152.083 Y84.006 E.02778
G1 X152.393 Y84.252 E.01427
G1 X152.922 Y84.757 E.02637
G1 X153.451 Y85.377 E.02939
G1 X153.912 Y86.053 E.0295
G1 X154.5 Y87.247 E.04799
G1 X154.743 Y87.984 E.02798
G1 X154.904 Y88.704 E.0266
G1 X154.992 Y89.416 E.02587
G1 X155.013 Y90.201 E.02832
G1 X154.833 Y91.664 E.05315
G1 X154.633 Y92.38 E.02681
G1 X154.365 Y93.077 E.02693
G1 X154.043 Y93.721 E.02596
G1 X153.652 Y94.347 E.02661
G1 X153.174 Y94.964 E.02814
G1 X152.636 Y95.528 E.0281
G1 X152.073 Y96.012 E.02677
G1 X151.476 Y96.433 E.02634
G1 X150.158 Y97.098 E.05323
G1 X149.399 Y97.346 E.02879
G1 X148.696 Y97.502 E.02596
G1 X147.98 Y97.591 E.02602
G1 X147.22 Y97.611 E.02741
G1 X146.461 Y97.555 E.02744
G1 X145.707 Y97.423 E.0276
G1 X144.364 Y96.983 E.05096
G1 X143.719 Y96.664 E.02595
G1 X143.109 Y96.288 E.02584
G1 X142.505 Y95.83 E.02733
G1 X141.922 Y95.287 E.02873
G1 X141.425 Y94.673 E.02848
G1 X140.692 Y95.475 E.03918
G1 X140.083 Y96.006 E.02913
G1 X140.41 Y96.266 E.01506
G1 X140.924 Y96.759 E.02568
G1 X141.427 Y97.346 E.02787
G1 X141.912 Y98.053 E.03091
G1 X142.512 Y99.274 E.04905
G1 X142.753 Y100.02 E.02827
G1 X142.907 Y100.722 E.02591
G1 X142.993 Y101.418 E.02529
G1 X143.009 Y102.287 E.03134
G1 X142.84 Y103.634 E.04895
G1 X142.628 Y104.397 E.02855
G1 X142.342 Y105.13 E.02837
G1 X142.033 Y105.74 E.02466
G1 X141.662 Y106.333 E.02522
G1 X141.187 Y106.949 E.02805
G1 X140.651 Y107.515 E.02811
G1 X140.069 Y108.015 E.02767
G1 X139.376 Y108.493 E.03036
G1 X138.211 Y109.077 E.04699
G1 X137.439 Y109.336 E.02936
G1 X136.719 Y109.499 E.02662
G1 X136.003 Y109.59 E.02602
G1 X135.261 Y109.612 E.02677
G1 X134.538 Y109.564 E.02613
G1 X133.738 Y109.43 E.02925
G1 X132.393 Y108.995 E.05097
G1 X131.72 Y108.664 E.02704
G1 X131.093 Y108.276 E.02659
G1 X130.505 Y107.83 E.02661
G1 X129.943 Y107.308 E.02766
G1 X129.414 Y106.659 E.03019
G1 X129.15 Y106.993 E.01535
G1 X128.637 Y107.528 E.02673
G1 X128.056 Y108.026 E.02759
G1 X127.425 Y108.464 E.0277
G1 X126.238 Y109.066 E.04799
G1 X125.458 Y109.331 E.0297
G1 X124.697 Y109.502 E.02812
G1 X123.96 Y109.593 E.02678
G1 X123.22 Y109.611 E.02669
G1 X122.483 Y109.558 E.02664
G1 X121.765 Y109.437 E.02625
G1 X120.444 Y109.015 E.05
G1 X119.672 Y108.637 E.03099
M73 P7 R6
G1 X119.08 Y108.267 E.02517
G1 X118.535 Y107.855 E.02463
G1 X117.888 Y107.249 E.03196
G1 X117.105 Y106.278 E.04498
G1 X116.68 Y105.574 E.02965
G1 X116.333 Y104.825 E.02976
G1 X116.102 Y104.16 E.02538
G1 X115.931 Y103.463 E.02588
G1 X115.822 Y102.711 E.0274
G1 X115.79 Y101.867 E.03045
G1 X115.94 Y100.484 E.05016
G1 X116.14 Y99.715 E.02865
G1 X116.416 Y98.974 E.02851
G1 X116.746 Y98.304 E.02693
G1 X117.14 Y97.67 E.02692
G1 X117.596 Y97.076 E.027
G1 X118.119 Y96.519 E.02755
G1 X118.703 Y96.006 E.02803
G1 X117.927 Y95.291 E.03805
G1 X117.09 Y94.257 E.04797
G1 X116.662 Y93.539 E.03014
G1 X116.348 Y92.863 E.02688
G1 X116.102 Y92.162 E.02679
G1 X115.927 Y91.444 E.02665
G1 X115.822 Y90.712 E.02666
G1 X115.79 Y89.872 E.03031
G1 X115.924 Y88.573 E.04709
G1 X116.139 Y87.719 E.03175
G1 X116.399 Y87.013 E.02713
G1 X116.727 Y86.34 E.027
G1 X117.152 Y85.653 E.02913
G1 X117.61 Y85.059 E.02705
G1 X118.12 Y84.518 E.02681
G1 X118.704 Y84.005 E.02803
G1 X117.966 Y83.332 E.03601
G1 X117.072 Y82.231 E.05114
G1 X116.651 Y81.519 E.02983
G1 X116.34 Y80.844 E.0268
G1 X116.097 Y80.143 E.02675
G1 X115.927 Y79.443 E.02597
G1 X115.822 Y78.713 E.02659
G1 X115.789 Y77.9 E.02934
G1 X115.939 Y76.486 E.05127
G1 X116.139 Y75.717 E.02865
G1 X116.4 Y75.012 E.02711
G1 X116.737 Y74.321 E.02772
G1 X117.109 Y73.72 E.02549
M204 P1000
G1 X117.43 Y73.919 F9000
M204 P600
G1 F1200
G1 X117.901 Y73.298 E.0281
G1 X118.374 Y72.797 E.02484
G1 X118.891 Y72.342 E.02483
G1 X119.481 Y71.918 E.0262
G1 X120.124 Y71.549 E.02673
G1 X120.824 Y71.239 E.0276
G1 X122.001 Y70.901 E.04415
G1 X122.891 Y70.782 E.03238
G1 X123.589 Y70.766 E.02517
G1 X124.292 Y70.819 E.02542
G1 X125.005 Y70.943 E.02609
G1 X125.65 Y71.122 E.02414
G1 X126.292 Y71.366 E.02476
G1 X126.939 Y71.687 E.02604
G1 X127.553 Y72.073 E.02615
G1 X128.143 Y72.533 E.02698
G1 X128.669 Y73.038 E.02629
G1 X129.11 Y73.552 E.02442
G1 X129.393 Y73.957 E.01782
G1 X129.888 Y73.313 E.02929
G1 X130.373 Y72.797 E.02553
G1 X130.906 Y72.33 E.02555
G1 X131.481 Y71.918 E.02551
G1 X132.105 Y71.559 E.02596
G1 X132.768 Y71.259 E.02624
G1 X133.998 Y70.901 E.04619
G1 X134.828 Y70.787 E.03021
G1 X135.604 Y70.767 E.02799
G1 X136.308 Y70.821 E.02546
G1 X136.985 Y70.939 E.02478
G1 X137.632 Y71.116 E.02419
G1 X138.308 Y71.373 E.02608
G1 X138.938 Y71.687 E.02538
G1 X139.551 Y72.071 E.02608
G1 X140.125 Y72.518 E.02623
G1 X140.641 Y73.009 E.02568
G1 X141.109 Y73.551 E.02582
G1 X141.392 Y73.957 E.01784
G1 X141.888 Y73.314 E.02928
G1 X142.345 Y72.824 E.02416
G1 X142.888 Y72.343 E.02616
G1 X143.478 Y71.919 E.0262
G1 X144.104 Y71.559 E.02604
G1 X144.795 Y71.249 E.02731
G1 X145.998 Y70.901 E.04516
G1 X146.828 Y70.787 E.03021
G1 X147.586 Y70.766 E.02734
G1 X148.328 Y70.823 E.02683
G1 X148.986 Y70.939 E.02409
G1 X149.631 Y71.116 E.02412
G1 X150.324 Y71.38 E.02674
G1 X150.938 Y71.687 E.02475
G1 X151.535 Y72.06 E.02538
G1 X152.111 Y72.506 E.02627
G1 X152.629 Y72.996 E.02571
G1 X153.097 Y73.537 E.02579
G1 X153.595 Y74.258 E.0316
G1 X154.147 Y75.38 E.04509
G1 X154.392 Y76.129 E.02842
M73 P8 R6
G1 X154.534 Y76.777 E.02392
G1 X154.616 Y77.435 E.02391
G1 X154.638 Y78.14 E.02543
G1 X154.483 Y79.492 E.04907
G1 X154.278 Y80.252 E.02838
G1 X154.016 Y80.935 E.02638
G1 X153.699 Y81.564 E.0254
G1 X153.314 Y82.172 E.02595
G1 X152.882 Y82.725 E.0253
G1 X152.398 Y83.234 E.02533
G1 X151.86 Y83.699 E.02564
G1 X151.447 Y83.988 E.01818
G1 X152.14 Y84.531 E.03174
G1 X152.642 Y85.01 E.02502
G1 X153.146 Y85.599 E.02795
G1 X153.58 Y86.233 E.0277
G1 X154.146 Y87.378 E.04605
G1 X154.382 Y88.093 E.02715
G1 X154.531 Y88.76 E.02464
G1 X154.616 Y89.436 E.02457
G1 X154.636 Y90.197 E.02745
G1 X154.466 Y91.577 E.05014
G1 X154.278 Y92.253 E.0253
G1 X154.024 Y92.917 E.02563
G1 X153.718 Y93.53 E.0247
G1 X153.348 Y94.124 E.02523
G1 X152.894 Y94.711 E.02676
G1 X152.369 Y95.261 E.02742
G1 X151.847 Y95.71 E.02483
G1 X151.292 Y96.104 E.02454
G1 X150.027 Y96.745 E.05113
G1 X149.308 Y96.981 E.02729
G1 X148.64 Y97.129 E.02467
G1 X147.961 Y97.215 E.02468
G1 X147.237 Y97.234 E.02611
G1 X146.516 Y97.182 E.02606
G1 X145.81 Y97.06 E.02583
G1 X144.519 Y96.639 E.04896
G1 X143.909 Y96.338 E.02453
G1 X143.315 Y95.972 E.02516
G1 X142.741 Y95.536 E.02599
G1 X142.19 Y95.021 E.02719
G1 X141.409 Y94.052 E.04488
G1 X140.895 Y94.71 E.03011
G1 X140.426 Y95.208 E.02467
G1 X139.862 Y95.699 E.02696
G1 X139.446 Y95.987 E.01824
G1 X140.156 Y96.545 E.03256
G1 X140.656 Y97.024 E.02497
G1 X141.122 Y97.568 E.02583
G1 X141.58 Y98.232 E.02909
G1 X142.157 Y99.404 E.0471
G1 X142.387 Y100.111 E.02681
G1 X142.534 Y100.777 E.02459
G1 X142.617 Y101.455 E.02463
G1 X142.634 Y102.254 E.02882
G1 X142.472 Y103.547 E.04699
G1 X142.273 Y104.27 E.02704
G1 X142.001 Y104.968 E.02701
G1 X141.701 Y105.562 E.02399
G1 X141.348 Y106.124 E.02393
G1 X140.894 Y106.711 E.02676
G1 X140.397 Y107.235 E.02604
G1 X139.846 Y107.711 E.02625
G1 X139.195 Y108.163 E.02858
G1 X138.078 Y108.724 E.04507
G1 X137.346 Y108.97 E.02784
G1 X136.662 Y109.126 E.0253
G1 X135.981 Y109.213 E.02475
G1 X135.277 Y109.235 E.0254
G1 X134.572 Y109.188 E.02548
G1 X133.84 Y109.067 E.02675
G1 X132.547 Y108.65 E.04899
G1 X131.895 Y108.33 E.02619
G1 X131.299 Y107.961 E.02528
G1 X130.741 Y107.536 E.02529
G1 X130.209 Y107.041 E.0262
G1 X129.409 Y106.053 E.04584
G1 X128.871 Y106.739 E.03143
G1 X128.384 Y107.248 E.0254
G1 X127.832 Y107.722 E.02623
G1 X127.243 Y108.134 E.02592
G1 X126.08 Y108.723 E.04701
G1 X125.347 Y108.97 E.02789
G1 X124.624 Y109.132 E.02672
G1 X123.924 Y109.217 E.02543
G1 X123.22 Y109.234 E.02539
G1 X122.536 Y109.184 E.02473
G1 X121.867 Y109.074 E.02445
G1 X120.572 Y108.66 E.04902
G1 X119.863 Y108.312 E.02848
G1 X119.301 Y107.961 E.02389
G1 X118.771 Y107.56 E.02396
G1 X118.173 Y107.002 E.02949
G1 X117.407 Y106.052 E.044
G1 X117.009 Y105.389 E.02788
G1 X116.679 Y104.676 E.02833
G1 X116.461 Y104.045 E.02407
G1 X116.303 Y103.399 E.02398
G1 X116.199 Y102.687 E.02595
G1 X116.167 Y101.866 E.02963
G1 X116.308 Y100.566 E.04715
G1 X116.502 Y99.819 E.02783
G1 X116.759 Y99.132 E.02645
G1 X117.072 Y98.494 E.02562
G1 X117.446 Y97.891 E.02559
G1 X117.877 Y97.327 E.02559
M73 P9 R6
G1 X118.387 Y96.784 E.02686
G1 X118.906 Y96.33 E.02486
G1 X119.356 Y96.006 E.01999
G1 X118.744 Y95.537 E.0278
G1 X118.212 Y95.044 E.02615
G1 X117.392 Y94.03 E.04702
G1 X117 Y93.372 E.02762
G1 X116.7 Y92.729 E.02558
G1 X116.466 Y92.063 E.02545
G1 X116.299 Y91.381 E.02532
G1 X116.199 Y90.686 E.02532
G1 X116.166 Y89.897 E.02847
G1 X116.297 Y88.626 E.04607
G1 X116.502 Y87.822 E.02992
G1 X116.75 Y87.153 E.02573
G1 X117.052 Y86.53 E.02496
G1 X117.457 Y85.875 E.02777
G1 X117.891 Y85.311 E.02566
G1 X118.388 Y84.783 E.02615
G1 X118.906 Y84.33 E.02481
G1 X119.355 Y84.006 E.01996
G1 X118.744 Y83.537 E.02777
G1 X118.25 Y83.084 E.02417
G1 X117.374 Y82.005 E.05011
G1 X116.981 Y81.337 E.02795
G1 X116.693 Y80.711 E.02485
G1 X116.461 Y80.045 E.02543
G1 X116.299 Y79.38 E.02468
G1 X116.199 Y78.686 E.02528
G1 X116.165 Y77.925 E.02747
G1 X116.313 Y76.54 E.05022
G1 X116.496 Y75.839 E.02612
G1 X116.743 Y75.168 E.02578
G1 X117.062 Y74.512 E.0263
G1 X117.398 Y73.97 E.02299
M204 P1000
G1 X117.718 Y74.168 F9000
M204 P600
G1 F1200
G1 X118.183 Y73.55 E.02789
G1 X118.642 Y73.062 E.02416
G1 X119.133 Y72.632 E.02353
G1 X119.693 Y72.231 E.02484
G1 X120.287 Y71.889 E.02471
G1 X120.941 Y71.597 E.02583
G1 X122.091 Y71.267 E.04314
G1 X122.909 Y71.159 E.02975
G1 X123.588 Y71.143 E.02449
G1 X124.254 Y71.194 E.02408
G1 X124.913 Y71.309 E.02412
G1 X125.541 Y71.483 E.0235
G1 X126.148 Y71.715 E.02343
G1 X126.763 Y72.02 E.02475
G1 X127.344 Y72.387 E.02478
G1 X127.903 Y72.824 E.02558
G1 X128.389 Y73.29 E.02428
G1 X128.818 Y73.79 E.02376
G1 X129.415 Y74.654 E.03787
G1 X129.761 Y74.098 E.02361
G1 X130.17 Y73.564 E.02425
G1 X130.641 Y73.062 E.02482
G1 X131.147 Y72.62 E.02423
G1 X131.693 Y72.23 E.02419
G1 X132.269 Y71.898 E.02397
G1 X132.887 Y71.617 E.02448
G1 X134.09 Y71.267 E.04518
G1 X134.869 Y71.162 E.02834
G1 X135.586 Y71.143 E.02586
G1 X136.253 Y71.194 E.02412
G1 X136.895 Y71.305 E.02349
G1 X137.523 Y71.477 E.02348
G1 X138.165 Y71.722 E.02478
G1 X138.761 Y72.02 E.02403
G1 X139.327 Y72.375 E.02409
G1 X139.873 Y72.798 E.0249
G1 X140.362 Y73.262 E.02431
G1 X140.816 Y73.789 E.02508
G1 X141.415 Y74.654 E.03794
G1 X141.76 Y74.098 E.02359
G1 X142.17 Y73.564 E.02428
G1 X142.614 Y73.088 E.02347
G1 X143.131 Y72.633 E.02483
G1 X143.675 Y72.241 E.02418
G1 X144.268 Y71.898 E.0247
G1 X144.913 Y71.607 E.02551
G1 X146.089 Y71.267 E.04414
G1 X146.868 Y71.162 E.02834
G1 X147.586 Y71.143 E.0259
G1 X148.272 Y71.196 E.02481
G1 X148.895 Y71.305 E.02281
G1 X149.523 Y71.477 E.02348
G1 X150.181 Y71.729 E.02541
G1 X150.761 Y72.02 E.0234
G1 X151.311 Y72.364 E.02339
G1 X151.873 Y72.799 E.02563
G1 X152.362 Y73.263 E.02431
G1 X152.805 Y73.776 E.02444
G1 X153.263 Y74.437 E.029
G1 X153.803 Y75.534 E.04409
G1 X154.025 Y76.219 E.02596
G1 X154.16 Y76.832 E.02263
G1 X154.24 Y77.473 E.02329
G1 X154.261 Y78.138 E.02399
G1 X154.11 Y79.434 E.04705
