; generated by PrusaSlicer 2.6.0-alpha3+MacOS-x64 on 2023-02-19 at 16:39:32 UTC


;
;

;
;
; 

; external perimeters extrusion width = 0.45mm
; perimeters extrusion width = 0.45mm
; infill extrusion width = 0.45mm
; solid infill extrusion width = 0.45mm
; top infill extrusion width = 0.40mm
; support material extrusion width = 0.35mm
; first layer extrusion width = 0.42mm

M73 P0 R69
M201 X2500 Y2500 Z400 E5000 ; sets maximum accelerations, mm/sec^2
M203 X180 Y180 Z12 E80 ; sets maximum feedrates, mm / sec
M204 P1250 R1250 T2500 ; sets acceleration (P, T) and retract acceleration (R), mm/sec^2
M205 X8.00 Y8.00 Z2.00 E10.00 ; sets the jerk limits, mm/sec
M205 S0 T0 ; sets the minimum extruding and travel feed rate, mm/sec
M107
;TYPE:Custom
M862.3 P "MINI" ; printer model check
G90 ; use absolute coordinates
M83 ; extruder relative mode
M104 S170 ; set extruder temp for bed leveling
M140 S100 ; set bed temp
M109 R170 ; wait for bed leveling temp
M190 S100 ; wait for bed temp
M204 T1250 ; set travel acceleration
G28 ; home all without mesh bed level
G29 ; mesh bed leveling 
M204 T2500 ; restore travel acceleration
M104 S290 ; set extruder temp
G92 E0
G1 Y-2 X179 F2400
G1 Z3 F720
M109 S290 ; wait for extruder temp

; intro line
G1 X170 F1000
G1 Z0.2 F720
G1 X110 E8 F900
G1 X40 E10 F700
G92 E0

M221 S95 ; set flow
G21 ; set units to millimeters
G90 ; use absolute coordinates
M83 ; use relative distances for extrusion
M900 K0.2 ; Filament gcode
ENC O1 W0 S32 ; Set enclosure temperature
M107
;LAYER_CHANGE
;Z:0.2
;HEIGHT:0.2
;BEFORE_LAYER_CHANGE
G92 E0.0
;0.2


G1 E-3.2 F4200
G1 Z.2 F720
;AFTER_LAYER_CHANGE
;0.2
G1 Z.4
G1 X119.868 Y60.766 F9000
G1 Z.2 F720
G1 E3.2 F2400
M204 P800
;TYPE:Skirt/Brim
;WIDTH:0.42
G1 F1200
G1 X120.913 Y59.89 E.04147
G1 X121.853 Y59.696 E.02919
G1 X150.102 Y59.696 E.85916
G1 X151.409 Y60.088 E.0415
G1 X152.285 Y61.133 E.04147
G1 X152.479 Y62.073 E.02919
G1 X152.479 Y112.318 E1.52813
G1 X152.087 Y113.625 E.0415
G1 X151.042 Y114.501 E.04147
G1 X150.102 Y114.695 E.02919
G1 X121.853 Y114.695 E.85916
G1 X120.546 Y114.303 E.0415
G1 X119.67 Y113.257 E.0415
G1 X119.476 Y112.318 E.02916
G1 X119.476 Y62.073 E1.52813
G1 X119.85 Y60.824 E.03965
M204 P1000
; printing object nose.stl id:0 copy 0
M73 P0 R68
G1 E-2.24 F4200
;WIPE_START
G1 F7200
G1 X120.913 Y59.89 E-.78417
G1 X121.224 Y59.826 E-.17583
;WIPE_END
G1 Z.4 F720
G1 X130.021 Y69.695 F9000
G1 Z.2 F720
G1 E3.2 F2400
M204 P800
;TYPE:Support material
G1 F1200
G1 X128.999 Y71.465 E.06216
G1 X126.955 Y71.465 E.06217
G1 X125.934 Y69.695 E.06215
G1 X126.955 Y67.925 E.06215
G1 X128.999 Y67.925 E.06217
G1 X129.993 Y69.646 E.06045
M204 P1000
G1 X129.274 Y70.651 F9000
M204 P800
G1 F1200
G1 X129.274 Y69.079 E.04781
G1 X128.855 Y68.354 E.02547
G1 X128.855 Y71.037 E.0816
G1 X128.803 Y71.126 E.00313
G1 X128.436 Y71.126 E.01116
G1 X128.436 Y68.265 E.08701
G1 X128.017 Y68.265 E.01274
G1 X128.017 Y71.126 E.08701
G1 X127.598 Y71.126 E.01274
G1 X127.598 Y68.265 E.08701
G1 X127.179 Y68.265 E.01274
G1 X127.179 Y71.126 E.08701
G1 X127.151 Y71.126 E.00085
G1 X126.76 Y70.448 E.0238
G1 X126.76 Y68.943 E.04577
G1 X126.341 Y69.669 E.02549
G1 X126.341 Y70.062 E.01195
M204 P1000
G1 E-2.24 F4200
;WIPE_START
G1 F7200
G1 X126.341 Y69.669 E-.21779
G1 X126.76 Y68.943 E-.46452
G1 X126.76 Y69.444 E-.27769
;WIPE_END
G1 Z.4 F720
G1 X146.021 Y69.695 F9000
G1 Z.2 F720
G1 E3.2 F2400
M204 P800
G1 F1200
G1 X144.999 Y71.465 E.06216
G1 X142.955 Y71.465 E.06217
G1 X141.934 Y69.695 E.06215
G1 X142.955 Y67.925 E.06215
G1 X144.999 Y67.925 E.06217
G1 X145.993 Y69.646 E.06045
M204 P1000
G1 X145.614 Y70.062 F9000
M204 P800
G1 F1200
G1 X145.614 Y69.669 E.01195
G1 X145.195 Y68.943 E.02549
G1 X145.195 Y70.448 E.04577
G1 X144.803 Y71.126 E.02382
G1 X144.776 Y71.126 E.00082
G1 X144.776 Y68.265 E.08701
G1 X144.357 Y68.265 E.01274
G1 X144.357 Y71.126 E.08701
G1 X143.938 Y71.126 E.01274
G1 X143.938 Y68.265 E.08701
G1 X143.519 Y68.265 E.01274
G1 X143.519 Y71.126 E.08701
G1 X143.151 Y71.126 E.01119
G1 X143.1 Y71.037 E.00312
G1 X143.1 Y68.354 E.0816
G1 X142.681 Y69.079 E.02547
G1 X142.681 Y70.651 E.04781
M204 P1000
G1 E-2.24 F4200
;WIPE_START
G1 F7200
G1 X142.681 Y69.079 E-.87115
G1 X142.761 Y68.94 E-.08885
;WIPE_END
G1 Z.4 F720
G1 X146.021 Y104.695 F9000
G1 Z.2 F720
G1 E3.2 F2400
M204 P800
G1 F1200
G1 X144.999 Y106.465 E.06216
G1 X142.955 Y106.465 E.06217
G1 X141.934 Y104.695 E.06215
G1 X142.955 Y102.925 E.06215
G1 X144.999 Y102.925 E.06217
G1 X145.993 Y104.646 E.06045
M204 P1000
G1 X145.614 Y105.062 F9000
M204 P800
G1 F1200
G1 X145.614 Y104.669 E.01195
G1 X145.195 Y103.943 E.02549
G1 X145.195 Y105.448 E.04577
G1 X144.803 Y106.126 E.02382
G1 X144.776 Y106.126 E.00082
G1 X144.776 Y103.265 E.08701
G1 X144.357 Y103.265 E.01274
G1 X144.357 Y106.126 E.08701
G1 X143.938 Y106.126 E.01274
G1 X143.938 Y103.265 E.08701
G1 X143.519 Y103.265 E.01274
G1 X143.519 Y106.126 E.08701
G1 X143.151 Y106.126 E.01119
G1 X143.1 Y106.037 E.00312
G1 X143.1 Y103.354 E.0816
G1 X142.681 Y104.079 E.02547
G1 X142.681 Y105.651 E.04781
M204 P1000
G1 E-2.24 F4200
;WIPE_START
G1 F7200
G1 X142.681 Y104.079 E-.87115
G1 X142.761 Y103.94 E-.08885
;WIPE_END
G1 Z.4 F720
G1 X130.021 Y104.695 F9000
G1 Z.2 F720
G1 E3.2 F2400
M204 P800
G1 F1200
G1 X128.999 Y106.465 E.06216
G1 X126.955 Y106.465 E.06217
G1 X125.934 Y104.695 E.06215
G1 X126.955 Y102.925 E.06215
G1 X128.999 Y102.925 E.06217
G1 X129.993 Y104.646 E.06045
M204 P1000
G1 X129.274 Y105.651 F9000
M204 P800
G1 F1200
G1 X129.274 Y104.079 E.04781
G1 X128.855 Y103.354 E.02547
G1 X128.855 Y106.037 E.0816
G1 X128.803 Y106.126 E.00313
G1 X128.436 Y106.126 E.01116
G1 X128.436 Y103.265 E.08701
G1 X128.017 Y103.265 E.01274
G1 X128.017 Y106.126 E.08701
G1 X127.598 Y106.126 E.01274
G1 X127.598 Y103.265 E.08701
G1 X127.179 Y103.265 E.01274
G1 X127.179 Y106.126 E.08701
G1 X127.151 Y106.126 E.00085
G1 X126.76 Y105.448 E.0238
G1 X126.76 Y103.943 E.04577
G1 X126.341 Y104.669 E.02549
G1 X126.341 Y105.062 E.01195
M204 P1000
G1 E-2.24 F4200
;WIPE_START
G1 F7200
G1 X126.341 Y104.669 E-.21779
G1 X126.76 Y103.943 E-.46452
G1 X126.76 Y104.444 E-.27769
;WIPE_END
G1 Z.4 F720
G1 X139.841 Y104.443 F9000
G1 Z.2 F720
G1 E3.2 F2400
M204 P800
;TYPE:Perimeter
;WIDTH:0.419999
G1 F1200
G1 X139.806 Y104.765 E.00985
G1 X139.851 Y105.044 E.0086
G1 X139.981 Y105.355 E.01025
G1 X141.09 Y107.276 E.06746
G1 X130.865 Y107.276 E.31098
G1 X131.974 Y105.355 E.06746
G1 X132.104 Y105.044 E.01025
G1 X132.149 Y104.765 E.0086
G1 X132.102 Y104.339 E.01303
G1 X131.974 Y104.035 E.01003
G1 X130.547 Y101.564 E.08678
G1 X130.269 Y101.227 E.01329
;WIDTH:0.45905
G1 X130.125 Y101.134 E.00575
;WIDTH:0.4981
G1 X129.981 Y101.041 E.00629
;WIDTH:0.537151
G1 X129.838 Y100.949 E.00678
;WIDTH:0.576201
G1 X129.694 Y100.856 E.00737
;WIDTH:0.5777
G1 X129.212 Y100.825 E.02083
G1 X129.024 Y100.845 E.00815
;WIDTH:0.538275
G1 X128.836 Y100.865 E.00755
;WIDTH:0.49885
G1 X128.648 Y100.884 E.00695
;WIDTH:0.459425
G1 X128.46 Y100.904 E.00635
;WIDTH:0.419999
G1 X126.713 Y100.904 E.05313
G1 X126.198 Y100.952 E.01573
G1 X125.773 Y101.157 E.01435
G1 X125.408 Y101.564 E.01663
G1 X123.981 Y104.035 E.08678
;WIDTH:0.447793
G1 X123.81 Y104.465 E.01511
G1 X123.81 Y104.926 E.01505
G1 X123.981 Y105.355 E.01508
;WIDTH:0.419999
G1 X125.408 Y107.827 E.08681
G1 X125.732 Y108.202 E.01507
G1 X125.905 Y108.318 E.00633
G1 X126.258 Y108.454 E.01151
G1 X126.703 Y108.487 E.01357
G1 X126.484 Y108.915 E.01462
G1 X126.376 Y109.277 E.01149
G1 X126.312 Y109.811 E.01636
G1 X126.312 Y110.776 E.02935
G1 X123.394 Y110.776 E.08875
G1 X123.394 Y105.512 E.1601
;WIDTH:0.447793
G1 X123.408 Y104.961 E.018
G1 X123.394 Y103.878 E.03537
;WIDTH:0.419999
G1 X123.394 Y95.502 E.25474
G1 X123.627 Y96.098 E.01946
G1 X124.052 Y96.86 E.02654
G1 X124.358 Y97.301 E.01632
G1 X124.979 Y98.026 E.02903
G1 X125.83 Y98.779 E.03456
G1 X126.406 Y99.178 E.02131
G1 X127.212 Y99.611 E.02783
G1 X128.024 Y99.929 E.02652
G1 X128.54 Y100.075 E.01631
;WIDTH:0.459425
G1 X128.721 Y100.13 E.00635
;WIDTH:0.49885
G1 X128.901 Y100.185 E.00692
;WIDTH:0.538275
G1 X129.082 Y100.24 E.00756
;WIDTH:0.5777
G1 X129.263 Y100.295 E.00816
G1 X129.759 Y100.329 E.02144
;WIDTH:0.576201
G1 X129.979 Y100.317 E.00948
;WIDTH:0.537151
G1 X130.199 Y100.305 E.00878
;WIDTH:0.4981
G1 X130.42 Y100.294 E.00812
;WIDTH:0.45905
G1 X130.64 Y100.282 E.00739
;WIDTH:0.419999
G1 X131.214 Y100.228 E.01753
G1 X131.792 Y100.142 E.01777
G1 X132.886 Y99.832 E.03458
G1 X133.532 Y99.562 E.02129
G1 X134.364 Y99.093 E.02905
G1 X135.166 Y98.482 E.03066
G1 X135.605 Y98.074 E.01823
G1 X135.986 Y97.671 E.01687
G1 X136.508 Y98.231 E.02328
G1 X136.993 Y98.666 E.01981
G1 X137.706 Y99.171 E.02657
G1 X138.171 Y99.436 E.01628
G1 X139.007 Y99.812 E.02788
G1 X139.902 Y100.087 E.02848
G1 X140.845 Y100.247 E.02909
;WIDTH:0.464516
G1 X141.423 Y100.285 E.0197
;WIDTH:0.509032
G1 X142.002 Y100.324 E.02182
;WIDTH:0.536174
G1 X142.132 Y100.329 E.00518
;WIDTH:0.563315
G1 X142.262 Y100.334 E.00546
;WIDTH:0.597465
G1 X142.802 Y100.264 E.02435
G1 X142.897 Y100.227 E.00456
;WIDTH:0.553099
G1 X142.992 Y100.189 E.00421
;WIDTH:0.508732
G1 X143.087 Y100.151 E.00384
;WIDTH:0.464366
G1 X143.181 Y100.113 E.00345
;WIDTH:0.419999
G1 X143.613 Y100.02 E.01344
G1 X144.703 Y99.626 E.03525
G1 X145.033 Y99.462 E.01121
G1 X145.72 Y99.066 E.02412
G1 X146.742 Y98.262 E.03955
G1 X147.118 Y97.879 E.01632
G1 X147.716 Y97.132 E.0291
G1 X148.307 Y96.136 E.03522
G1 X148.561 Y95.541 E.01968
G1 X148.561 Y103.878 E.25356
;WIDTH:0.447791
G1 X148.547 Y104.43 E.01803
G1 X148.561 Y105.512 E.03534
;WIDTH:0.419999
G1 X148.561 Y110.776 E.1601
G1 X145.643 Y110.776 E.08875
G1 X145.643 Y109.811 E.02935
G1 X145.578 Y109.276 E.01639
G1 X145.47 Y108.914 E.01149
G1 X145.252 Y108.487 E.01458
G1 X145.404 Y108.487 E.00462
G1 X145.905 Y108.388 E.01553
G1 X146.184 Y108.232 E.00972
G1 X146.547 Y107.827 E.01654
G1 X147.974 Y105.355 E.08681
;WIDTH:0.447791
G1 X148.145 Y104.926 E.01508
G1 X148.145 Y104.465 E.01505
G1 X147.974 Y104.035 E.01511
;WIDTH:0.419999
G1 X146.547 Y101.564 E.08678
G1 X146.176 Y101.154 E.01682
G1 X145.858 Y100.985 E.01095
G1 X145.404 Y100.904 E.01403
G1 X143.245 Y100.904 E.06566
;WIDTH:0.464366
G1 X143.145 Y100.882 E.00348
;WIDTH:0.508732
G1 X143.045 Y100.86 E.00385
;WIDTH:0.553099
G1 X142.946 Y100.838 E.00417
;WIDTH:0.597465
G1 X142.846 Y100.815 E.00459
G1 X142.342 Y100.848 E.02259
;WIDTH:0.563315
G1 X142.22 Y100.893 E.00546
;WIDTH:0.536174
G1 X142.097 Y100.937 E.0052
;WIDTH:0.509032
G1 X141.781 Y101.205 E.01558
;WIDTH:0.464516
G1 X141.465 Y101.473 E.01409
;WIDTH:0.419999
G1 X139.981 Y104.035 E.09005
G1 X139.848 Y104.383 E.01133
M204 P1000
G1 E-2.24 F4200
;WIPE_START
G1 F7200
G1 X139.806 Y104.765 E-.21297
G1 X139.851 Y105.044 E-.15661
G1 X139.981 Y105.355 E-.1868
G1 X140.345 Y105.986 E-.40362
;WIPE_END
G1 Z.4 F720
G1 X135.977 Y90.487 F9000
G1 Z.2 F720
M73 P1 R68
G1 E3.2 F2400
M204 P800
;TYPE:External perimeter
;WIDTH:0.5
G1 F1200
G1 X135.977 Y95.217 E.17438
;WIDTH:0.501744
G1 X135.977 Y95.237 E.00074
M204 P1000
G1 E-2.24 F4200
;WIPE_START
G1 F7200
G1 X135.977 Y95.217 E-.01108
G1 X135.977 Y93.505 E-.94892
;WIPE_END
G1 Z.4 F720
G1 X136.807 Y87.195 F9000
G1 Z.2 F720
G1 E3.2 F2400
M204 P800
;TYPE:Perimeter
;WIDTH:0.419999
G1 F1200
G1 X136.364 Y87.609 E.01844
G1 X135.985 Y88.029 E.01721
G1 X135.564 Y87.583 E.01865
G1 X135.13 Y87.195 E.01771
G1 X135.638 Y86.728 E.02099
G1 X135.985 Y86.362 E.01534
G1 X136.284 Y86.707 E.01388
G1 X136.763 Y87.154 E.01993
M204 P1000
G1 X137.424 Y87.195 F9000
M204 P800
G1 F1200
G1 X137.079 Y87.457 E.01318
G1 X136.452 Y88.056 E.02637
G1 X135.978 Y88.643 E.02295
G1 X135.522 Y88.09 E.0218
G1 X135.107 Y87.66 E.01818
G1 X134.528 Y87.195 E.02259
G1 X135.107 Y86.731 E.02257
G1 X135.522 Y86.301 E.01818
G1 X135.978 Y85.748 E.0218
G1 X136.542 Y86.431 E.02694
G1 X137.079 Y86.934 E.02238
G1 X137.376 Y87.159 E.01133
M204 P1000
G1 X138.207 Y87.196 F9000
M204 P800
G1 F1200
G1 X137.761 Y87.423 E.01522
G1 X137.337 Y87.732 E.01596
G1 X136.879 Y88.16 E.01906
G1 X136.574 Y88.505 E.01401
G1 X136.211 Y88.969 E.01792
G1 X135.978 Y89.43 E.01571
G1 X135.678 Y88.871 E.01929
G1 X135.247 Y88.348 E.02061
G1 X134.871 Y87.954 E.01656
G1 X134.194 Y87.423 E.02617
G1 X133.747 Y87.195 E.01526
G1 X134.28 Y86.911 E.01837
G1 X134.929 Y86.382 E.02546
G1 X135.433 Y85.844 E.02242
G1 X135.744 Y85.422 E.01594
G1 X135.977 Y84.961 E.01571
G1 X136.268 Y85.507 E.01882
G1 X136.799 Y86.156 E.0255
G1 X137.337 Y86.658 E.02238
G1 X137.761 Y86.968 E.01597
G1 X138.154 Y87.169 E.01343
M204 P1000
G1 X139.25 Y87.195 F9000
M204 P800
;TYPE:External perimeter
;WIDTH:0.501744
G1 F1200
G1 X139.189 Y87.217 E.0024
;WIDTH:0.487536
G1 X138.938 Y87.334 E.00993
;WIDTH:0.453768
G1 X138.686 Y87.45 E.00919
;WIDTH:0.419999
G1 X138.314 Y87.558 E.01178
G1 X137.94 Y87.754 E.01284
G1 X137.594 Y88.008 E.01305
G1 X137.039 Y88.53 E.02317
G1 X136.561 Y89.121 E.02312
G1 X136.346 Y89.517 E.0137
;WIDTH:0.433809
G1 X136.122 Y90.199 E.02263
;WIDTH:0.466905
G1 X136.05 Y90.343 E.00551
;WIDTH:0.5
G1 X135.977 Y90.487 E.00595
G1 X135.917 Y90.345 E.00568
;WIDTH:0.466905
G1 X135.856 Y90.203 E.00529
;WIDTH:0.433809
G1 X135.613 Y89.528 E.02262
;WIDTH:0.419999
G1 X135.412 Y89.149 E.01305
G1 X135.158 Y88.804 E.01303
G1 X134.634 Y88.248 E.02324
G1 X134.043 Y87.773 E.02306
G1 X133.679 Y87.573 E.01263
G1 X133.278 Y87.431 E.01294
;WIDTH:0.459999
G1 X132.981 Y87.313 E.01075
;WIDTH:0.499998
G1 X132.685 Y87.195 E.01175
G1 X132.765 Y87.171 E.00308
;WIDTH:0.482095
G1 X133.017 Y87.056 E.00981
;WIDTH:0.451047
G1 X133.269 Y86.94 E.00913
;WIDTH:0.419999
G1 X133.641 Y86.833 E.01177
G1 X134.043 Y86.617 E.01388
G1 X134.634 Y86.143 E.02304
G1 X134.972 Y85.785 E.01497
G1 X135.375 Y85.295 E.0193
G1 X135.609 Y84.874 E.01465
;WIDTH:0.438191
G1 X135.835 Y84.192 E.02291
;WIDTH:0.469968
G1 X135.906 Y84.058 E.00522
;WIDTH:0.501744
G1 X135.977 Y83.923 E.00564
G1 X136.037 Y84.056 E.0054
;WIDTH:0.469968
G1 X136.096 Y84.188 E.00498
;WIDTH:0.438191
G1 X136.342 Y84.863 E.0229
;WIDTH:0.419999
G1 X136.561 Y85.27 E.01406
G1 X137.057 Y85.88 E.02391
G1 X137.594 Y86.383 E.02238
G1 X137.918 Y86.622 E.01224
G1 X138.276 Y86.818 E.01241
G1 X138.677 Y86.96 E.01294
;WIDTH:0.460872
G1 X138.963 Y87.078 E.01043
;WIDTH:0.501744
G1 X139.195 Y87.173 E.00928
M204 P1000
G1 E-2.24 F4200
;WIPE_START
G1 F7200
G1 X139.189 Y87.217 E-.02461
G1 X138.938 Y87.334 E-.15347
G1 X138.686 Y87.45 E-.15374
G1 X138.314 Y87.558 E-.21466
G1 X137.94 Y87.754 E-.23399
G1 X137.679 Y87.946 E-.17953
;WIPE_END
G1 Z.4 F720
G1 X135.977 Y83.923 F9000
G1 Z.2 F720
G1 E3.2 F2400
M204 P800
G1 F1200
G1 X135.977 Y83.903 E.00074
;WIDTH:0.5
G1 X135.977 Y79.174 E.17434
M204 P1000
G1 E-2.24 F4200
;WIPE_START
G1 F7200
G1 X135.977 Y80.906 E-.96
;WIPE_END
G1 Z.4 F720
G1 X143.999 Y87.195 F9000
G1 Z.2 F720
G1 E3.2 F2400
M204 P800
G1 F1200
G1 X139.27 Y87.195 E.17434
;WIDTH:0.501744
G1 X139.25 Y87.195 E.00074
M204 P1000
G1 E-2.24 F4200
;WIPE_START
G1 F7200
G1 X139.27 Y87.195 E-.01108
G1 X140.982 Y87.195 E-.94892
;WIPE_END
G1 Z.4 F720
G1 X146.453 Y87.187 F9000
G1 Z.2 F720
G1 E3.2 F2400
M204 P800
;TYPE:Perimeter
;WIDTH:0.419999
G1 F1200
G1 X146.691 Y86.993 E.00934
G1 X147.455 Y86.171 E.03413
G1 X147.98 Y85.42 E.02787
G1 X148.349 Y84.741 E.0235
G1 X148.561 Y84.227 E.01691
G1 X148.561 Y90.143 E.17993
G1 X148 Y89.008 E.03851
G1 X147.869 Y88.798 E.00753
G1 X147.177 Y87.895 E.0346
G1 X146.497 Y87.228 E.02897
M204 P1000
G1 E-2.24 F4200
;WIPE_START
G1 F7200
G1 X146.691 Y86.993 E-.16887
G1 X147.455 Y86.171 E-.6219
G1 X147.63 Y85.921 E-.16923
;WIPE_END
G1 Z.4 F720
G1 X127.936 Y87.195 F9000
G1 Z.2 F720
G1 E3.2 F2400
M204 P800
;TYPE:External perimeter
;WIDTH:0.501744
G1 F1200
G1 X127.956 Y87.195 E.00074
;WIDTH:0.499998
G1 X132.685 Y87.195 E.17434
M204 P1000
G1 E-2.24 F4200
;WIPE_START
G1 F7200
G1 X130.953 Y87.195 E-.96
;WIPE_END
G1 Z.4 F720
G1 X125.501 Y87.203 F9000
G1 Z.2 F720
G1 E3.2 F2400
M204 P800
;TYPE:Perimeter
;WIDTH:0.419999
G1 F1200
G1 X125.261 Y87.4 E.00944
G1 X124.5 Y88.22 E.03402
G1 X123.975 Y88.97 E.02784
G1 X123.616 Y89.629 E.02282
G1 X123.398 Y90.114 E.01617
G1 X123.394 Y84.247 E.17844
G1 X123.943 Y85.362 E.0378
G1 X124.328 Y85.947 E.0213
G1 X124.803 Y86.529 E.02285
