; generated by PrusaSlicer 2.6.0-alpha3+MacOS-x64 on 2023-02-19 at 22:09:00 UTC


;
;

;
;
; 

; external perimeters extrusion width = 0.45mm
; perimeters extrusion width = 0.45mm
; infill extrusion width = 0.45mm
; solid infill extrusion width = 0.45mm
; top infill extrusion width = 0.40mm
; first layer extrusion width = 0.42mm

M73 P0 R39
M201 X2500 Y2500 Z400 E5000 ; sets maximum accelerations, mm/sec^2
M203 X180 Y180 Z12 E80 ; sets maximum feedrates, mm / sec
M204 P1250 R1250 T2500 ; sets acceleration (P, T) and retract acceleration (R), mm/sec^2
M205 X8.00 Y8.00 Z2.00 E10.00 ; sets the jerk limits, mm/sec
M205 S0 T0 ; sets the minimum extruding and travel feed rate, mm/sec
M107
;TYPE:Custom
M862.3 P "MINI" ; printer model check
G90 ; use absolute coordinates
M83 ; extruder relative mode
M104 S170 ; set extruder temp for bed leveling
M140 S100 ; set bed temp
M109 R170 ; wait for bed leveling temp
M190 S100 ; wait for bed temp
M204 T1250 ; set travel acceleration
G28 ; home all without mesh bed level
G29 ; mesh bed leveling 
M204 T2500 ; restore travel acceleration
M104 S290 ; set extruder temp
G92 E0
G1 Y-2 X179 F2400
G1 Z3 F720
M109 S290 ; wait for extruder temp

; intro line
G1 X170 F1000
G1 Z0.2 F720
G1 X110 E8 F900
G1 X40 E10 F700
G92 E0

M221 S95 ; set flow
G21 ; set units to millimeters
G90 ; use absolute coordinates
M83 ; use relative distances for extrusion
M900 K0.2 ; Filament gcode
ENC O1 W0 S32 ; Set enclosure temperature
M107
;LAYER_CHANGE
;Z:0.2
;HEIGHT:0.2
;BEFORE_LAYER_CHANGE
G92 E0.0
;0.2


G1 E-3.2 F4200
G1 Z.2 F720
;AFTER_LAYER_CHANGE
;0.2
G1 Z.4
G1 X121.361 Y73.356 F9000
G1 Z.2 F720
G1 E3.2 F2400
M204 P800
;TYPE:Skirt/Brim
;WIDTH:0.42
G1 F1200
G1 X121.95 Y72.528 E.0309
G1 X122.843 Y71.653 E.03802
G1 X123.764 Y71.036 E.03372
G1 X124.677 Y70.624 E.03046
G1 X125.749 Y70.34 E.03373
G1 X127.011 Y70.249 E.03848
G1 X128.419 Y70.446 E.04324
G1 X129.844 Y71 E.0465
G1 X152.095 Y83.843 E.78137
G1 X152.889 Y84.402 E.02953
G1 X153.681 Y85.178 E.03372
G1 X154.27 Y85.988 E.03046
G1 X154.664 Y86.735 E.02569
G1 X155.06 Y87.936 E.03846
G1 X155.212 Y89.176 E.038
G1 X155.52 Y135.237 E1.40092
G1 X155.482 Y136.08 E.02566
M73 P0 R38
G1 X155.332 Y136.911 E.02568
G1 X154.787 Y138.34 E.04651
G1 X153.989 Y139.516 E.04322
G1 X153.398 Y140.12 E.0257
G1 X152.734 Y140.64 E.02565
G1 X130.152 Y153.694 E.7933
G1 X128.727 Y154.248 E.0465
G1 X127.897 Y154.403 E.02568
G1 X127.054 Y154.447 E.02567
G1 X125.797 Y154.303 E.03848
G1 X124.837 Y154.015 E.03048
G1 X123.843 Y153.526 E.03369
G1 X122.831 Y152.766 E.03849
G1 X122.149 Y152.033 E.03045
G1 X121.465 Y150.969 E.03847
G1 X121.049 Y149.941 E.03373
G1 X120.832 Y148.964 E.03044
G1 X120.769 Y148.168 E.02428
G1 X120.461 Y102.108 E1.40088
G1 X120.461 Y76.542 E.77756
M73 P1 R38
G1 X120.597 Y75.315 E.03755
G1 X120.878 Y74.354 E.03045
G1 X121.335 Y73.41 E.0319
M204 P1000
; printing object Body2.stl id:0 copy 0
G1 E-2.24 F4200
;WIPE_START
G1 F7200
G1 X121.95 Y72.528 E-.59586
G1 X122.419 Y72.068 E-.36414
;WIPE_END
G1 Z.4 F720
G1 X129.915 Y79.592 F9000
G1 Z.2 F720
G1 E3.2 F2400
M204 P800
;TYPE:Perimeter
;WIDTH:0.419999
G1 F1200
G1 X133.458 Y81.65 E.12461
G1 X133.278 Y81.787 E.00688
G1 X132.896 Y82.256 E.0184
G1 X132.66 Y82.7 E.01529
G1 X132.526 Y83.097 E.01274
G1 X132.438 Y83.797 E.02146
G1 X132.438 Y94.851 E.33619
G1 X132.48 Y95.338 E.01487
G1 X132.659 Y95.948 E.01933
G1 X132.895 Y96.393 E.01532
G1 X133.277 Y96.862 E.0184
G1 X133.458 Y97 E.00692
G1 X129.913 Y99.058 E.12467
G1 X129.694 Y98.836 E.00948
G1 X129.038 Y98.34 E.02501
G1 X128.748 Y98.182 E.01004
G1 X127.869 Y97.874 E.02833
G1 X127.886 Y81.936 E.48473
G1 X127.868 Y80.777 E.03525
G1 X128.178 Y80.703 E.00969
G1 X129.061 Y80.296 E.02957
G1 X129.725 Y79.788 E.02543
G1 X129.873 Y79.635 E.00647
M204 P1000
G1 X129.867 Y79.098 F9000
M204 P800
G1 F1200
G1 X130.198 Y79.329 E.01228
G1 X134.149 Y81.613 E.1388
G1 X134.04 Y81.676 E.00383
G1 X133.543 Y82.055 E.01901
G1 X133.212 Y82.462 E.01596
G1 X133.007 Y82.847 E.01327
G1 X132.891 Y83.191 E.01104
G1 X132.815 Y83.797 E.01858
G1 X132.815 Y94.851 E.33619
G1 X132.851 Y95.273 E.01288
G1 X133.007 Y95.802 E.01677
G1 X133.211 Y96.187 E.01325
G1 X133.542 Y96.594 E.01596
G1 X134.149 Y97.036 E.02284
G1 X130.36 Y99.227 E.13312
G1 X129.867 Y99.552 E.01796
G1 X129.426 Y99.1 E.01921
G1 X128.857 Y98.671 E.02167
G1 X128.567 Y98.512 E.01006
G1 X127.906 Y98.266 E.02145
G1 X127.462 Y98.176 E.01378
G1 X127.5 Y97.763 E.01261
G1 X127.51 Y81.091 E.50706
G1 X127.448 Y80.48 E.01868
G1 X128.073 Y80.341 E.01947
G1 X128.879 Y79.966 E.02704
G1 X129.454 Y79.526 E.02202
G1 X129.825 Y79.141 E.01626
M204 P1000
G1 X129.806 Y78.551 F9000
M204 P800
G1 F1200
G1 X130.387 Y79.003 E.02239
G1 X134.993 Y81.666 E.16181
G1 X134.45 Y81.875 E.0177
G1 X134.229 Y82.003 E.00777
G1 X133.808 Y82.324 E.0161
G1 X133.528 Y82.667 E.01347
G1 X133.355 Y82.993 E.01122
G1 X133.257 Y83.284 E.00934
G1 X133.192 Y83.798 E.01576
G1 X133.192 Y94.851 E.33616
G1 X133.208 Y95.111 E.00792
G1 X133.354 Y95.656 E.01716
G1 X133.527 Y95.982 E.01122
G1 X133.808 Y96.326 E.01351
G1 X134.45 Y96.775 E.02383
G1 X134.993 Y96.984 E.0177
G1 X130.387 Y99.647 E.16181
G1 X129.806 Y100.099 E.02239
G1 X129.535 Y99.748 E.01349
G1 X129.157 Y99.365 E.01637
G1 X128.676 Y99.002 E.01833
G1 X128.386 Y98.843 E.01006
G1 X127.802 Y98.63 E.01891
G1 X127.022 Y98.492 E.02409
G1 X127.123 Y97.763 E.02238
G1 X127.132 Y81.935 E.48139
G1 X127.112 Y80.798 E.03459
G1 X127.02 Y80.162 E.01954
G1 X127.309 Y80.124 E.00887
G1 X127.968 Y79.979 E.02052
G1 X128.697 Y79.635 E.02452
G1 X129.184 Y79.263 E.01864
G1 X129.547 Y78.889 E.01585
G1 X129.77 Y78.598 E.01115
M204 P1000
G1 X129.709 Y77.902 F9000
M204 P800
G1 F1200
G1 X130.004 Y78.223 E.01326
G1 X130.575 Y78.676 E.02217
G1 X135.233 Y81.369 E.16364
;WIDTH:0.43034
G1 X135.825 Y81.717 E.02146
;WIDTH:0.476739
G1 X135.895 Y81.784 E.00339
;WIDTH:0.523138
G1 X135.964 Y81.851 E.00373
;WIDTH:0.569537
G1 X136.034 Y81.918 E.00412
;WIDTH:0.615936
G1 X136.103 Y81.985 E.00445
G1 X136.01 Y81.986 E.0043
;WIDTH:0.569537
G1 X135.917 Y81.986 E.00395
;WIDTH:0.523138
G1 X135.824 Y81.986 E.0036
;WIDTH:0.476739
G1 X135.731 Y81.986 E.00325
;WIDTH:0.43034
G1 X135.132 Y82.012 E.01873
;WIDTH:0.419999
G1 X134.639 Y82.201 E.01606
G1 X134.073 Y82.592 E.02092
G1 X133.844 Y82.873 E.01102
G1 X133.622 Y83.378 E.01678
G1 X133.569 Y83.798 E.01288
G1 X133.569 Y94.851 E.33616
G1 X133.622 Y95.271 E.01288
G1 X133.843 Y95.776 E.01677
G1 X134.073 Y96.058 E.01107
G1 X134.639 Y96.448 E.0209
G1 X135.132 Y96.638 E.01607
G1 X135.731 Y96.658 E.01823
;WIDTH:0.462235
G1 X135.893 Y96.624 E.0056
;WIDTH:0.50447
G1 X136.055 Y96.59 E.00616
;WIDTH:0.546705
G1 X136.217 Y96.555 E.00673
;WIDTH:0.58894
G1 X136.379 Y96.521 E.00729
G1 X136.241 Y96.625 E.00761
;WIDTH:0.546705
G1 X136.103 Y96.729 E.00702
;WIDTH:0.50447
G1 X135.965 Y96.833 E.00643
;WIDTH:0.462235
G1 X135.828 Y96.937 E.00582
;WIDTH:0.419999
G1 X130.738 Y99.879 E.1788
G1 X130.396 Y100.093 E.01227
G1 X130.003 Y100.427 E.01569
G1 X129.723 Y100.731 E.01257
G1 X129.335 Y100.087 E.02287
G1 X129.021 Y99.764 E.0137
G1 X128.495 Y99.333 E.02068
G1 X128.205 Y99.174 E.01006
G1 X127.727 Y98.999 E.01548
G1 X126.938 Y98.861 E.02436
G1 X126.536 Y98.882 E.01224
G1 X126.64 Y98.484 E.01251
G1 X126.746 Y97.763 E.02216
G1 X126.755 Y81.935 E.48139
G1 X126.739 Y80.851 E.03297
G1 X126.652 Y80.242 E.01871
G1 X126.506 Y79.754 E.01549
G1 X126.84 Y79.791 E.01022
G1 X127.231 Y79.755 E.01194
G1 X127.863 Y79.617 E.01967
G1 X128.514 Y79.305 E.02196
G1 X128.913 Y79.001 E.01526
G1 X129.276 Y78.626 E.01587
G1 X129.522 Y78.303 E.01235
G1 X129.684 Y77.956 E.01165
M204 P1000
G1 E-2.24 F4200
;WIPE_START
G1 F7200
G1 X130.004 Y78.223 E-.23095
G1 X130.575 Y78.676 E-.40391
G1 X131.083 Y78.97 E-.32514
;WIPE_END
G1 Z.4 F720
G1 X145.214 Y88.934 F9000
G1 Z.2 F720
G1 E3.2 F2400
M204 P800
;WIDTH:0.627649
G1 F1200
G1 X145.17 Y88.726 E.01003
;WIDTH:0.597839
G1 X145.127 Y88.519 E.00946
;WIDTH:0.568029
G1 X144.984 Y87.99 E.02321
G1 X144.766 Y87.426 E.02561
G1 X145.583 Y87.756 E.03732
G1 X145.332 Y88.443 E.03098
;WIDTH:0.597839
G1 X145.273 Y88.689 E.01132
;WIDTH:0.627649
G1 X145.228 Y88.875 E.00903
M204 P1000
G1 E-2.24 F4200
;WIPE_START
G1 F7200
G1 X145.17 Y88.726 E-.08861
G1 X145.127 Y88.519 E-.11716
G1 X144.984 Y87.99 E-.30368
G1 X144.766 Y87.426 E-.33509
G1 X144.959 Y87.504 E-.11546
;WIPE_END
G1 Z.4 F720
G1 X144.748 Y91.259 F9000
G1 Z.2 F720
G1 E3.2 F2400
M204 P800
;WIDTH:0.568841
G1 F1200
G1 X145.067 Y90.416 E.03823
;WIDTH:0.614316
G1 X145.204 Y89.59 E.03859
G1 X145.276 Y89.918 E.01548
;WIDTH:0.575398
G1 X145.402 Y90.423 E.02235
;WIDTH:0.568841
G1 X145.58 Y90.895 E.0214
G1 X144.803 Y91.234 E.03596
M204 P1000
G1 E-2.24 F4200
;WIPE_START
G1 F7200
G1 X145.067 Y90.416 E-.47633
G1 X145.204 Y89.59 E-.464
G1 X145.212 Y89.625 E-.01967
;WIPE_END
G1 Z.4 F720
G1 X143.273 Y92.517 F9000
G1 Z.2 F720
G1 E3.2 F2400
M204 P800
;WIDTH:0.620614
G1 F1200
G1 X143.326 Y92.439 E.00439
;WIDTH:0.57425
G1 X143.421 Y92.325 E.00636
;WIDTH:0.535688
G1 X143.516 Y92.21 E.00593
;WIDTH:0.497125
G1 X143.611 Y92.095 E.00546
;WIDTH:0.458562
G1 X143.706 Y91.981 E.00497
;WIDTH:0.419999
G1 X144.193 Y91.339 E.02451
G1 X144.375 Y90.988 E.01202
G1 X144.59 Y90.42 E.01847
G1 X144.701 Y89.885 E.01662
G1 X144.753 Y89.273 E.01868
G1 X144.669 Y88.511 E.02332
G1 X144.458 Y87.879 E.02026
G1 X144.193 Y87.31 E.01909
G1 X143.706 Y86.669 E.02448
;WIDTH:0.4638
G1 X143.635 Y86.573 E.00405
;WIDTH:0.5076
G1 X143.563 Y86.476 E.00453
;WIDTH:0.5514
G1 X143.491 Y86.38 E.00492
;WIDTH:0.5952
G1 X143.42 Y86.283 E.00535
;WIDTH:0.639
G1 X143.348 Y86.187 E.00577
G1 X143.461 Y86.227 E.00576
;WIDTH:0.5952
G1 X143.575 Y86.267 E.00538
;WIDTH:0.5514
G1 X143.688 Y86.307 E.00492
;WIDTH:0.5076
G1 X143.801 Y86.347 E.00449
;WIDTH:0.4638
G1 X143.914 Y86.388 E.00408
;WIDTH:0.419999
G1 X145.225 Y87.126 E.04576
G1 X145.796 Y87.355 E.01871
G1 X146.293 Y87.473 E.01554
G1 X146.069 Y87.811 E.01233
G1 X145.897 Y88.148 E.01151
G1 X145.745 Y88.642 E.01572
G1 X145.674 Y89.312 E.02049
G1 X145.718 Y89.811 E.01524
G1 X145.841 Y90.317 E.01584
G1 X145.999 Y90.728 E.01339
G1 X146.292 Y91.177 E.01631
G1 X145.947 Y91.242 E.01068
G1 X145.009 Y91.629 E.03086
G1 X143.914 Y92.262 E.03847
;WIDTH:0.460122
G1 X143.786 Y92.313 E.00464
;WIDTH:0.500245
G1 X143.658 Y92.364 E.00508
;WIDTH:0.540368
G1 X143.53 Y92.415 E.00553
;WIDTH:0.580491
G1 X143.401 Y92.466 E.00601
;WIDTH:0.620614
G1 X143.329 Y92.495 E.00362
M204 P1000
G1 E-2.24 F4200
;WIPE_START
G1 F7200
G1 X143.326 Y92.439 E-.03108
G1 X143.421 Y92.325 E-.08224
G1 X143.516 Y92.21 E-.08266
G1 X143.611 Y92.095 E-.08266
G1 X143.706 Y91.981 E-.08224
G1 X144.193 Y91.339 E-.44655
G1 X144.32 Y91.095 E-.15257
;WIPE_END
G1 Z.4 F720
G1 X145.204 Y89.59 F9000
G1 Z.2 F720
G1 E3.2 F2400
M204 P800
;WIDTH:0.62792
G1 F1200
G1 X145.214 Y88.935 E.03091
M204 P1000
G1 E-2.24 F4200
;WIPE_START
G1 F7200
G1 X145.204 Y89.59 E-.36302
;WIPE_END
G1 E-.59698 F4200
G1 Z.4 F720
G1 X135.319 Y96.273 F9000
G1 Z.2 F720
G1 E3.2 F2400
M204 P800
;WIDTH:0.419999
G1 F1200
G1 X135.211 Y96.269 E.00329
G1 X134.606 Y95.994 E.02021
G1 X134.338 Y95.789 E.01026
G1 X134.159 Y95.571 E.00858
G1 X133.987 Y95.178 E.01305
G1 X133.946 Y94.851 E.01002
G1 X133.946 Y83.799 E.33613
G1 X133.987 Y83.471 E.01005
G1 X134.16 Y83.079 E.01303
G1 X134.338 Y82.86 E.00858
G1 X134.827 Y82.528 E.01798
G1 X135.211 Y82.38 E.01252
G1 X135.677 Y82.365 E.01418
G1 X136.148 Y82.529 E.01517
G1 X142.78 Y86.368 E.23306
G1 X143.45 Y86.945 E.02689
G1 X143.881 Y87.522 E.0219
G1 X144.106 Y88.014 E.01645
G1 X144.298 Y88.578 E.01812
G1 X144.376 Y89.264 E.021
G1 X144.325 Y89.851 E.01792
G1 X144.237 Y90.287 E.01353
G1 X144.022 Y90.855 E.01847
G1 X143.644 Y91.478 E.02216
G1 X143.017 Y92.107 E.02701
G1 X142.78 Y92.282 E.00896
G1 X136.148 Y96.121 E.23306
G1 X135.677 Y96.285 E.01517
G1 X135.379 Y96.275 E.00907
M204 P1000
G1 X135.362 Y95.903 F9000
M204 P800
G1 F1200
G1 X135.29 Y95.901 E.00219
G1 X134.794 Y95.667 E.01668
G1 X134.603 Y95.521 E.00731
G1 X134.397 Y95.217 E.01117
G1 X134.323 Y94.851 E.01136
G1 X134.323 Y83.799 E.33613
G1 X134.397 Y83.433 E.01136
G1 X134.603 Y83.128 E.01119
G1 X135.016 Y82.854 E.01507
G1 X135.29 Y82.749 E.00892
G1 X135.622 Y82.738 E.0101
G1 X135.959 Y82.855 E.01085
G1 X142.591 Y86.694 E.23306
G1 X143.193 Y87.221 E.02433
G1 X143.568 Y87.733 E.0193
G1 X143.858 Y88.421 E.02271
G1 X143.933 Y88.684 E.00832
G1 X143.999 Y89.255 E.01748
G1 X143.95 Y89.816 E.01713
G1 X143.854 Y90.233 E.01301
G1 X143.67 Y90.721 E.01586
G1 X143.332 Y91.266 E.0195
G1 X142.76 Y91.83 E.02443
G1 X142.591 Y91.956 E.00641
G1 X135.959 Y95.795 E.23306
G1 X135.622 Y95.912 E.01085
G1 X135.422 Y95.905 E.00609
M204 P1000
G1 X135.405 Y95.533 F9000
M204 P800
G1 F1200
G1 X135.369 Y95.532 E.0011
G1 X134.983 Y95.341 E.0131
G1 X134.792 Y95.159 E.00802
G1 X134.705 Y94.922 E.00768
G1 X134.7 Y94.851 E.00216
G1 X134.7 Y83.799 E.33613
G1 X134.744 Y83.579 E.00682
G1 X134.868 Y83.396 E.00672
G1 X135.204 Y83.181 E.01213
G1 X135.369 Y83.118 E.00537
G1 X135.681 Y83.14 E.00951
G1 X135.771 Y83.181 E.00301
G1 X142.402 Y87.02 E.23303
G1 X142.936 Y87.498 E.0218
G1 X143.256 Y87.944 E.01669
G1 X143.506 Y88.556 E.02011
G1 X143.617 Y89.154 E.0185
G1 X143.574 Y89.782 E.01914
G1 X143.502 Y90.1 E.00992
G1 X143.317 Y90.588 E.01587
G1 X143.019 Y91.055 E.01685
G1 X142.503 Y91.554 E.02183
G1 X142.402 Y91.629 E.00383
G1 X135.77 Y95.468 E.23306
G1 X135.568 Y95.539 E.00651
M73 P2 R38
G1 X135.465 Y95.535 E.00313
M204 P1000
G1 X135.448 Y95.163 F9000
M204 P800
;TYPE:External perimeter
G1 F1200
G1 X135.133 Y94.985 E.011
G1 X135.077 Y94.851 E.00442
G1 X135.077 Y83.799 E.33613
G1 X135.133 Y83.665 E.00442
G1 X135.448 Y83.487 E.011
G1 X135.582 Y83.508 E.00413
G1 X142.213 Y87.347 E.23303
G1 X142.679 Y87.774 E.01922
G1 X142.961 Y88.188 E.01523
G1 X143.154 Y88.69 E.01636
G1 X143.243 Y89.206 E.01593
G1 X143.199 Y89.748 E.01654
G1 X143.046 Y90.238 E.01561
G1 X142.944 Y90.493 E.00835
G1 X142.679 Y90.876 E.01416
G1 X142.247 Y91.278 E.01795
G1 X135.582 Y95.142 E.23431
G1 X135.507 Y95.154 E.00231
M204 P1000
G1 X135.216 Y95.441 F9000
G1 E-2.24 F4200
;WIPE_START
G1 F7200
G1 X135.133 Y94.985 E-.22744
G1 X135.077 Y94.851 E-.08048
G1 X135.077 Y93.674 E-.65208
;WIPE_END
G1 Z.4 F720
G1 X136.103 Y81.985 F9000
G1 Z.2 F720
G1 E3.2 F2400
M204 P800
;TYPE:Perimeter
;WIDTH:0.615936
G1 F1200
G1 X136.38 Y82.129 E.01443
;WIDTH:0.593584
G1 X143.012 Y85.966 E.3403
;WIDTH:0.639
G1 X143.348 Y86.187 E.01934
M204 P1000
G1 E-2.24 F4200
;WIPE_START
G1 F7200
G1 X143.012 Y85.966 E-.22287
G1 X141.861 Y85.3 E-.73713
;WIPE_END
G1 Z.4 F720
G1 X143.273 Y92.517 F9000
G1 Z.2 F720
G1 E3.2 F2400
M204 P800
;WIDTH:0.620614
G1 F1200
G1 X143.012 Y92.684 E.01444
;WIDTH:0.593582
G1 X136.38 Y96.52 E.34028
;WIDTH:0.58894
G1 X136.379 Y96.521 E.00006
M204 P1000
G1 E-2.24 F4200
;WIPE_START
G1 F7200
G1 X136.38 Y96.52 E-.00078
G1 X137.878 Y95.653 E-.95922
;WIPE_END
G1 Z.4 F720
G1 X129.59 Y77.032 F9000
G1 Z.2 F720
G1 E3.2 F2400
M204 P800
;WIDTH:0.419999
G1 F1200
G1 X129.82 Y77.436 E.01414
G1 X130.249 Y77.937 E.02006
G1 X130.764 Y78.35 E.02008
G1 X144.843 Y86.489 E.49459
G1 X145.366 Y86.776 E.01814
G1 X145.937 Y87.006 E.01872
G1 X146.464 Y87.111 E.01634
G1 X147.096 Y87.155 E.01927
G1 X146.681 Y87.571 E.01787
G1 X146.329 Y88.109 E.01955
G1 X146.11 Y88.736 E.0202
G1 X146.05 Y89.334 E.01828
G1 X146.085 Y89.722 E.01185
G1 X146.207 Y90.228 E.01583
G1 X146.395 Y90.655 E.01419
G1 X146.686 Y91.087 E.01584
G1 X147.097 Y91.494 E.01759
G1 X146.476 Y91.537 E.01893
G1 X145.936 Y91.644 E.01674
G1 X145.198 Y91.956 E.02437
G1 X130.927 Y100.206 E.50134
G1 X130.625 Y100.393 E.0108
G1 X130.195 Y100.762 E.01723
G1 X129.82 Y101.214 E.01786
G1 X129.589 Y101.622 E.01426
G1 X129.485 Y101.148 E.01476
G1 X129.197 Y100.537 E.02054
G1 X128.752 Y100.028 E.02056
G1 X128.314 Y99.664 E.01732
G1 X128.024 Y99.505 E.01006
G1 X127.652 Y99.369 E.01205
G1 X126.921 Y99.237 E.02259
G1 X126.413 Y99.272 E.01549
G1 X125.837 Y99.428 E.01815
G1 X126.112 Y98.852 E.01941
G1 X126.269 Y98.414 E.01415
G1 X126.369 Y97.762 E.02006
G1 X126.378 Y81.935 E.48136
G1 X126.365 Y80.904 E.03136
G1 X126.279 Y80.295 E.01871
G1 X126.177 Y79.942 E.01118
G1 X125.829 Y79.215 E.02451
