; generated by PrusaSlicer 2.6.0-alpha3+MacOS-x64 on 2023-02-13 at 06:20:39 UTC


;
;

;
;
; 

; external perimeters extrusion width = 0.45mm
; perimeters extrusion width = 0.45mm
; infill extrusion width = 0.45mm
; solid infill extrusion width = 0.45mm
; top infill extrusion width = 0.40mm
; first layer extrusion width = 0.42mm

; external perimeters extrusion width = 0.45mm
; perimeters extrusion width = 0.45mm
; infill extrusion width = 0.45mm
; solid infill extrusion width = 0.45mm
; top infill extrusion width = 0.40mm
; first layer extrusion width = 0.42mm

; external perimeters extrusion width = 0.45mm
; perimeters extrusion width = 0.45mm
; infill extrusion width = 0.45mm
; solid infill extrusion width = 0.45mm
; top infill extrusion width = 0.40mm
; first layer extrusion width = 0.42mm

; external perimeters extrusion width = 0.45mm
; perimeters extrusion width = 0.45mm
; infill extrusion width = 0.45mm
; solid infill extrusion width = 0.45mm
; top infill extrusion width = 0.40mm
; first layer extrusion width = 0.42mm

M73 P0 R33
M201 X2500 Y2500 Z400 E5000 ; sets maximum accelerations, mm/sec^2
M203 X180 Y180 Z12 E80 ; sets maximum feedrates, mm / sec
M204 P1250 R1250 T2500 ; sets acceleration (P, T) and retract acceleration (R), mm/sec^2
M205 X8.00 Y8.00 Z2.00 E10.00 ; sets the jerk limits, mm/sec
M205 S0 T0 ; sets the minimum extruding and travel feed rate, mm/sec
M107
;TYPE:Custom
M862.3 P "MINI" ; printer model check
G90 ; use absolute coordinates
M83 ; extruder relative mode
M104 S170 ; set extruder temp for bed leveling
M140 S55 ; set bed temp
M109 R170 ; wait for bed leveling temp
M190 S55 ; wait for bed temp
M204 T1250 ; set travel acceleration
G28 ; home all without mesh bed level
G29 ; mesh bed leveling 
M204 T2500 ; restore travel acceleration
M104 S240 ; set extruder temp
G92 E0
G1 Y-2 X179 F2400
G1 Z3 F720
M109 S240 ; wait for extruder temp

; intro line
G1 X170 F1000
G1 Z0.2 F720
G1 X110 E8 F900
G1 X40 E10 F700
G92 E0

M221 S95 ; set flow
G21 ; set units to millimeters
G90 ; use absolute coordinates
M83 ; use relative distances for extrusion
M900 K0 ; Filament gcode
M107
;LAYER_CHANGE
;Z:0.2
;HEIGHT:0.2
;BEFORE_LAYER_CHANGE
G92 E0.0
;0.2


G1 E-4 F2400
G1 Z.2 F720
;AFTER_LAYER_CHANGE
;0.2
G1 X118.167 Y38.294 F9000
G1 E4 F900
M204 P800
;TYPE:Skirt/Brim
;WIDTH:0.42
G1 F1200
G1 X118.704 Y37.102 E.04714
G1 X119.237 Y36.256 E.03605
G1 X119.868 Y35.481 E.03604
G1 X120.698 Y34.695 E.04122
G1 X121.853 Y33.898 E.0506
G1 X122.749 Y33.456 E.03602
G1 X123.831 Y33.085 E.04124
G1 X124.81 Y32.887 E.03601
G1 X125.89 Y32.808 E.03905
G1 X162.327 Y32.809 E1.31383
G1 X163.875 Y32.982 E.05616
G1 X165.263 Y33.401 E.05228
G1 X166.638 Y34.108 E.05575
G1 X167.788 Y34.992 E.0523
G1 X168.823 Y36.141 E.05576
G1 X169.584 Y37.375 E.05228
G1 X170.145 Y38.816 E.05576
G1 X170.432 Y40.383 E.05744
G1 X171.559 Y136.454 E3.46431
G1 X171.559 Y142.279 E.21003
M73 P1 R33
G1 X171.459 Y142.958 E.02475
G1 X170.641 Y145.702 E.10324
G1 X170.272 Y146.439 E.02972
G1 X167.974 Y149.534 E.139
G1 X166.56 Y150.443 E.06061
G1 X164.128 Y150.96 E.08965
G1 X163.35 Y151.055 E.02826
G1 X124.284 Y151.095 E1.40862
G1 X123.257 Y150.987 E.03724
G1 X120.825 Y150.47 E.08965
G1 X119.411 Y149.561 E.06061
G1 X117.113 Y146.466 E.139
G1 X116.744 Y145.729 E.02972
G1 X115.926 Y142.985 E.10324
G1 X115.827 Y142.305 E.02478
G1 X115.827 Y136.439 E.21151
G1 X117.124 Y61.322 E2.70893
G1 X117.69 Y40.788 E.74068
G1 X117.858 Y39.394 E.05063
G1 X118.151 Y38.352 E.03903
M204 P1000
G1 X120.647 Y39.279 F9000
M204 P800
G1 F1200
G1 X121.166 Y38.165 E.04431
G1 X121.762 Y37.36 E.03612
G1 X122.467 Y36.689 E.03509
G1 X123.679 Y35.956 E.05107
G1 X125.065 Y35.545 E.05213
G1 X132.434 Y35.479 E.26572
G1 X133.857 Y35.839 E.05293
G1 X134.696 Y36.291 E.03436
G1 X134.913 Y36.471 E.01017
G1 X153.233 Y36.471 E.66057
G1 X153.446 Y36.294 E.00999
G1 X154.156 Y35.896 E.02935
G1 X155.74 Y35.471 E.05914
G1 X162.473 Y35.478 E.24277
G1 X163.562 Y35.644 E.03972
G1 X164.62 Y36.024 E.04053
G1 X166.136 Y37.093 E.06689
G1 X166.727 Y37.79 E.03295
G1 X167.197 Y38.56 E.03253
G1 X167.537 Y39.399 E.03264
G1 X167.74 Y40.279 E.03256
G1 X167.798 Y46.076 E.20904
G1 X167.619 Y47.148 E.03919
G1 X167.095 Y48.325 E.04646
G1 X166.306 Y49.286 E.04483
G1 X165.377 Y49.985 E.04192
G1 X164.268 Y50.456 E.04344
G1 X161.144 Y50.615 E.11279
G1 X160.308 Y50.754 E.03056
G1 X159.473 Y50.805 E.03016
G1 X158.124 Y50.801 E.04864
G1 X157.335 Y50.737 E.02854
G1 X156.6 Y50.614 E.02687
G1 X155.586 Y50.585 E.03658
G1 X154.852 Y50.446 E.02694
G1 X153.678 Y49.908 E.04656
G1 X134.52 Y49.908 E.69079
G1 X133.096 Y50.499 E.05559
G1 X132.34 Y50.604 E.02752
G1 X131.534 Y50.615 E.02907
G1 X130.785 Y50.74 E.02738
G1 X130.023 Y50.801 E.02756
G1 X128.704 Y50.806 E.04756
G1 X127.901 Y50.761 E.029
G1 X127.03 Y50.619 E.03182
G1 X124.542 Y50.582 E.08972
G1 X123.07 Y50.144 E.05538
G1 X122.129 Y49.54 E.04032
G1 X121.306 Y48.698 E.04245
G1 X120.742 Y47.725 E.04055
G1 X120.415 Y46.685 E.03931
G1 X120.354 Y40.771 E.21326
G1 X120.635 Y39.338 E.05265
M204 P1000
G1 X120.999 Y39.416 F9000
M204 P800
G1 F1200
G1 X121.481 Y38.373 E.04143
G1 X122.034 Y37.621 E.03366
G1 X122.712 Y36.977 E.03372
G1 X123.852 Y36.292 E.04796
G1 X125.146 Y35.914 E.04861
G1 X132.413 Y35.856 E.26204
G1 X133.699 Y36.182 E.04784
G1 X134.498 Y36.612 E.03272
G1 X134.77 Y36.848 E.01298
G1 X153.373 Y36.848 E.67078
G1 X153.65 Y36.612 E.01312
M73 P2 R32
G1 X154.279 Y36.253 E.02611
G1 X155.765 Y35.848 E.05554
G1 X162.458 Y35.855 E.24133
G1 X163.486 Y36.014 E.03751
G1 X164.467 Y36.37 E.03763
G1 X165.864 Y37.356 E.06166
G1 X166.414 Y38 E.03054
G1 X166.854 Y38.717 E.03033
G1 X167.173 Y39.499 E.03045
G1 X167.368 Y40.344 E.03127
G1 X167.421 Y46.063 E.20622
G1 X167.264 Y47.019 E.03493
G1 X166.787 Y48.106 E.0428
G1 X166.03 Y49.028 E.04301
G1 X165.171 Y49.669 E.03865
G1 X164.153 Y50.095 E.03979
G1 X161.104 Y50.239 E.11006
G1 X160.274 Y50.378 E.03034
G1 X159.456 Y50.429 E.02955
G1 X158.133 Y50.424 E.0477
G1 X157.374 Y50.362 E.02746
G1 X156.637 Y50.237 E.02695
G1 X155.612 Y50.208 E.03697
G1 X154.946 Y50.08 E.02445
G1 X153.762 Y49.531 E.04706
G1 X134.39 Y49.531 E.6985
G1 X134.26 Y49.615 E.00558
G1 X133.02 Y50.129 E.0484
G1 X132.323 Y50.227 E.02538
G1 X131.5 Y50.239 E.02968
G1 X130.746 Y50.365 E.02756
G1 X130 Y50.425 E.02699
G1 X128.709 Y50.429 E.04655
G1 X127.932 Y50.385 E.02806
G1 X127.063 Y50.243 E.03175
G1 X124.574 Y50.206 E.08976
G1 X123.205 Y49.791 E.05158
G1 X122.382 Y49.261 E.0353
G1 X121.62 Y48.488 E.03914
G1 X121.079 Y47.555 E.03889
G1 X120.783 Y46.6 E.03605
G1 X120.732 Y40.787 E.20961
G1 X120.987 Y39.475 E.04819
M204 P1000
G1 X121.351 Y39.552 F9000
M204 P800
G1 F1200
G1 X121.796 Y38.581 E.03851
G1 X122.328 Y37.859 E.03234
G1 X122.955 Y37.266 E.03112
G1 X124.023 Y36.629 E.04484
G1 X125.225 Y36.284 E.04509
G1 X132.391 Y36.234 E.25839
G1 X133.54 Y36.525 E.04274
G1 X134.298 Y36.932 E.03102
G1 X134.624 Y37.225 E.0158
G1 X153.516 Y37.225 E.6812
G1 X153.857 Y36.928 E.01631
G1 X154.404 Y36.61 E.02281
G1 X155.791 Y36.225 E.0519
G1 X162.443 Y36.232 E.23985
G1 X163.409 Y36.383 E.03525
G1 X164.314 Y36.715 E.03476
G1 X165.593 Y37.619 E.05647
G1 X166.117 Y38.233 E.02911
G1 X166.524 Y38.9 E.02817
G1 X166.817 Y39.626 E.02823
G1 X166.996 Y40.408 E.02893
G1 X167.044 Y46.051 E.20348
G1 X166.909 Y46.889 E.03061
G1 X166.453 Y47.93 E.04098
G1 X165.755 Y48.769 E.03935
G1 X164.966 Y49.351 E.03535
G1 X164.041 Y49.734 E.0361
G1 X161.064 Y49.864 E.10745
G1 X160.241 Y50.003 E.0301
G1 X159.439 Y50.052 E.02897
G1 X158.142 Y50.047 E.04677
G1 X157.413 Y49.987 E.02637
G1 X156.673 Y49.861 E.02707
G1 X155.668 Y49.835 E.03625
G1 X155.041 Y49.715 E.02302
G1 X153.846 Y49.154 E.0476
G1 X134.267 Y49.154 E.70597
G1 X134.092 Y49.277 E.00771
G1 X132.943 Y49.759 E.04493
G1 X132.305 Y49.85 E.02324
G1 X131.465 Y49.862 E.03029
G1 X130.708 Y49.99 E.02768
G1 X129.977 Y50.048 E.02644
G1 X128.713 Y50.052 E.04558
G1 X127.964 Y50.009 E.02705
G1 X127.097 Y49.866 E.03168
G1 X124.607 Y49.829 E.08979
G1 X123.342 Y49.438 E.04774
G1 X122.635 Y48.98 E.03037
G1 X121.934 Y48.277 E.0358
G1 X121.417 Y47.385 E.03718
G1 X121.152 Y46.517 E.03272
G1 X121.109 Y40.803 E.20604
G1 X121.339 Y39.611 E.04377
M204 P1000
G1 X121.704 Y39.688 F9000
M204 P800
G1 F1200
G1 X122.112 Y38.787 E.03566
G1 X122.599 Y38.121 E.02975
G1 X123.199 Y37.554 E.02977
G1 X124.193 Y36.966 E.04164
G1 X125.302 Y36.653 E.04155
G1 X132.369 Y36.611 E.25482
G1 X133.382 Y36.868 E.03768
G1 X134.096 Y37.252 E.02923
G1 X134.474 Y37.603 E.0186
G1 X153.66 Y37.603 E.6918
G1 X154.064 Y37.244 E.01949
G1 X154.573 Y36.948 E.02123
G1 X155.816 Y36.602 E.04652
G1 X162.428 Y36.609 E.23841
G1 X163.296 Y36.744 E.03167
G1 X164.16 Y37.061 E.03318
G1 X165.321 Y37.882 E.05127
G1 X165.82 Y38.466 E.0277
G1 X166.193 Y39.081 E.02594
G1 X166.462 Y39.752 E.02607
G1 X166.624 Y40.471 E.02658
G1 X166.667 Y46.039 E.20077
G1 X166.553 Y46.763 E.02643
G1 X166.145 Y47.71 E.03718
G1 X165.48 Y48.51 E.03751
G1 X164.764 Y49.032 E.03195
G1 X163.93 Y49.372 E.03247
G1 X161.025 Y49.488 E.10483
G1 X160.189 Y49.629 E.03057
G1 X159.423 Y49.675 E.02767
G1 X158.151 Y49.67 E.04587
G1 X157.468 Y49.614 E.02471
G1 X156.709 Y49.485 E.02776
G1 X155.723 Y49.462 E.03556
G1 X155.135 Y49.349 E.02159
G1 X154.113 Y48.868 E.04073
G1 X153.988 Y48.777 E.00558
G1 X134.138 Y48.777 E.71574
G1 X133.92 Y48.941 E.00984
G1 X132.864 Y49.39 E.04138
G1 X132.288 Y49.473 E.02098
G1 X131.431 Y49.485 E.0309
G1 X130.669 Y49.614 E.02787
G1 X129.954 Y49.672 E.02587
G1 X128.718 Y49.675 E.04457
G1 X127.995 Y49.634 E.02611
G1 X127.131 Y49.489 E.03159
G1 X124.641 Y49.453 E.08979
G1 X123.48 Y49.087 E.04389
G1 X122.886 Y48.699 E.02558
G1 X122.247 Y48.066 E.03243
G1 X121.754 Y47.215 E.03546
G1 X121.521 Y46.435 E.02935
G1 X121.486 Y40.819 E.2025
G1 X121.692 Y39.746 E.0394
M204 P1000
G1 X122.057 Y39.821 F9000
M204 P800
G1 F1200
G1 X122.429 Y38.993 E.03273
G1 X122.893 Y38.358 E.02836
G1 X123.441 Y37.844 E.02709
G1 X124.362 Y37.305 E.03848
G1 X125.378 Y37.024 E.03801
G1 X132.347 Y36.988 E.25129
G1 X133.224 Y37.211 E.03263
G1 X133.894 Y37.572 E.02744
G1 X134.322 Y37.98 E.02132
G1 X153.806 Y37.98 E.70254
G1 X154.271 Y37.559 E.02262
G1 X154.741 Y37.286 E.0196
G1 X155.842 Y36.979 E.04121
G1 X162.413 Y36.986 E.23693
G1 X163.219 Y37.113 E.02942
G1 X164.005 Y37.405 E.03023
G1 X165.082 Y38.174 E.04772
G1 X165.521 Y38.696 E.02459
G1 X165.862 Y39.262 E.02383
G1 X166.106 Y39.876 E.02382
G1 X166.251 Y40.532 E.02422
G1 X166.29 Y46.027 E.19814
G1 X166.197 Y46.636 E.02221
G1 X165.81 Y47.535 E.03529
G1 X165.208 Y48.248 E.03365
G1 X164.563 Y48.712 E.02865
G1 X163.821 Y49.01 E.02883
G1 X160.987 Y49.112 E.10225
G1 X160.136 Y49.256 E.03112
G1 X159.407 Y49.298 E.02633
G1 X158.16 Y49.293 E.04496
G1 X157.524 Y49.24 E.02301
G1 X156.745 Y49.108 E.02849
G1 X155.779 Y49.088 E.03484
G1 X155.231 Y48.983 E.02012
G1 X154.3 Y48.539 E.03719
G1 X154.125 Y48.4 E.00806
G1 X134.002 Y48.4 E.72558
G1 X133.745 Y48.606 E.01188
G1 X132.784 Y49.02 E.03773
G1 X132.27 Y49.096 E.01874
G1 X131.396 Y49.109 E.03152
G1 X130.615 Y49.241 E.02856
G1 X129.932 Y49.295 E.0247
G1 X128.723 Y49.298 E.04359
G1 X128.028 Y49.258 E.0251
M73 P3 R32
G1 X127.166 Y49.113 E.03152
G1 X124.675 Y49.076 E.08983
G1 X123.622 Y48.736 E.0399
G1 X123.137 Y48.416 E.02095
G1 X122.56 Y47.854 E.02904
G1 X122.092 Y47.047 E.03364
G1 X121.89 Y46.356 E.02596
G1 X121.863 Y40.835 E.19908
G1 X122.045 Y39.88 E.03505
M204 P1000
G1 X122.41 Y39.954 F9000
M204 P800
G1 F1200
G1 X122.746 Y39.198 E.02983
G1 X123.165 Y38.62 E.02574
G1 X123.684 Y38.134 E.02564
G1 X124.487 Y37.661 E.0336
G1 X125.454 Y37.394 E.03617
G1 X132.325 Y37.365 E.24775
G1 X133.065 Y37.553 E.02753
G1 X133.691 Y37.89 E.02563
G1 X134.166 Y38.357 E.02402
G1 X153.954 Y38.357 E.7135
G1 X154.479 Y37.875 E.0257
G1 X154.91 Y37.624 E.01798
G1 X155.867 Y37.356 E.03583
G1 X162.397 Y37.363 E.23546
G1 X163.14 Y37.482 E.02713
G1 X163.849 Y37.749 E.02732
G1 X164.809 Y38.436 E.04257
G1 X165.207 Y38.905 E.02218
G1 X165.518 Y39.417 E.0216
G1 X165.741 Y39.973 E.0216
G1 X165.879 Y40.595 E.02297
G1 X165.913 Y46.015 E.19544
G1 X165.839 Y46.513 E.01815
G1 X165.503 Y47.314 E.03132
G1 X164.936 Y47.986 E.0317
G1 X164.364 Y48.391 E.02527
G1 X163.714 Y48.647 E.02519
G1 X160.95 Y48.736 E.09971
G1 X160.084 Y48.882 E.03167
G1 X159.391 Y48.921 E.02503
G1 X158.183 Y48.917 E.04356
G1 X157.567 Y48.866 E.02229
G1 X156.974 Y48.752 E.02177
G1 X156.759 Y48.731 E.00779
G1 X155.834 Y48.715 E.03336
G1 X155.327 Y48.617 E.01862
G1 X154.489 Y48.212 E.03356
G1 X154.269 Y48.023 E.01046
G1 X133.861 Y48.023 E.73586
G1 X133.565 Y48.273 E.01397
G1 X132.702 Y48.652 E.03399
G1 X132.251 Y48.72 E.01645
G1 X131.382 Y48.732 E.03134
G1 X131.171 Y48.752 E.00764
G1 X130.573 Y48.866 E.02195
G1 X129.909 Y48.919 E.02402
G1 X128.728 Y48.921 E.04258
G1 X128.06 Y48.882 E.02413
G1 X127.2 Y48.736 E.03145
G1 X124.709 Y48.699 E.08983
G1 X123.806 Y48.407 E.03422
G1 X123.386 Y48.133 E.01808
G1 X122.843 Y47.603 E.02736
G1 X122.432 Y46.881 E.02996
G1 X122.26 Y46.278 E.02261
G1 X122.24 Y40.852 E.19565
G1 X122.399 Y40.013 E.03079
M204 P1000
G1 X122.764 Y40.085 F9000
M204 P800
G1 F1200
G1 X123.064 Y39.401 E.02693
G1 X123.436 Y38.883 E.023
G1 X123.926 Y38.424 E.02421
G1 X124.654 Y38 E.03038
G1 X125.528 Y37.764 E.03264
G1 X132.302 Y37.742 E.24425
G1 X132.906 Y37.896 E.02248
G1 X133.486 Y38.209 E.02376
G1 X134.008 Y38.734 E.02669
G1 X154.101 Y38.734 E.7245
G1 X154.717 Y38.167 E.03019
G1 X155.076 Y37.963 E.01489
G1 X155.893 Y37.734 E.03059
G1 X162.381 Y37.74 E.23394
G1 X163.059 Y37.851 E.02477
G1 X163.691 Y38.092 E.02439
G1 X164.538 Y38.698 E.03755
G1 X164.893 Y39.115 E.01975
G1 X165.174 Y39.574 E.01941
G1 X165.376 Y40.071 E.01934
G1 X165.506 Y40.657 E.02164
G1 X165.535 Y46.004 E.1928
G1 X165.481 Y46.394 E.0142
G1 X165.195 Y47.094 E.02727
G1 X164.663 Y47.724 E.02973
G1 X164.205 Y48.048 E.02023
G1 X163.607 Y48.284 E.02318
G1 X160.93 Y48.359 E.09656
G1 X160.687 Y48.385 E.00881
G1 X160.048 Y48.506 E.02345
G1 X159.375 Y48.545 E.02431
G1 X158.207 Y48.54 E.04212
G1 X157.608 Y48.491 E.02167
G1 X157.028 Y48.379 E.0213
G1 X156.781 Y48.355 E.00895
G1 X155.858 Y48.338 E.03329
G1 X155.425 Y48.253 E.01591
G1 X154.683 Y47.888 E.02982
G1 X154.419 Y47.646 E.01291
G1 X133.715 Y47.646 E.74653
G1 X133.382 Y47.942 E.01606
G1 X132.618 Y48.283 E.03017
G1 X132.232 Y48.343 E.01409
G1 X131.361 Y48.355 E.03141
G1 X131.117 Y48.379 E.00884
G1 X130.532 Y48.491 E.02148
G1 X129.887 Y48.542 E.02333
G1 X128.734 Y48.544 E.04157
G1 X128.096 Y48.506 E.02305
G1 X127.457 Y48.385 E.02345
G1 X127.218 Y48.359 E.00867
G1 X124.743 Y48.323 E.08925
G1 X123.989 Y48.076 E.02861
G1 X123.636 Y47.849 E.01513
G1 X123.126 Y47.353 E.02565
G1 X122.772 Y46.718 E.02621
G1 X122.631 Y46.203 E.01925
G1 X122.617 Y40.869 E.19233
G1 X122.753 Y40.144 E.0266
M204 P1000
G1 X123.119 Y40.214 F9000
M204 P800
G1 F1200
G1 X123.383 Y39.604 E.02397
G1 X123.731 Y39.118 E.02155
G1 X124.166 Y38.715 E.02138
G1 X124.819 Y38.34 E.02715
G1 X125.6 Y38.135 E.02911
G1 X132.279 Y38.119 E.24083
G1 X132.748 Y38.239 E.01746
G1 X133.281 Y38.526 E.02183
G1 X133.847 Y39.111 E.02935
G1 X154.335 Y39.111 E.73874
G1 X154.477 Y38.892 E.00941
G1 X154.953 Y38.463 E.02311
G1 X155.239 Y38.304 E.0118
G1 X155.919 Y38.111 E.02549
G1 X162.366 Y38.118 E.23246
G1 X162.943 Y38.211 E.02107
G1 X163.534 Y38.436 E.0228
G1 X164.267 Y38.961 E.03251
G1 X164.581 Y39.327 E.01739
G1 X164.832 Y39.733 E.01721
G1 X165.012 Y40.169 E.01701
G1 X165.134 Y40.718 E.02028
G1 X165.158 Y45.992 E.19017
G1 X165.112 Y46.316 E.0118
G1 X164.859 Y46.92 E.02361
G1 X164.394 Y47.459 E.02567
G1 X164.011 Y47.725 E.01681
G1 X163.503 Y47.92 E.01962
G1 X160.906 Y47.982 E.09367
G1 X160.631 Y48.012 E.00997
G1 X160.014 Y48.131 E.02266
G1 X159.359 Y48.168 E.02366
G1 X158.231 Y48.164 E.04067
G1 X157.65 Y48.116 E.02102
G1 X157.083 Y48.005 E.02083
G1 X156.803 Y47.978 E.01014
G1 X155.882 Y47.961 E.03321
G1 X155.526 Y47.889 E.0131
G1 X154.881 Y47.565 E.02603
G1 X154.574 Y47.269 E.01538
G1 X133.564 Y47.269 E.75757
G1 X133.195 Y47.613 E.01819
G1 X132.533 Y47.915 E.02624
G1 X132.213 Y47.966 E.01168
G1 X131.34 Y47.978 E.03148
G1 X131.062 Y48.005 E.01007
G1 X130.492 Y48.116 E.02094
G1 X129.864 Y48.166 E.02272
