; generated by PrusaSlicer 2.6.0-alpha3+MacOS-x64 on 2023-02-19 at 21:57:57 UTC


;
;

;
;
; 

; external perimeters extrusion width = 0.45mm
; perimeters extrusion width = 0.45mm
; infill extrusion width = 0.45mm
; solid infill extrusion width = 0.45mm
; top infill extrusion width = 0.40mm
; support material extrusion width = 0.35mm
; first layer extrusion width = 0.42mm

M73 P0 R38
M201 X2500 Y2500 Z400 E5000 ; sets maximum accelerations, mm/sec^2
M203 X180 Y180 Z12 E80 ; sets maximum feedrates, mm / sec
M204 P1250 R1250 T2500 ; sets acceleration (P, T) and retract acceleration (R), mm/sec^2
M205 X8.00 Y8.00 Z2.00 E10.00 ; sets the jerk limits, mm/sec
M205 S0 T0 ; sets the minimum extruding and travel feed rate, mm/sec
M107
;TYPE:Custom
M862.3 P "MINI" ; printer model check
G90 ; use absolute coordinates
M83 ; extruder relative mode
M104 S170 ; set extruder temp for bed leveling
M140 S85 ; set bed temp
M109 R170 ; wait for bed leveling temp
M190 S85 ; wait for bed temp
M204 T1250 ; set travel acceleration
G28 ; home all without mesh bed level
G29 ; mesh bed leveling 
M204 T2500 ; restore travel acceleration
M104 S230 ; set extruder temp
G92 E0
G1 Y-2 X179 F2400
G1 Z3 F720
M109 S230 ; wait for extruder temp

; intro line
G1 X170 F1000
G1 Z0.2 F720
G1 X110 E8 F900
G1 X40 E10 F700
G92 E0

M221 S95 ; set flow
G21 ; set units to millimeters
G90 ; use absolute coordinates
M83 ; use relative distances for extrusion
M900 K0.2 ; Filament gcode
M107
;LAYER_CHANGE
;Z:0.2
;HEIGHT:0.2
;BEFORE_LAYER_CHANGE
G92 E0.0
;0.2


G1 E-3.2 F2700
G1 Z.2 F720
;AFTER_LAYER_CHANGE
;0.2
G1 Z.4
G1 X116.784 Y79.647 F9000
G1 Z.2 F720
G1 E3.2 F1500
M204 P800
;TYPE:Skirt/Brim
;WIDTH:0.42
G1 F1200
G1 X118.154 Y78.23 E.0618
G1 X119.373 Y77.34 E.04732
G1 X120.711 Y76.64 E.04735
G1 X122.321 Y76.1 E.05324
G1 X123.81 Y75.851 E.04733
G1 X143.763 Y75.809 E.62561
G1 X145.419 Y75.95 E.05211
G1 X146.952 Y76.333 E.04954
G1 X148.629 Y77.067 E.0574
G1 X149.95 Y77.933 E.04953
G1 X151.246 Y79.131 E.05534
G1 X152.35 Y80.589 E.05734
G1 X153.08 Y81.992 E.04959
G1 X153.602 Y83.567 E.05202
G1 X153.815 Y84.74 E.03738
G1 X153.888 Y85.863 E.03529
G1 X153.632 Y94.672 E.27632
G1 X151.71 Y104.424 E.31165
G1 X150.845 Y105.95 E.055
G1 X148.898 Y106.757 E.06608
G1 X135.925 Y106.757 E.40676
G1 X135.347 Y106.695 E.01823
G1 X119.931 Y103.382 E.49439
G1 X118.562 Y102.636 E.04888
G1 X115.575 Y99.649 E.13245
G1 X114.768 Y97.746 E.06481
G1 X114.581 Y86.044 E.36695
G1 X114.655 Y84.73 E.04126
G1 X115.032 Y82.969 E.05647
G1 X115.793 Y81.151 E.06179
G1 X116.751 Y79.698 E.05457
M204 P1000
G1 X117.064 Y79.904 F9000
M204 P800
G1 F1200
G1 X117.798 Y79.074 E.03474
G1 X118.541 Y78.398 E.0315
G1 X119.731 Y77.563 E.04558
G1 X121.032 Y76.914 E.04559
G1 X122.415 Y76.466 E.04558
G1 X123.848 Y76.226 E.04556
G1 X143.758 Y76.186 E.62427
M73 P1 R38
G1 X145.445 Y76.337 E.05311
G1 X147.159 Y76.806 E.05572
G1 X148.529 Y77.443 E.04737
G1 X149.862 Y78.345 E.05046
G1 X150.963 Y79.38 E.04738
G1 X152.033 Y80.794 E.0556
G1 X152.732 Y82.137 E.04747
G1 X153.256 Y83.743 E.05297
G1 X153.452 Y84.878 E.03611
G1 X153.511 Y85.86 E.03085
G1 X153.262 Y94.599 E.27412
G1 X151.34 Y104.352 E.31168
G1 X150.578 Y105.683 E.04809
G1 X148.898 Y106.38 E.05703
G1 X135.925 Y106.38 E.40676
G1 X135.426 Y106.326 E.01574
G1 X120.01 Y103.013 E.49439
G1 X118.829 Y102.37 E.04216
G1 X115.841 Y99.382 E.13249
G1 X115.145 Y97.74 E.05592
G1 X114.958 Y86.038 E.36695
G1 X115.029 Y84.78 E.03951
G1 X115.391 Y83.087 E.05428
G1 X116.124 Y81.333 E.0596
G1 X117.031 Y79.954 E.05175
M204 P1000
G1 E-2.24 F2700
;WIPE_START
G1 F7200
G1 X117.798 Y79.074 E-.41587
G1 X118.541 Y78.398 E-.35785
G1 X118.969 Y78.098 E-.18628
;WIPE_END
G1 Z.4 F720
G1 X119.178 Y81.524 F9000
G1 Z.2 F720
G1 E3.2 F1500
M204 P800
G1 F1200
G1 X119.643 Y80.995 E.02208
G1 X120.459 Y80.28 E.03402
G1 X121.08 Y79.861 E.02349
G1 X121.777 Y79.493 E.02471
G1 X122.859 Y79.103 E.03606
G1 X123.884 Y78.902 E.03275
G1 X124.788 Y78.851 E.02839
G1 X125.643 Y78.909 E.02687
G1 X126.625 Y79.106 E.0314
G1 X127.323 Y79.35 E.02318
G1 X141.134 Y79.35 E.43303
G1 X141.95 Y79.079 E.02696
G1 X142.927 Y78.896 E.03117
G1 X144.032 Y78.856 E.03467
G1 X144.788 Y78.929 E.02381
G1 X145.506 Y79.075 E.02297
G1 X146.39 Y79.365 E.02917
G1 X147.244 Y79.777 E.02973
G1 X148.052 Y80.311 E.03037
G1 X148.793 Y80.964 E.03097
G1 X149.286 Y81.516 E.02321
G1 X149.738 Y82.145 E.02429
G1 X150.353 Y83.355 E.04256
G1 X150.621 Y84.181 E.02723
G1 X150.79 Y85.054 E.02788
G1 X150.846 Y86.091 E.03256
G1 X150.791 Y86.855 E.02402
G1 X150.643 Y87.618 E.02437
G1 X150.643 Y92.482 E.15251
G1 X149.976 Y94.514 E.06706
G1 X149.313 Y95.357 E.03363
G1 X148.488 Y96.059 E.03396
G1 X147.583 Y96.517 E.0318
G1 X146.556 Y96.8 E.0334
G1 X138.102 Y96.839 E.26507
G1 X137.643 Y97.297 E.02033
G1 X136.687 Y97.899 E.03542
G1 X136.357 Y98.014 E.01096
G1 X135.632 Y98.975 E.03774
G1 X134.596 Y99.775 E.04104
G1 X133.02 Y100.34 E.05249
G1 X122.177 Y100.403 E.33998
G1 X120.136 Y99.735 E.06733
G1 X119.288 Y99.068 E.03383
G1 X118.534 Y98.163 E.03693
G1 X118.127 Y97.325 E.02921
G1 X117.833 Y96.2 E.03646
G1 X117.809 Y87.521 E.27212
G1 X117.713 Y87.103 E.01345
M73 P1 R37
G1 X117.631 Y86.306 E.02512
G1 X117.646 Y85.368 E.02941
G1 X117.79 Y84.427 E.02985
G1 X118.065 Y83.491 E.03059
G1 X118.378 Y82.774 E.02453
G1 X118.761 Y82.103 E.02422
G1 X119.143 Y81.573 E.02048
M204 P1000
G1 X119.448 Y81.794 F9000
M204 P800
G1 F1200
G1 X119.917 Y81.254 E.02243
G1 X120.698 Y80.572 E.03251
G1 X121.282 Y80.18 E.02205
G1 X121.941 Y79.833 E.02335
G1 X122.972 Y79.463 E.03434
G1 X123.942 Y79.275 E.03098
G1 X124.775 Y79.228 E.02616
G1 X125.581 Y79.281 E.02533
G1 X126.538 Y79.473 E.0306
G1 X127.259 Y79.727 E.02397
G1 X141.195 Y79.727 E.43695
G1 X142.033 Y79.447 E.0277
G1 X142.983 Y79.27 E.0303
G1 X144.008 Y79.232 E.03216
G1 X144.723 Y79.301 E.02252
G1 X145.4 Y79.437 E.02165
G1 X146.238 Y79.71 E.02763
G1 X147.047 Y80.098 E.02813
G1 X147.833 Y80.618 E.02955
G1 X148.534 Y81.238 E.02934
G1 X148.997 Y81.759 E.02185
G1 X149.423 Y82.353 E.02292
G1 X149.999 Y83.486 E.03985
G1 X150.258 Y84.286 E.02637
G1 X150.417 Y85.112 E.02637
G1 X150.469 Y86.077 E.0303
G1 X150.419 Y86.795 E.02257
G1 X150.266 Y87.582 E.02514
G1 X150.266 Y92.452 E.1527
G1 X149.658 Y94.308 E.06124
G1 X149.054 Y95.082 E.03078
G1 X148.261 Y95.757 E.03265
G1 X147.465 Y96.159 E.02796
G1 X146.48 Y96.43 E.03203
G1 X137.943 Y96.463 E.26767
G1 X137.423 Y96.99 E.02321
G1 X136.508 Y97.567 E.03392
G1 X136.127 Y97.691 E.01256
G1 X135.38 Y98.693 E.03919
G1 X134.389 Y99.459 E.03927
G1 X132.985 Y99.963 E.04677
G1 X122.205 Y100.026 E.33801
G1 X120.342 Y99.418 E.06145
G1 X119.565 Y98.811 E.03092
G1 X118.839 Y97.939 E.03558
G1 X118.487 Y97.212 E.02533
G1 X118.204 Y96.128 E.03513
G1 X118.186 Y87.477 E.27125
G1 X118.087 Y87.052 E.01368
G1 X118.009 Y86.3 E.0237
G1 X118.021 Y85.411 E.02788
G1 X118.155 Y84.521 E.02822
G1 X118.416 Y83.63 E.02911
G1 X118.71 Y82.952 E.02317
G1 X119.083 Y82.299 E.02358
G1 X119.413 Y81.842 E.01767
M204 P1000
G1 X119.718 Y82.063 F9000
M204 P800
G1 F1200
G1 X120.192 Y81.513 E.02277
G1 X120.936 Y80.865 E.03094
G1 X121.483 Y80.499 E.02064
G1 X122.104 Y80.174 E.02198
G1 X123.085 Y79.823 E.03267
G1 X124.001 Y79.648 E.02924
G1 X124.762 Y79.605 E.0239
G1 X125.52 Y79.653 E.02381
G1 X126.45 Y79.84 E.02974
G1 X127.193 Y80.104 E.02472
G1 X141.284 Y80.104 E.44181
G1 X141.473 Y80.021 E.00647
G1 X142.134 Y79.81 E.02176
G1 X143.037 Y79.643 E.02879
G1 X143.985 Y79.609 E.02974
G1 X144.659 Y79.673 E.02123
G1 X145.295 Y79.8 E.02034
G1 X146.087 Y80.056 E.0261
G1 X146.85 Y80.42 E.02651
G1 X147.613 Y80.925 E.02869
G1 X148.275 Y81.513 E.02776
G1 X148.708 Y82.002 E.02048
G1 X149.108 Y82.561 E.02155
G1 X149.645 Y83.616 E.03712
G1 X149.896 Y84.39 E.02551
G1 X150.044 Y85.17 E.02489
G1 X150.092 Y86.063 E.02804
G1 X150.047 Y86.735 E.02112
G1 X149.889 Y87.546 E.02591
G1 X149.889 Y92.422 E.15288
G1 X149.34 Y94.104 E.05548
G1 X148.795 Y94.808 E.02791
G1 X148.034 Y95.455 E.03132
G1 X147.347 Y95.8 E.0241
G1 X146.404 Y96.06 E.03067
G1 X137.782 Y96.086 E.27034
G1 X137.202 Y96.684 E.02612
G1 X136.329 Y97.234 E.03235
G1 X135.84 Y97.384 E.01604
G1 X135.742 Y97.587 E.00707
G1 X135.129 Y98.41 E.03218
G1 X134.182 Y99.142 E.03753
G1 X132.951 Y99.586 E.04103
G1 X122.233 Y99.649 E.33606
G1 X120.546 Y99.1 E.05563
G1 X119.841 Y98.554 E.02796
G1 X119.143 Y97.716 E.0342
G1 X118.847 Y97.1 E.02143
G1 X118.575 Y96.056 E.03383
G1 X118.563 Y87.432 E.2704
G1 X118.46 Y87 E.01392
G1 X118.386 Y86.293 E.02229
G1 X118.396 Y85.453 E.02634
G1 X118.521 Y84.614 E.0266
G1 X118.767 Y83.768 E.02762
G1 X119.043 Y83.13 E.0218
G1 X119.405 Y82.495 E.02292
G1 X119.683 Y82.112 E.01484
M204 P1000
G1 X119.988 Y82.332 F9000
M204 P800
G1 F1200
G1 X120.466 Y81.772 E.02309
G1 X121.174 Y81.158 E.02938
G1 X121.683 Y80.819 E.01917
G1 X122.266 Y80.514 E.02063
G1 X123.197 Y80.183 E.03098
G1 X124.058 Y80.02 E.02748
G1 X124.75 Y79.982 E.02173
G1 X125.458 Y80.026 E.02224
G1 X126.366 Y80.208 E.02904
G1 X126.886 Y80.383 E.0172
G1 X127.103 Y80.481 E.00747
G1 X141.366 Y80.481 E.44721
G1 X141.598 Y80.377 E.00797
G1 X142.237 Y80.173 E.02103
G1 X143.092 Y80.016 E.02726
G1 X143.962 Y79.985 E.0273
G1 X144.596 Y80.045 E.01997
G1 X145.19 Y80.162 E.01898
G1 X145.937 Y80.402 E.0246
G1 X146.653 Y80.742 E.02485
G1 X147.394 Y81.232 E.02785
G1 X148.016 Y81.786 E.02612
G1 X148.418 Y82.243 E.01908
G1 X148.793 Y82.768 E.02023
G1 X149.291 Y83.747 E.03444
G1 X149.528 Y84.473 E.02395
G1 X149.671 Y85.228 E.02409
G1 X149.715 Y86.049 E.02578
G1 X149.674 Y86.674 E.01964
G1 X149.512 Y87.509 E.02667
G1 X149.512 Y92.393 E.15313
G1 X149.021 Y93.9 E.0497
G1 X148.535 Y94.534 E.02505
G1 X147.807 Y95.153 E.02996
G1 X147.23 Y95.441 E.02022
G1 X146.329 Y95.689 E.0293
G1 X137.62 Y95.709 E.27307
G1 X136.981 Y96.377 E.02898
G1 X136.152 Y96.9 E.03073
G1 X135.565 Y97.07 E.01916
G1 X135.426 Y97.381 E.01068
M73 P2 R37
G1 X134.843 Y98.164 E.03061
G1 X133.977 Y98.824 E.03414
G1 X132.856 Y99.22 E.03728
G1 X122.262 Y99.272 E.33217
G1 X120.75 Y98.781 E.04984
G1 X120.116 Y98.294 E.02507
G1 X119.472 Y97.529 E.03135
G1 X119.207 Y96.986 E.01894
G1 X118.946 Y95.984 E.03247
G1 X118.94 Y87.387 E.26955
G1 X118.834 Y86.947 E.01419
G1 X118.763 Y86.285 E.02088
G1 X118.771 Y85.495 E.02477
G1 X118.887 Y84.706 E.025
G1 X119.118 Y83.906 E.02611
G1 X119.376 Y83.307 E.02045
G1 X119.717 Y82.707 E.02164
G1 X119.953 Y82.381 E.01262
M204 P1000
G1 X120.258 Y82.602 F9000
M204 P800
G1 F1200
G1 X120.366 Y82.453 E.00577
G1 X120.739 Y82.032 E.01764
G1 X121.411 Y81.451 E.02785
G1 X121.883 Y81.139 E.01774
G1 X122.429 Y80.855 E.0193
G1 X123.309 Y80.543 E.02927
G1 X124.115 Y80.393 E.02571
G1 X124.739 Y80.359 E.01959
G1 X125.397 Y80.398 E.02067
G1 X126.279 Y80.575 E.02821
G1 X126.755 Y80.736 E.01576
G1 X127.02 Y80.859 E.00916
G1 X141.448 Y80.859 E.45238
G1 X141.725 Y80.732 E.00955
G1 X142.318 Y80.542 E.01952
G1 X143.12 Y80.393 E.02558
G1 X143.94 Y80.362 E.02573
G1 X144.533 Y80.417 E.01867
G1 X145.086 Y80.525 E.01767
G1 X145.788 Y80.749 E.0231
G1 X146.457 Y81.064 E.02318
G1 X147.174 Y81.539 E.02697
G1 X147.755 Y82.059 E.02445
G1 X148.128 Y82.485 E.01775
G1 X148.477 Y82.975 E.01886
G1 X148.937 Y83.878 E.03177
G1 X149.165 Y84.578 E.02308
G1 X149.298 Y85.285 E.02256
G1 X149.338 Y86.057 E.02424
G1 X149.299 Y86.64 E.01832
G1 X149.184 Y87.276 E.02026
G1 X149.135 Y87.447 E.00558
G1 X149.135 Y92.363 E.15414
G1 X148.701 Y93.698 E.04401
G1 X148.274 Y94.261 E.02216
G1 X147.581 Y94.851 E.02854
G1 X147.113 Y95.082 E.01636
G1 X146.253 Y95.319 E.02797
G1 X137.4 Y95.333 E.27758
G1 X137.263 Y95.538 E.00773
G1 X136.759 Y96.071 E.023
G1 X135.976 Y96.565 E.02903
G1 X135.287 Y96.753 E.02239
G1 X135.108 Y97.175 E.01437
G1 X134.557 Y97.916 E.02895
G1 X133.774 Y98.505 E.03072
G1 X132.822 Y98.843 E.03167
G1 X122.29 Y98.894 E.33023
G1 X120.952 Y98.461 E.04409
G1 X120.389 Y98.034 E.02216
G1 X119.799 Y97.34 E.02856
G1 X119.567 Y96.872 E.01638
G1 X119.317 Y95.913 E.03107
G1 X119.317 Y87.341 E.26877
G1 X119.207 Y86.893 E.01446
G1 X119.14 Y86.278 E.0194
G1 X119.148 Y85.512 E.02402
G1 X119.258 Y84.774 E.0234
G1 X119.469 Y84.044 E.02383
G1 X119.709 Y83.483 E.01913
G1 X120.029 Y82.92 E.0203
G1 X120.223 Y82.651 E.0104
M204 P1000
G1 X120.529 Y82.871 F9000
M204 P800
G1 F1200
G1 X120.655 Y82.696 E.00676
G1 X121.013 Y82.292 E.01692
G1 X121.648 Y81.745 E.02628
G1 X122.065 Y81.469 E.01568
G1 X122.591 Y81.195 E.0186
G1 X123.419 Y80.904 E.02752
G1 X124.171 Y80.767 E.02397
G1 X124.729 Y80.736 E.01752
G1 X125.336 Y80.77 E.01906
G1 X126.193 Y80.942 E.02741
G1 X126.623 Y81.09 E.01426
G1 X126.936 Y81.236 E.01083
G1 X141.532 Y81.236 E.45765
G1 X141.852 Y81.087 E.01107
G1 X142.399 Y80.91 E.01803
G1 X143.175 Y80.766 E.02475
G1 X143.918 Y80.739 E.02331
G1 X144.472 Y80.789 E.01744
G1 X144.983 Y80.887 E.01631
G1 X145.64 Y81.095 E.02161
G1 X146.26 Y81.386 E.02147
G1 X146.954 Y81.845 E.02609
G1 X147.494 Y82.332 E.0228
G1 X147.838 Y82.725 E.01638
G1 X148.162 Y83.182 E.01756
G1 X148.584 Y84.009 E.02911
G1 X148.797 Y84.66 E.02148
G1 X148.925 Y85.341 E.02173
G1 X148.961 Y86.064 E.0227
G1 X148.923 Y86.603 E.01694
G1 X148.815 Y87.198 E.01896
G1 X148.758 Y87.392 E.00634
G1 X148.758 Y92.333 E.15492
G1 X148.381 Y93.497 E.03836
G1 X148.012 Y93.989 E.01928
G1 X147.39 Y94.525 E.02574
G1 X146.994 Y94.724 E.0139
G1 X146.177 Y94.949 E.02657
G1 X137.191 Y94.956 E.28175
G1 X136.973 Y95.296 E.01266
G1 X136.537 Y95.766 E.0201
G1 X135.8 Y96.23 E.02731
G1 X135.008 Y96.434 E.02564
G1 X134.789 Y96.973 E.01824
G1 X134.307 Y97.632 E.0256
G1 X133.572 Y98.186 E.02886
G1 X132.729 Y98.477 E.02796
G1 X122.318 Y98.517 E.32643
G1 X121.152 Y98.14 E.03842
G1 X120.661 Y97.772 E.01924
G1 X120.125 Y97.149 E.02577
G1 X119.926 Y96.754 E.01387
G1 X119.694 Y95.887 E.02814
G1 X119.694 Y87.294 E.26943
G1 X119.581 Y86.838 E.01473
G1 X119.517 Y86.27 E.01792
G1 X119.525 Y85.529 E.02323
G1 X119.629 Y84.843 E.02175
G1 X119.821 Y84.181 E.02161
G1 X120.043 Y83.659 E.01779
G1 X120.341 Y83.131 E.01901
G1 X120.494 Y82.919 E.0082
M204 P1000
G1 X120.8 Y83.14 F9000
M204 P800
G1 F1200
G1 X120.955 Y82.924 E.00834
G1 X121.286 Y82.552 E.01561
G1 X121.866 Y82.052 E.02401
G1 X122.249 Y81.799 E.01439
G1 X122.752 Y81.536 E.0178
G1 X123.53 Y81.265 E.02583
G1 X124.203 Y81.142 E.02145
G1 X124.718 Y81.114 E.01617
G1 X125.302 Y81.146 E.01834
G1 X126.082 Y81.303 E.02495
G1 X126.491 Y81.443 E.01355
G1 X126.851 Y81.613 E.01248
G1 X141.616 Y81.613 E.46295
G1 X141.981 Y81.442 E.01264
G1 X142.482 Y81.278 E.01653
G1 X143.204 Y81.142 E.02304
G1 X143.897 Y81.115 E.02175
G1 X144.411 Y81.161 E.01618
G1 X144.881 Y81.251 E.015
G1 X145.491 Y81.442 E.02004
G1 X146.088 Y81.722 E.02068
G1 X146.733 Y82.151 E.02429
G1 X147.233 Y82.603 E.02113
G1 X147.547 Y82.965 E.01503
G1 X147.846 Y83.388 E.01624
G1 X148.23 Y84.141 E.0265
G1 X148.435 Y84.765 E.02059
G1 X148.552 Y85.397 E.02015
G1 X148.584 Y86.07 E.02113
G1 X148.548 Y86.565 E.01556
G1 X148.446 Y87.118 E.01763
G1 X148.38 Y87.335 E.00711
G1 X148.38 Y92.304 E.1558
G1 X148.059 Y93.298 E.03275
G1 X147.748 Y93.719 E.01641
G1 X147.196 Y94.201 E.02298
G1 X146.875 Y94.366 E.01132
G1 X146.102 Y94.579 E.02514
G1 X136.981 Y94.579 E.28598
G1 X136.682 Y95.056 E.01765
G1 X136.313 Y95.461 E.01718
G1 X135.626 Y95.894 E.02546
G1 X134.728 Y96.114 E.02899
G1 X134.468 Y96.774 E.02224
G1 X134.054 Y97.351 E.02227
G1 X133.419 Y97.84 E.02513
G1 X132.636 Y98.11 E.02597
G1 X122.347 Y98.14 E.32261
G1 X121.351 Y97.819 E.03281
G1 X120.931 Y97.507 E.0164
G1 X120.449 Y96.955 E.02298
G1 X120.284 Y96.634 E.01132
G1 X120.071 Y95.861 E.02514
G1 X120.071 Y87.247 E.27009
G1 X119.954 Y86.782 E.01503
G1 X119.894 Y86.261 E.01644
G1 X119.9 Y85.571 E.02164
G1 X119.995 Y84.935 E.02016
G1 X120.172 Y84.317 E.02016
G1 X120.377 Y83.835 E.01642
G1 X120.653 Y83.343 E.01769
G1 X120.765 Y83.188 E.006
M204 P1000
G1 X121.071 Y83.408 F9000
M204 P800
G1 F1200
G1 X121.244 Y83.167 E.0093
G1 X121.56 Y82.812 E.0149
G1 X122.085 Y82.359 E.02174
G1 X122.432 Y82.128 E.01307
G1 X122.915 Y81.877 E.01707
G1 X123.612 Y81.633 E.02315
G1 X124.237 Y81.518 E.01993
G1 X124.708 Y81.491 E.01479
G1 X125.267 Y81.522 E.01755
G1 X125.972 Y81.664 E.02255
G1 X126.358 Y81.796 E.01279
G1 X126.766 Y81.99 E.01417
G1 X141.702 Y81.99 E.46831
