; generated by PrusaSlicer 2.6.0-alpha3+MacOS-x64 on 2023-02-19 at 21:42:36 UTC


;
;

;
;
; 

; external perimeters extrusion width = 0.45mm
; perimeters extrusion width = 0.45mm
; infill extrusion width = 0.45mm
; solid infill extrusion width = 0.45mm
; top infill extrusion width = 0.40mm
; support material extrusion width = 0.35mm
; first layer extrusion width = 0.42mm

M73 P0 R106
M201 X2500 Y2500 Z400 E5000 ; sets maximum accelerations, mm/sec^2
M203 X180 Y180 Z12 E80 ; sets maximum feedrates, mm / sec
M204 P1250 R1250 T2500 ; sets acceleration (P, T) and retract acceleration (R), mm/sec^2
M205 X8.00 Y8.00 Z2.00 E10.00 ; sets the jerk limits, mm/sec
M205 S0 T0 ; sets the minimum extruding and travel feed rate, mm/sec
M107
;TYPE:Custom
M862.3 P "MINI" ; printer model check
G90 ; use absolute coordinates
M83 ; extruder relative mode
M104 S170 ; set extruder temp for bed leveling
M140 S100 ; set bed temp
M109 R170 ; wait for bed leveling temp
M190 S100 ; wait for bed temp
M204 T1250 ; set travel acceleration
G28 ; home all without mesh bed level
G29 ; mesh bed leveling 
M204 T2500 ; restore travel acceleration
M104 S290 ; set extruder temp
G92 E0
G1 Y-2 X179 F2400
G1 Z3 F720
M109 S290 ; wait for extruder temp

; intro line
G1 X170 F1000
G1 Z0.2 F720
M73 P0 R105
G1 X110 E8 F900
G1 X40 E10 F700
G92 E0

M221 S95 ; set flow
G21 ; set units to millimeters
G90 ; use absolute coordinates
M83 ; use relative distances for extrusion
M900 K0.2 ; Filament gcode
ENC O1 W0 S32 ; Set enclosure temperature
M107
;LAYER_CHANGE
;Z:0.2
;HEIGHT:0.2
;BEFORE_LAYER_CHANGE
G92 E0.0
;0.2


G1 E-3.2 F4200
G1 Z.2 F720
;AFTER_LAYER_CHANGE
;0.2
G1 Z.4
G1 X110.283 Y66.483 F9000
G1 Z.2 F720
G1 E3.2 F2400
M204 P800
;TYPE:Skirt/Brim
;WIDTH:0.42
G1 F1200
G1 X110.709 Y65.901 E.02194
G1 X112.709 Y63.901 E.08602
G1 X114.39 Y63.205 E.05533
G1 X155.44 Y63.206 E1.24848
G1 X156.678 Y63.42 E.03821
G1 X157.795 Y63.908 E.03707
G1 X158.793 Y64.673 E.03824
G1 X159.556 Y65.624 E.03708
G1 X159.996 Y66.512 E.03014
G1 X160.214 Y67.243 E.0232
G1 X161.028 Y72.3 E.15578
G1 X161.028 Y110.229 E1.15356
G1 X160.205 Y115.326 E.15703
G1 X159.873 Y116.311 E.03161
G1 X159.198 Y117.409 E.0392
G1 X158.291 Y118.289 E.03844
G1 X157.414 Y118.824 E.03124
G1 X156.448 Y119.173 E.03124
G1 X155.384 Y119.324 E.03268
G1 X114.39 Y119.324 E1.24678
G1 X112.709 Y118.628 E.05533
G1 X110.709 Y116.628 E.08602
G1 X110.177 Y115.814 E.02958
G1 X107.387 Y108.69 E.23269
G1 X107.223 Y107.823 E.02684
G1 X107.223 Y72.929 E1.06125
G1 X107.493 Y71.829 E.03445
G1 X110.255 Y66.536 E.18158
M204 P1000
; printing object rear body.stl id:0 copy 0
G1 E-2.24 F4200
;WIPE_START
G1 F7200
G1 X110.709 Y65.901 E-.43258
G1 X111.382 Y65.228 E-.52742
;WIPE_END
G1 Z.4 F720
G1 X111.91 Y74.23 F9000
G1 Z.2 F720
G1 E3.2 F2400
M204 P800
;TYPE:Support material
G1 F1200
G1 X112.191 Y74.511 E.01209
G1 X115.633 Y74.511 E.10468
G1 X115.633 Y81.974 E.22698
G1 X115.611 Y81.986 E.00076
G1 X114.959 Y82.166 E.02057
G1 X109.6 Y82.166 E.16299
G1 X109.6 Y72.929 E.28093
G1 X111.91 Y72.929 E.07026
G1 X111.91 Y74.173 E.03783
M204 P1000
G1 X114.991 Y81.981 F9000
M204 P800
G1 F1200
G1 X114.991 Y74.85 E.21688
G1 X114.572 Y74.85 E.01274
G1 X114.572 Y81.827 E.2122
G1 X114.153 Y81.827 E.01274
G1 X114.153 Y74.85 E.2122
G1 X113.734 Y74.85 E.01274
G1 X113.734 Y81.827 E.2122
G1 X113.315 Y81.827 E.01274
G1 X113.315 Y74.85 E.2122
G1 X112.896 Y74.85 E.01274
G1 X112.896 Y81.827 E.2122
G1 X112.477 Y81.827 E.01274
G1 X112.477 Y74.85 E.2122
G1 X112.058 Y74.85 E.01274
G1 X112.058 Y81.827 E.2122
G1 X111.639 Y81.827 E.01274
G1 X111.639 Y74.439 E.2247
G1 X111.571 Y74.37 E.00295
G1 X111.571 Y73.268 E.03352
G1 X111.22 Y73.268 E.01068
G1 X111.22 Y81.827 E.26031
G1 X110.801 Y81.827 E.01274
G1 X110.801 Y73.268 E.26031
G1 X110.382 Y73.268 E.01274
G1 X110.382 Y81.827 E.26031
G1 X109.963 Y81.827 E.01274
G1 X109.963 Y73.098 E.26548
M204 P1000
G1 E-2.24 F4200
;WIPE_START
G1 F7200
G1 X109.963 Y74.83 E-.96
;WIPE_END
G1 Z.4 F720
G1 X115.633 Y97.248 F9000
G1 Z.2 F720
G1 E3.2 F2400
M204 P800
G1 F1200
G1 X115.633 Y104.824 E.23041
G1 X112.191 Y104.824 E.10468
G1 X111.91 Y105.105 E.01209
G1 X111.91 Y107.823 E.08266
G1 X109.6 Y107.823 E.07026
G1 X109.6 Y97.168 E.32406
G1 X115.553 Y97.168 E.18105
G1 X115.593 Y97.208 E.00172
M204 P1000
G1 X114.991 Y104.654 F9000
M204 P800
G1 F1200
G1 X114.991 Y97.508 E.21734
G1 X114.572 Y97.508 E.01274
G1 X114.572 Y104.484 E.21217
G1 X114.153 Y104.484 E.01274
G1 X114.153 Y97.508 E.21217
G1 X113.734 Y97.508 E.01274
G1 X113.734 Y104.484 E.21217
G1 X113.315 Y104.484 E.01274
G1 X113.315 Y97.508 E.21217
G1 X112.896 Y97.508 E.01274
G1 X112.896 Y104.484 E.21217
G1 X112.477 Y104.484 E.01274
G1 X112.477 Y97.508 E.21217
G1 X112.058 Y97.508 E.01274
G1 X112.058 Y104.484 E.21217
G1 X111.639 Y104.896 E.01787
G1 X111.639 Y97.508 E.2247
G1 X111.22 Y97.508 E.01274
G1 X111.22 Y107.484 E.30341
G1 X110.801 Y107.484 E.01274
G1 X110.801 Y97.508 E.30341
G1 X110.382 Y97.508 E.01274
G1 X110.382 Y107.484 E.30341
G1 X109.963 Y107.484 E.01274
G1 X109.963 Y97.338 E.30858
M204 P1000
G1 E-2.24 F4200
;WIPE_START
G1 F7200
G1 X109.963 Y99.07 E-.96
;WIPE_END
G1 Z.4 F720
G1 X136.552 Y107.413 F9000
G1 Z.2 F720
G1 E3.2 F2400
M204 P800
;TYPE:Perimeter
;WIDTH:0.419999
G1 F1200
G1 X136.087 Y107.337 E.01433
G1 X135.521 Y107.283 E.01729
G1 X134.549 Y107.379 E.02971
G1 X134.175 Y107.288 E.01171
G1 X133.808 Y107.236 E.01127
G1 X133.128 Y107.26 E.02069
G1 X132.634 Y107.397 E.01559
G1 X131.97 Y107.278 E.02052
G1 X131.33 Y107.277 E.01946
G1 X130.821 Y107.399 E.01592
G1 X130.206 Y107.239 E.01933
G1 X129.647 Y107.177 E.01711
G1 X129.008 Y107.167 E.01944
G1 X128.692 Y107.195 E.00965
G1 X128.321 Y107.344 E.01216
G1 X128.028 Y107.214 E.00975
G1 X127.675 Y107.166 E.01083
G1 X125.599 Y107.18 E.06314
G1 X125.155 Y107.329 E.01424
G1 X124.812 Y107.6 E.01329
G1 X124.609 Y107.897 E.01094
G1 X122.263 Y112.619 E.16036
G1 X122.179 Y113.043 E.01315
G1 X122.202 Y113.334 E.00888
G1 X122.316 Y113.672 E.01085
G1 X122.567 Y114.02 E.01305
G1 X122.975 Y114.296 E.01498
G1 X123.498 Y114.404 E.01624
G1 X125.579 Y114.404 E.06329
G1 X125.807 Y114.384 E.00696
G1 X126.166 Y114.266 E.01149
G1 X126.413 Y114.107 E.00893
G1 X126.696 Y114.263 E.00983
G1 X127.378 Y114.391 E.0211
G1 X127.927 Y114.346 E.01675
G1 X128.355 Y114.252 E.01333
G1 X128.884 Y114.212 E.01613
G1 X129.371 Y114.337 E.01529
G1 X130.036 Y114.4 E.02032
G1 X131.065 Y114.358 E.03132
G1 X131.24 Y114.34 E.00535
G1 X131.499 Y114.259 E.00825
G1 X131.84 Y114.342 E.01067
G1 X132.412 Y114.391 E.01746
G1 X132.972 Y114.41 E.01704
G1 X134.07 Y114.405 E.03339
G1 X134.292 Y114.385 E.00678
G1 X134.689 Y114.248 E.01277
G1 X135.122 Y113.875 E.01738
G1 X135.354 Y113.467 E.01427
G1 X135.879 Y113.49 E.01598
G1 X136.841 Y113.338 E.02962
G1 X137.219 Y113.347 E.0115
G1 X137.994 Y113.321 E.02358
G1 X138.651 Y113.162 E.02056
G1 X138.984 Y113.287 E.01082
G1 X139.612 Y113.452 E.01975
G1 X140.436 Y113.497 E.0251
G1 X140.808 Y113.465 E.01136
G1 X141.333 Y113.342 E.0164
G1 X141.687 Y113.203 E.01157
G1 X142.115 Y112.933 E.01539
G1 X142.309 Y113.081 E.00742
G1 X142.694 Y113.286 E.01327
G1 X143.276 Y113.436 E.01828
G1 X144.099 Y113.494 E.02509
G1 X144.493 Y113.468 E.01201
G1 X145.299 Y113.348 E.02478
G1 X145.388 Y113.704 E.01116
G1 X145.538 Y114.064 E.01186
G1 X146.104 Y114.952 E.03203
G1 X146.518 Y115.406 E.01869
G1 X115.563 Y115.406 E.94145
G1 X115.303 Y114.942 E.01618
G1 X114.894 Y114.443 E.01962
G1 X114.395 Y114.034 E.01962
G1 X113.931 Y113.774 E.01618
G1 X113.931 Y106.845 E.21074
G1 X116.334 Y106.845 E.07308
G1 X116.788 Y106.764 E.01403
G1 X117.043 Y106.638 E.00865
G1 X117.372 Y106.341 E.01348
G1 X117.588 Y105.936 E.01396
G1 X117.654 Y105.525 E.01266
G1 X117.654 Y76.755 E.875
G1 X119.807 Y79.339 E.10229
G1 X120.09 Y79.593 E.01157
G1 X120.476 Y79.768 E.01289
G1 X120.905 Y79.811 E.01311
G1 X121.168 Y79.767 E.00811
G1 X122.41 Y79.428 E.03916
G1 X122.076 Y80.003 E.02022
G1 X121.899 Y80.488 E.0157
G1 X121.829 Y80.785 E.00928
G1 X121.76 Y81.445 E.02018
G1 X121.76 Y98.071 E.50566
G1 X121.769 Y98.225 E.00469
G1 X121.899 Y99.028 E.02474
G1 X122.213 Y99.787 E.02498
G1 X122.694 Y100.453 E.02499
G1 X123.315 Y100.99 E.02497
G1 X123.762 Y101.248 E.0157
G1 X124.043 Y101.369 E.0093
G1 X124.537 Y101.517 E.01568
G1 X124.839 Y101.57 E.00933
G1 X125.354 Y101.6 E.01569
G1 X125.66 Y101.583 E.00932
G1 X126.461 Y101.405 E.02496
G1 X126.935 Y101.201 E.01569
G1 X127.201 Y101.048 E.00933
G1 X127.614 Y100.739 E.01569
G1 X127.837 Y100.529 E.00932
G1 X128.169 Y100.134 E.01569
G1 X128.346 Y99.861 E.0099
G1 X128.674 Y99.129 E.0244
G1 X128.792 Y98.627 E.01568
G1 X128.828 Y98.071 E.01695
;WIDTH:0.39023
G1 X128.828 Y81.445 E.46574
;WIDTH:0.400423
G1 X128.824 Y81.292 E.00441
;WIDTH:0.419999
G1 X128.774 Y80.785 E.01549
G1 X128.704 Y80.488 E.00928
G1 X128.463 Y79.856 E.02057
G1 X128.12 Y79.319 E.01938
G1 X127.805 Y78.965 E.01441
G1 X127.284 Y78.524 E.02076
G1 X126.552 Y78.145 E.02507
G1 X125.772 Y77.945 E.02449
G1 X127.246 Y76.991 E.0534
G1 X127.484 Y76.794 E.0094
G1 X127.71 Y76.472 E.01196
G1 X127.843 Y76.004 E.0148
G1 X127.806 Y75.552 E.01379
G1 X127.753 Y75.379 E.0055
G1 X127.833 Y75.443 E.00312
G1 X128.293 Y75.712 E.01621
G1 X128.775 Y75.783 E.01482
G1 X129.108 Y75.726 E.01028
G1 X129.439 Y75.572 E.0111
G1 X130.061 Y75.17 E.02252
G1 X130.439 Y74.886 E.01438
G1 X130.649 Y74.604 E.01069
G1 X130.8 Y74.167 E.01406
G1 X130.786 Y73.686 E.01464
G1 X130.644 Y73.026 E.02053
G1 X135.323 Y73.026 E.14231
G1 X135.732 Y72.96 E.0126
G1 X136.083 Y72.785 E.01193
G1 X136.305 Y72.588 E.00903
G1 X136.543 Y72.209 E.01361
G1 X136.643 Y71.706 E.0156
G1 X136.643 Y69.063 E.08038
G1 X136.59 Y68.693 E.01137
G1 X136.379 Y68.271 E.01435
G1 X135.944 Y67.898 E.01743
;WIDTH:0.460726
G1 X135.737 Y67.826 E.00739
;WIDTH:0.501453
G1 X135.53 Y67.754 E.00811
;WIDTH:0.54218
G1 X135.323 Y67.682 E.00883
G1 X130.08 Y67.682 E.21113
;WIDTH:0.554007
G1 X129.84 Y67.697 E.00991
G1 X129.622 Y67.829 E.01051
;WIDTH:0.509338
G1 X129.403 Y67.961 E.00962
;WIDTH:0.464669
G1 X129.184 Y68.094 E.00872
;WIDTH:0.419999
G1 X128.954 Y68.407 E.01181
G1 X128.618 Y68.21 E.01185
G1 X128.234 Y68.136 E.01189
G1 X127.807 Y68.186 E.01308
G1 X127.876 Y68.066 E.00421
G1 X128.039 Y67.581 E.01556
G1 X127.97 Y67.123 E.01409
G1 X128.805 Y67.123 E.0254
;WIDTH:0.43436
G1 X129.442 Y67.13 E.02011
;WIDTH:0.474243
G1 X129.56 Y67.15 E.00416
;WIDTH:0.514125
G1 X129.678 Y67.17 E.00455
;WIDTH:0.554007
G1 X129.796 Y67.19 E.00493
G1 X130.08 Y67.184 E.01171
;WIDTH:0.54218
G1 X135.323 Y67.183 E.21113
G1 X135.595 Y67.162 E.01099
;WIDTH:0.501453
G1 X135.866 Y67.142 E.01005
;WIDTH:0.460726
G1 X136.138 Y67.122 E.00919
;WIDTH:0.419999
G1 X148.264 Y67.119 E.3688
;WIDTH:0.465306
G1 X148.441 Y67.142 E.00608
;WIDTH:0.510612
G1 X148.618 Y67.164 E.00673
;WIDTH:0.555918
G1 X148.796 Y67.187 E.00743
G1 X149.08 Y67.181 E.01175
;WIDTH:0.544076
G1 X154.323 Y67.18 E.21193
G1 X154.585 Y67.159 E.01062
;WIDTH:0.502717
G1 X154.847 Y67.138 E.00975
;WIDTH:0.461358
G1 X155.109 Y67.118 E.00887
;WIDTH:0.419999
G1 X155.541 Y67.186 E.0133
G1 X155.755 Y67.265 E.00694
G1 X156.122 Y67.565 E.01442
G1 X156.34 Y67.971 E.01402
G1 X156.404 Y68.227 E.00803
G1 X156.416 Y71.702 E.10569
G1 X156.472 Y72.079 E.01159
G1 X156.846 Y72.674 E.02137
G1 X155.206 Y72.674 E.04988
G1 X155.588 Y72.081 E.02145
G1 X155.643 Y71.706 E.01153
G1 X155.643 Y69.058 E.08054
G1 X155.508 Y68.481 E.01802
G1 X155.294 Y68.169 E.01151
G1 X154.924 Y67.888 E.01413
;WIDTH:0.461358
G1 X154.723 Y67.819 E.00717
;WIDTH:0.502717
G1 X154.523 Y67.75 E.00785
;WIDTH:0.544076
G1 X154.323 Y67.681 E.00855
G1 X149.08 Y67.681 E.21193
;WIDTH:0.555918
G1 X148.84 Y67.696 E.00995
G1 X148.713 Y67.764 E.00596
;WIDTH:0.510612
G1 X148.586 Y67.831 E.00542
;WIDTH:0.465306
G1 X148.459 Y67.898 E.00489
;WIDTH:0.419999
G1 X148.024 Y68.271 E.01743
G1 X147.813 Y68.693 E.01435
G1 X147.76 Y69.063 E.01137
G1 X147.76 Y71.706 E.08038
G1 X147.862 Y72.213 E.01573
G1 X148.22 Y72.674 E.01775
G1 X139.735 Y72.674 E.25806
G1 X139.321 Y72.741 E.01276
G1 X138.975 Y72.915 E.01178
G1 X138.754 Y73.112 E.009
G1 X138.515 Y73.491 E.01363
G1 X138.416 Y73.994 E.01559
G1 X138.424 Y80.089 E.18537
G1 X138.567 Y80.551 E.01471
G1 X138.844 Y80.91 E.01379
G1 X139.321 Y81.19 E.01682
;WIDTH:0.419342
G1 X139.735 Y81.25 E.0127
;WIDTH:0.406386
G1 X140.403 Y81.245 E.01958
;WIDTH:0.417298
G1 X140.925 Y81.255 E.01577
;WIDTH:0.419999
G1 X147.029 Y81.251 E.18564
;WIDTH:0.408178
G1 X147.803 Y81.245 E.0228
;WIDTH:0.417298
G1 X148.325 Y81.255 E.01577
;WIDTH:0.419999
G1 X156.416 Y81.257 E.24608
G1 X156.416 Y98.078 E.51159
G1 X149.247 Y98.078 E.21804
;WIDTH:0.454472
G1 X148.731 Y98.06 E.01714
;WIDTH:0.497667
G1 X148.663 Y98.039 E.00261
;WIDTH:0.540861
G1 X148.594 Y98.017 E.00291
;WIDTH:0.584056
G1 X148.526 Y97.996 E.00311
;WIDTH:0.62725
G1 X148.458 Y97.974 E.00337
;WIDTH:0.670444
G1 X148.39 Y97.952 E.00362
G1 X148.445 Y97.913 E.00341
;WIDTH:0.62725
G1 X148.501 Y97.874 E.00322
;WIDTH:0.584056
G1 X148.557 Y97.835 E.00298
;WIDTH:0.540861
G1 X148.613 Y97.796 E.00274
;WIDTH:0.497667
G1 X148.668 Y97.757 E.00247
;WIDTH:0.454472
G1 X149.401 Y97.384 E.0273
;WIDTH:0.419999
G1 X150.037 Y96.865 E.02497
G1 X150.537 Y96.214 E.02497
G1 X150.874 Y95.465 E.02498
G1 X150.993 Y94.963 E.01569
G1 X151.043 Y94.407 E.01698
G1 X151.034 Y84.955 E.28747
G1 X150.904 Y84.152 E.02474
G1 X150.59 Y83.393 E.02498
G1 X150.103 Y82.721 E.02524
G1 X149.469 Y82.178 E.02539
G1 X148.76 Y81.811 E.02428
G1 X148.04 Y81.621 E.02265
;WIDTH:0.411984
G1 X147.555 Y81.593 E.01446
;WIDTH:0.408178
G1 X147.039 Y81.616 E.01522
;WIDTH:0.419028
G1 X146.737 Y81.664 E.00928
;WIDTH:0.419999
G1 X145.961 Y81.932 E.02497
G1 X145.269 Y82.373 E.02496
G1 X144.697 Y82.962 E.02497
G1 X144.413 Y83.393 E.0157
G1 X144.276 Y83.667 E.00932
G1 X144.029 Y84.449 E.02494
G1 X143.975 Y85.109 E.02014
;WIDTH:0.390231
G1 X143.975 Y94.407 E.26046
;WIDTH:0.392736
G1 X143.976 Y94.483 E.00214
;WIDTH:0.419999
G1 X144.019 Y94.988 E.01541
G1 X144.122 Y95.427 E.01371
G1 X144.424 Y96.139 E.02352
G1 X144.894 Y96.789 E.0244
G1 X145.515 Y97.326 E.02497
G1 X146.243 Y97.705 E.02496
;WIDTH:0.462821
G1 X146.441 Y97.777 E.00714
;WIDTH:0.505642
G1 X146.638 Y97.849 E.00783
;WIDTH:0.548463
G1 X146.836 Y97.92 E.00858
;WIDTH:0.591284
G1 X147.034 Y97.992 E.00932
G1 X146.924 Y98.016 E.00498
;WIDTH:0.544048
G1 X146.814 Y98.039 E.00454
;WIDTH:0.496812
G1 X146.704 Y98.063 E.00412
;WIDTH:0.449575
G1 X146.188 Y98.078 E.01693
;WIDTH:0.419999
G1 X141.847 Y98.078 E.13203
;WIDTH:0.454474
G1 X141.331 Y98.06 E.01714
;WIDTH:0.497668
G1 X141.263 Y98.039 E.00261
;WIDTH:0.540862
G1 X141.194 Y98.017 E.00291
;WIDTH:0.584055
G1 X141.126 Y97.996 E.00311
;WIDTH:0.627249
G1 X141.058 Y97.974 E.00337
;WIDTH:0.670442
G1 X140.99 Y97.952 E.00362
G1 X141.045 Y97.913 E.00341
;WIDTH:0.627249
G1 X141.101 Y97.874 E.00322
;WIDTH:0.584055
G1 X141.157 Y97.835 E.00298
;WIDTH:0.540862
G1 X141.213 Y97.796 E.00274
;WIDTH:0.497668
G1 X141.268 Y97.757 E.00247
;WIDTH:0.454474
G1 X142.001 Y97.384 E.0273
;WIDTH:0.419999
G1 X142.637 Y96.865 E.02497
G1 X142.969 Y96.47 E.01569
G1 X143.146 Y96.197 E.0099
G1 X143.474 Y95.465 E.0244
G1 X143.593 Y94.963 E.01569
G1 X143.628 Y94.407 E.01694
;WIDTH:0.390231
G1 X143.628 Y85.109 E.26046
;WIDTH:0.400423
G1 X143.624 Y84.956 E.00441
;WIDTH:0.419999
G1 X143.574 Y84.449 E.01549
G1 X143.504 Y84.152 E.00928
G1 X143.327 Y83.667 E.0157
G1 X143.19 Y83.393 E.00932
G1 X142.703 Y82.721 E.02524
G1 X142.069 Y82.178 E.02539
G1 X141.36 Y81.811 E.02428
G1 X140.64 Y81.621 E.02265
;WIDTH:0.411984
G1 X140.146 Y81.594 E.01473
;WIDTH:0.413893
G1 X139.611 Y81.618 E.01602
;WIDTH:0.419999
G1 X138.84 Y81.812 E.02418
G1 X138.562 Y81.932 E.00921
G1 X138.115 Y82.19 E.0157
G1 X137.869 Y82.373 E.00932
G1 X137.297 Y82.962 E.02497
G1 X136.876 Y83.667 E.02497
;WIDTH:0.425161
G1 X136.626 Y84.449 E.02531
G1 X136.575 Y85.109 E.02041
;WIDTH:0.390223
G1 X136.575 Y94.407 E.26046
;WIDTH:0.395301
G1 X136.582 Y94.56 E.00435
;WIDTH:0.425162
G1 X136.626 Y95.068 E.01572
G1 X136.698 Y95.365 E.00942
;WIDTH:0.42366
G1 X137.013 Y96.123 E.02521
;WIDTH:0.419999
G1 X137.494 Y96.789 E.02499
G1 X137.869 Y97.143 E.01568
G1 X138.115 Y97.326 E.00932
G1 X138.562 Y97.584 E.0157
