; generated by PrusaSlicer 2.6.0-alpha3+MacOS-x64 on 2023-02-14 at 03:17:29 UTC


;
;

;
;
; 

; external perimeters extrusion width = 0.45mm
; perimeters extrusion width = 0.45mm
; infill extrusion width = 0.45mm
; solid infill extrusion width = 0.45mm
; top infill extrusion width = 0.40mm
; first layer extrusion width = 0.42mm

M73 P0 R4
M201 X2500 Y2500 Z400 E5000 ; sets maximum accelerations, mm/sec^2
M203 X180 Y180 Z12 E80 ; sets maximum feedrates, mm / sec
M204 P1250 R1250 T2500 ; sets acceleration (P, T) and retract acceleration (R), mm/sec^2
M205 X8.00 Y8.00 Z2.00 E10.00 ; sets the jerk limits, mm/sec
M205 S0 T0 ; sets the minimum extruding and travel feed rate, mm/sec
M107
;TYPE:Custom
M862.3 P "MINI" ; printer model check
G90 ; use absolute coordinates
M83 ; extruder relative mode
M104 S170 ; set extruder temp for bed leveling
M140 S75 ; set bed temp
M109 R170 ; wait for bed leveling temp
M190 S75 ; wait for bed temp
M204 T1250 ; set travel acceleration
G28 ; home all without mesh bed level
G29 ; mesh bed leveling 
M204 T2500 ; restore travel acceleration
M104 S215 ; set extruder temp
G92 E0
G1 Y-2 X179 F2400
G1 Z3 F720
M109 S215 ; wait for extruder temp

; intro line
M73 P1 R4
G1 X170 F1000
G1 Z0.2 F720
G1 X110 E8 F900
G1 X40 E10 F700
G92 E0

M221 S95 ; set flow
G21 ; set units to millimeters
G90 ; use absolute coordinates
M83 ; use relative distances for extrusion
M900 K0.2 ; Filament gcode LA 1.5
; ; Filament gcode LA 1.0
M107
;LAYER_CHANGE
;Z:0.2
;HEIGHT:0.2
;BEFORE_LAYER_CHANGE
G92 E0.0
;0.2


M73 P3 R4
G1 E-3.2 F4200
M73 P5 R4
G1 Z.2 F720
;AFTER_LAYER_CHANGE
;0.2
G1 Z.4
G1 X126.085 Y84.211 F9000
G1 Z.2 F720
G1 E3.2 F2400
M204 P800
;TYPE:Skirt/Brim
;WIDTH:0.42
G1 F1200
G1 X126.72 Y83.349 E.03357
G1 X127.487 Y82.506 E.03573
G1 X128.231 Y81.836 E.03139
G1 X129.093 Y81.201 E.03357
G1 X130.015 Y80.656 E.03358
G1 X130.986 Y80.206 E.03356
G1 X131.998 Y79.855 E.03358
G1 X133.04 Y79.608 E.03358
G1 X135.07 Y79.432 E.06389
G1 X136.112 Y79.493 E.03273
G1 X137.169 Y79.66 E.03355
M73 P6 R4
G1 X138.204 Y79.933 E.03356
G1 X139.207 Y80.309 E.03359
G1 X140.167 Y80.783 E.03357
G1 X141.074 Y81.351 E.03355
G1 X141.92 Y82.008 E.03359
G1 X142.648 Y82.696 E.03141
G1 X143.822 Y84.152 E.05864
G1 X144.34 Y85.009 E.0314
G1 X144.829 Y86.039 E.03575
G1 X145.165 Y86.982 E.03139
G1 X145.425 Y88.021 E.03358
G1 X145.58 Y89.08 E.03356
G1 X145.627 Y90.15 E.03358
G1 X145.425 Y92.151 E.06306
G1 X145.165 Y93.189 E.03355
G1 X144.802 Y94.197 E.03359
G1 X144.34 Y95.162 E.03355
G1 X143.783 Y96.077 E.03359
G1 X143.138 Y96.931 E.03356
G1 X142.459 Y97.667 E.0314
G1 X141.606 Y98.423 E.03574
G1 X140.794 Y99.009 E.0314
G1 X139.143 Y99.89 E.05867
G1 X138.204 Y100.238 E.0314
G1 X137.169 Y100.511 E.03356
G1 X136.112 Y100.679 E.03356
G1 X134.974 Y100.74 E.03573
G1 X133.973 Y100.693 E.03142
G1 X132.914 Y100.539 E.03355
G1 X131.875 Y100.28 E.03357
G1 X130.868 Y99.917 E.03356
G1 X129.902 Y99.456 E.03356
G1 X128.987 Y98.899 E.03359
G1 X128.133 Y98.254 E.03356
G1 X127.347 Y97.526 E.03359
G1 X126.085 Y95.961 E.06304
G1 X125.54 Y95.039 E.03358
G1 X125.091 Y94.068 E.03354
G1 X124.741 Y93.056 E.03357
G1 X124.495 Y92.014 E.03357
G1 X124.354 Y90.952 E.03359
G1 X124.32 Y89.951 E.0314
G1 X124.395 Y88.814 E.03573
G1 X124.561 Y87.827 E.03138
G1 X125.117 Y86.04 E.05868
G1 X125.54 Y85.133 E.03138
G1 X126.054 Y84.263 E.03168
M204 P1000
G1 X126.389 Y84.439 F9000
M204 P800
G1 F1200
G1 X127.013 Y83.585 E.03316
G1 X127.748 Y82.777 E.03425
M73 P7 R4
G1 X129.303 Y81.514 E.06281
G1 X130.192 Y80.988 E.03239
G1 X131.129 Y80.554 E.03238
G1 X132.105 Y80.217 E.03237
G1 X133.11 Y79.979 E.03238
G1 X135.065 Y79.809 E.06153
G1 X136.069 Y79.867 E.03153
G1 X137.089 Y80.029 E.03238
G1 X138.088 Y80.292 E.03239
G1 X139.055 Y80.654 E.03237
G1 X139.981 Y81.111 E.03238
G1 X140.856 Y81.659 E.03237
G1 X142.379 Y82.961 E.06282
G1 X143.506 Y84.358 E.05628
G1 X144.01 Y85.191 E.03053
G1 X144.478 Y86.178 E.03425
G1 X145.056 Y88.096 E.06281
G1 X145.205 Y89.118 E.03238
G1 X145.25 Y90.15 E.03239
G1 X145.056 Y92.076 E.06069
G1 X144.805 Y93.077 E.03236
G1 X144.455 Y94.049 E.03239
G1 X144.01 Y94.981 E.03238
G1 X143.473 Y95.863 E.03238
G1 X142.19 Y97.402 E.06282
G1 X141.373 Y98.127 E.03425
G1 X140.584 Y98.696 E.0305
G1 X139 Y99.541 E.05629
G1 X137.089 Y100.143 E.06282
G1 X136.069 Y100.304 E.03238
G1 X134.978 Y100.363 E.03426
G1 X132.984 Y100.169 E.06282
G1 X131.983 Y99.918 E.03236
G1 X131.011 Y99.569 E.03238
G1 X130.079 Y99.123 E.0324
G1 X129.197 Y98.586 E.03238
G1 X128.373 Y97.964 E.03237
G1 X127.616 Y97.261 E.03239
G1 X126.401 Y95.755 E.06067
G1 X125.875 Y94.866 E.03239
G1 X125.441 Y93.929 E.03238
G1 X125.104 Y92.953 E.03237
G1 X124.866 Y91.948 E.03238
G1 X124.697 Y89.951 E.06284
G1 X124.769 Y88.861 E.03425
M73 P8 R4
G1 X124.931 Y87.902 E.03049
G1 X125.464 Y86.188 E.05628
G1 X126.361 Y84.493 E.06013
M204 P1000
G1 E-2.24 F4200
;WIPE_START
G1 F7200
G1 X127.013 Y83.585 E-.61947
G1 X127.426 Y83.13 E-.34053
;WIPE_END
G1 Z.4 F720
G1 X128.598 Y85.942 F9000
G1 Z.2 F720
G1 E3.2 F2400
M204 P800
G1 F1200
G1 X128.798 Y85.632 E.01157
G1 X129.26 Y85.053 E.02323
G1 X129.789 Y84.51 E.02377
G1 X130.342 Y84.043 E.02269
G1 X130.938 Y83.627 E.02279
G1 X132.21 Y82.99 E.0446
G1 X132.957 Y82.745 E.02465
G1 X133.703 Y82.579 E.02396
G1 X134.465 Y82.49 E.02405
G1 X135.245 Y82.477 E.02446
G1 X135.979 Y82.539 E.0231
G1 X136.729 Y82.678 E.02392
G1 X137.442 Y82.884 E.02327
G1 X138.129 Y83.157 E.02318
G1 X138.787 Y83.497 E.02322
G1 X139.423 Y83.909 E.02376
G1 X140.003 Y84.371 E.02325
G1 X140.546 Y84.899 E.02375
G1 X141.023 Y85.464 E.02318
G1 X141.454 Y86.091 E.02386
G1 X141.812 Y86.74 E.02324
G1 X142.104 Y87.419 E.02317
G1 X142.329 Y88.124 E.0232
G1 X142.485 Y88.848 E.02322
G1 X142.571 Y89.601 E.02376
G1 X142.584 Y90.339 E.02314
G1 X142.405 Y91.745 E.04444
G1 X142.192 Y92.504 E.02472
G1 X141.905 Y93.235 E.02462
G1 X141.564 Y93.898 E.02338
G1 X141.16 Y94.522 E.02331
G1 X140.698 Y95.105 E.02332
G1 X140.17 Y95.65 E.02379
G1 X139.608 Y96.125 E.02307
G1 X138.986 Y96.556 E.02373
G1 X138.328 Y96.92 E.02358
G1 X137.653 Y97.212 E.02306
G1 X136.933 Y97.443 E.02371
G1 X136.199 Y97.6 E.02353
G1 X135.469 Y97.683 E.02304
G1 X134.711 Y97.695 E.02377
G1 X133.97 Y97.633 E.02331
G1 X133.237 Y97.499 E.02336
G1 X132.504 Y97.287 E.02392
G1 X131.813 Y97.012 E.02332
G1 X131.136 Y96.662 E.0239
G1 X130.514 Y96.257 E.02327
G1 X129.92 Y95.78 E.02389
G1 X129.384 Y95.258 E.02346
G1 X128.51 Y94.112 E.04519
G1 X128.136 Y93.436 E.02422
G1 X127.83 Y92.721 E.02439
G1 X127.61 Y92.021 E.02301
G1 X127.459 Y91.308 E.02285
G1 X127.376 Y90.578 E.02304
G1 X127.364 Y89.819 E.0238
G1 X127.429 Y89.064 E.02376
M73 P9 R4
G1 X127.563 Y88.34 E.02309
G1 X127.773 Y87.611 E.02379
G1 X128.047 Y86.926 E.02313
G1 X128.385 Y86.27 E.02314
G1 X128.565 Y85.992 E.01038
M204 P1000
G1 X128.882 Y86.197 F9000
M204 P800
G1 F1200
G1 X129.099 Y85.86 E.01257
G1 X129.538 Y85.309 E.02209
G1 X130.04 Y84.792 E.02259
G1 X130.578 Y84.337 E.02209
G1 X131.142 Y83.945 E.02154
G1 X132.342 Y83.343 E.04209
G1 X133.048 Y83.11 E.02331
G1 X133.757 Y82.953 E.02277
G1 X134.481 Y82.866 E.02286
G1 X135.223 Y82.854 E.02327
G1 X135.921 Y82.912 E.02196
G1 X136.634 Y83.043 E.02273
G1 X137.312 Y83.238 E.02212
G1 X137.965 Y83.497 E.02203
G1 X138.59 Y83.819 E.02204
G1 X139.196 Y84.21 E.02261
G1 X139.747 Y84.648 E.02207
G1 X140.265 Y85.15 E.02262
G1 X140.718 Y85.686 E.022
G1 X141.129 Y86.281 E.02267
G1 X141.469 Y86.898 E.02209
G1 X141.748 Y87.543 E.02203
G1 X141.963 Y88.213 E.02206
G1 X142.112 Y88.901 E.02207
G1 X142.194 Y89.617 E.0226
G1 X142.207 Y90.332 E.02242
G1 X142.038 Y91.657 E.04188
G1 X141.837 Y92.376 E.02341
G1 X141.565 Y93.071 E.0234
G1 X141.233 Y93.717 E.02277
G1 X140.849 Y94.31 E.02215
G1 X140.409 Y94.863 E.02216
G1 X139.906 Y95.38 E.02262
G1 X139.372 Y95.831 E.02192
G1 X138.78 Y96.24 E.02256
G1 X138.154 Y96.586 E.02243
G1 X137.512 Y96.862 E.02191
G1 X136.827 Y97.081 E.02255
G1 X136.147 Y97.226 E.0218
G1 X135.454 Y97.306 E.02187
G1 X134.733 Y97.318 E.02261
G1 X134.01 Y97.258 E.02275
G1 X133.315 Y97.129 E.02216
G1 X132.617 Y96.928 E.02277
G1 X131.962 Y96.666 E.02212
G1 X131.319 Y96.331 E.02273
G1 X130.728 Y95.946 E.02212
G1 X130.163 Y95.492 E.02273
G1 X129.657 Y94.998 E.02217
G1 X128.833 Y93.918 E.04259
G1 X128.471 Y93.262 E.02349
G1 X128.187 Y92.598 E.02264
G1 X127.977 Y91.934 E.02184
G1 X127.832 Y91.256 E.02174
G1 X127.753 Y90.563 E.02187
G1 X127.741 Y89.841 E.02264
G1 X127.801 Y89.123 E.02259
G1 X127.928 Y88.435 E.02194
G1 X128.127 Y87.742 E.02261
G1 X128.386 Y87.09 E.022
G1 X128.707 Y86.466 E.022
G1 X128.849 Y86.247 E.00818
M204 P1000
G1 X129.166 Y86.451 F9000
M204 P800
G1 F1200
G1 X129.401 Y86.087 E.01358
G1 X129.815 Y85.565 E.02089
G1 X130.291 Y85.073 E.02146
G1 X130.801 Y84.642 E.02094
G1 X131.347 Y84.262 E.02086
G1 X132.473 Y83.697 E.0395
G1 X133.14 Y83.476 E.02203
G1 X133.812 Y83.326 E.02159
G1 X134.497 Y83.243 E.02163
G1 X135.202 Y83.23 E.02211
G1 X135.862 Y83.285 E.02077
M73 P10 R4
G1 X136.538 Y83.408 E.02154
G1 X137.199 Y83.598 E.02156
G1 X137.817 Y83.844 E.02086
G1 X138.409 Y84.149 E.02088
G1 X138.983 Y84.521 E.02145
G1 X139.505 Y84.937 E.02093
G1 X139.995 Y85.414 E.02144
G1 X140.424 Y85.922 E.02085
G1 X140.812 Y86.487 E.02149
G1 X141.134 Y87.071 E.02091
G1 X141.398 Y87.683 E.0209
G1 X141.601 Y88.319 E.02093
G1 X141.741 Y88.971 E.02091
G1 X141.818 Y89.65 E.02143
G1 X141.83 Y90.325 E.02117
G1 X141.671 Y91.569 E.03932
G1 X141.483 Y92.248 E.02209
G1 X141.225 Y92.908 E.02222
G1 X140.911 Y93.52 E.02157
G1 X140.548 Y94.083 E.021
G1 X140.131 Y94.607 E.021
G1 X139.655 Y95.099 E.02146
G1 X139.15 Y95.527 E.02076
G1 X138.589 Y95.915 E.02139
G1 X137.995 Y96.243 E.02128
G1 X137.388 Y96.506 E.02074
G1 X136.738 Y96.714 E.0214
G1 X136.094 Y96.853 E.02066
G1 X135.437 Y96.929 E.02074
G1 X134.755 Y96.942 E.02139
G1 X134.069 Y96.885 E.02158
G1 X133.41 Y96.764 E.02101
G1 X132.748 Y96.574 E.02159
G1 X132.127 Y96.327 E.02095
G1 X131.516 Y96.01 E.02158
G1 X130.956 Y95.646 E.02094
G1 X130.42 Y95.216 E.02155
G1 X129.93 Y94.738 E.02146
G1 X129.156 Y93.723 E.04002
G1 X128.814 Y93.104 E.02217
G1 X128.543 Y92.475 E.02147
G1 X128.343 Y91.845 E.02072
G1 X128.206 Y91.203 E.02058
G1 X128.13 Y90.547 E.02071
G1 X128.118 Y89.863 E.02145
G1 X128.174 Y89.181 E.02146
G1 X128.293 Y88.53 E.02075
G1 X128.481 Y87.872 E.02146
G1 X128.726 Y87.254 E.02084
G1 X129.029 Y86.662 E.02085
G1 X129.133 Y86.501 E.00601
M204 P1000
G1 X129.45 Y86.705 F9000
M204 P800
G1 F1200
G1 X129.702 Y86.313 E.01461
G1 X130.093 Y85.82 E.01973
G1 X130.542 Y85.355 E.02027
G1 X131.024 Y84.946 E.01982
G1 X131.551 Y84.579 E.02014
G1 X132.605 Y84.05 E.03698
G1 X133.232 Y83.842 E.02071
G1 X133.867 Y83.699 E.02041
G1 X134.515 Y83.62 E.02047
G1 X135.181 Y83.607 E.02089
G1 X135.805 Y83.657 E.01963
G1 X136.444 Y83.773 E.02036
G1 X137.068 Y83.952 E.02035
G1 X137.653 Y84.184 E.01973
G1 X138.212 Y84.471 E.0197
G1 X138.756 Y84.822 E.0203
G1 X139.249 Y85.214 E.01975
G1 X139.713 Y85.664 E.02027
G1 X140.119 Y86.144 E.01971
G1 X140.487 Y86.678 E.02033
G1 X140.792 Y87.229 E.01975
G1 X141.048 Y87.824 E.02031
G1 X141.239 Y88.424 E.01974
G1 X141.37 Y89.04 E.01975
G1 X141.443 Y89.683 E.02029
G1 X141.452 Y90.317 E.01988
G1 X141.304 Y91.481 E.03679
G1 X141.122 Y92.138 E.02138
G1 X140.885 Y92.744 E.0204
G1 X140.588 Y93.324 E.02043
G1 X140.246 Y93.856 E.01983
G1 X139.842 Y94.365 E.02038
M73 P11 R4
G1 X139.391 Y94.829 E.02029
G1 X138.914 Y95.233 E.0196
G1 X138.383 Y95.599 E.02022
G1 X137.837 Y95.901 E.01956
G1 X137.264 Y96.15 E.01959
G1 X136.649 Y96.347 E.02025
G1 X136.041 Y96.479 E.01951
G1 X135.421 Y96.552 E.01957
G1 X134.775 Y96.565 E.02026
G1 X134.127 Y96.512 E.02039
G1 X133.504 Y96.399 E.01985
G1 X132.878 Y96.22 E.02041
G1 X132.291 Y95.987 E.0198
G1 X131.713 Y95.689 E.02039
G1 X131.184 Y95.345 E.01978
G1 X130.677 Y94.94 E.02035
G1 X130.203 Y94.477 E.02078
G1 X129.479 Y93.528 E.03743
G1 X129.156 Y92.946 E.02087
G1 X128.9 Y92.351 E.02031
G1 X128.71 Y91.757 E.01955
G1 X128.579 Y91.15 E.01947
G1 X128.506 Y90.53 E.01957
G1 X128.494 Y89.884 E.02026
G1 X128.547 Y89.239 E.02029
G1 X128.658 Y88.624 E.01959
G1 X128.835 Y88.002 E.02028
G1 X129.066 Y87.417 E.01972
G1 X129.418 Y86.756 E.02348
M204 P1000
G1 X129.735 Y86.959 F9000
M204 P800
G1 F1200
G1 X130.004 Y86.539 E.01564
G1 X130.371 Y86.075 E.01855
G1 X130.794 Y85.636 E.01911
G1 X131.261 Y85.239 E.01922
G1 X131.755 Y84.897 E.01884
G1 X132.737 Y84.404 E.03445
G1 X133.325 Y84.208 E.01943
G1 X133.923 Y84.072 E.01923
G1 X134.532 Y83.997 E.01924
G1 X135.161 Y83.984 E.01973
G1 X135.748 Y84.03 E.01846
G1 X136.35 Y84.138 E.01918
G1 X136.939 Y84.306 E.0192
G1 X137.489 Y84.523 E.01854
G1 X138.016 Y84.794 E.01858
G1 X138.529 Y85.123 E.01911
G1 X138.994 Y85.492 E.01861
G1 X139.432 Y85.916 E.01911
G1 X139.814 Y86.366 E.01851
G1 X140.162 Y86.869 E.01918
G1 X140.449 Y87.388 E.0186
G1 X140.691 Y87.947 E.0191
G1 X140.876 Y88.529 E.01915
G1 X140.999 Y89.109 E.01859
G1 X141.067 Y89.715 E.01912
G1 X141.075 Y90.309 E.01863
G1 X140.937 Y91.394 E.03429
G1 X140.767 Y92.01 E.02004
G1 X140.545 Y92.582 E.01924
G1 X140.266 Y93.129 E.01925
G1 X139.945 Y93.629 E.01863
G1 X139.564 Y94.11 E.01924
G1 X139.14 Y94.548 E.01911
G1 X138.691 Y94.928 E.01844
G1 X138.191 Y95.274 E.01906
G1 X137.678 Y95.559 E.0184
G1 X137.139 Y95.794 E.01844
G1 X136.56 Y95.981 E.01908
G1 X135.987 Y96.106 E.01839
G1 X135.403 Y96.176 E.01844
G1 X134.796 Y96.188 E.01904
G1 X134.185 Y96.14 E.01922
G1 X133.581 Y96.03 E.01925
G1 X132.992 Y95.86 E.01922
G1 X132.44 Y95.64 E.01863
G1 X131.895 Y95.358 E.01924
G1 X131.398 Y95.035 E.01858
G1 X130.92 Y94.651 E.01922
G1 X130.477 Y94.218 E.01942
G1 X129.802 Y93.333 E.0349
G1 X129.498 Y92.787 E.01959
G1 X129.256 Y92.227 E.01913
G1 X129.077 Y91.667 E.01843
G1 X128.952 Y91.096 E.01833
G1 X128.883 Y90.513 E.01841
G1 X128.871 Y89.904 E.0191
G1 X128.919 Y89.297 E.01909
G1 X129.023 Y88.718 E.01844
G1 X129.19 Y88.131 E.01914
M73 P12 R4
G1 X129.406 Y87.58 E.01856
G1 X129.703 Y87.01 E.02015
M204 P1000
G1 X130.02 Y87.212 F9000
M204 P800
G1 F1200
G1 X130.306 Y86.765 E.01664
G1 X130.65 Y86.329 E.01741
G1 X131.045 Y85.917 E.0179
G1 X131.483 Y85.544 E.01804
G1 X131.959 Y85.214 E.01816
G1 X132.87 Y84.757 E.03196
G1 X133.418 Y84.573 E.01812
G1 X133.979 Y84.445 E.01804
G1 X134.551 Y84.374 E.01807
G1 X135.141 Y84.36 E.0185
G1 X135.691 Y84.403 E.0173
G1 X136.257 Y84.504 E.01803
G1 X136.81 Y84.66 E.01802
G1 X137.326 Y84.864 E.0174
G1 X137.821 Y85.116 E.01742
G1 X138.302 Y85.425 E.01793
G1 X138.752 Y85.781 E.01799
G1 X139.162 Y86.18 E.01794
G1 X139.52 Y86.602 E.01735
G1 X139.846 Y87.075 E.01801
G1 X140.115 Y87.562 E.01744
G1 X140.341 Y88.087 E.01792
G1 X140.514 Y88.634 E.01799
G1 X140.629 Y89.177 E.0174
G1 X140.691 Y89.747 E.01798
G1 X140.698 Y90.301 E.01737
G1 X140.57 Y91.307 E.0318
G1 X140.412 Y91.883 E.01873
G1 X140.204 Y92.42 E.01806
G1 X139.943 Y92.933 E.01805
G1 X139.632 Y93.417 E.01804
G1 X139.275 Y93.868 E.01803
G1 X138.876 Y94.278 E.01794
G1 X138.455 Y94.634 E.01729
G1 X137.985 Y94.958 E.0179
G1 X137.503 Y95.225 E.01728
G1 X136.997 Y95.444 E.01729
G1 X136.453 Y95.619 E.01792
G1 X135.916 Y95.736 E.01723
G1 X135.369 Y95.8 E.01727
G1 X134.798 Y95.811 E.01791
G1 X134.225 Y95.765 E.01802
G1 X133.659 Y95.661 E.01804
G1 X133.106 Y95.501 E.01805
G1 X132.589 Y95.294 E.01746
G1 X132.078 Y95.028 E.01806
G1 X131.612 Y94.724 E.01745
G1 X131.164 Y94.364 E.01802
G1 X130.751 Y93.958 E.01816
G1 X130.125 Y93.137 E.03237
G1 X129.84 Y92.628 E.01829
G1 X129.612 Y92.102 E.01798
G1 X129.443 Y91.578 E.01726
G1 X129.326 Y91.042 E.0172
G1 X129.26 Y90.495 E.01728
G1 X129.248 Y89.924 E.01791
G1 X129.292 Y89.354 E.01793
G1 X129.389 Y88.811 E.01729
G1 X129.544 Y88.259 E.01798
G1 X129.747 Y87.742 E.01741
G1 X129.99 Y87.264 E.01681
M204 P1000
G1 X130.321 Y87.443 F9000
M204 P800
G1 F1200
G1 X130.609 Y86.99 E.01683
G1 X130.929 Y86.583 E.01623
G1 X131.298 Y86.197 E.01674
G1 X131.706 Y85.848 E.01683
G1 X132.163 Y85.532 E.01742
G1 X133.003 Y85.11 E.02947
G1 X133.512 Y84.938 E.01685
G1 X134.036 Y84.818 E.01685
G1 X134.57 Y84.75 E.01688
G1 X135.122 Y84.737 E.01731
G1 X135.635 Y84.776 E.01613
G1 X136.164 Y84.869 E.01684
G1 X136.681 Y85.015 E.01684
G1 X137.164 Y85.204 E.01626
G1 X137.626 Y85.439 E.01625
