; generated by PrusaSlicer 2.6.0-alpha3+MacOS-x64 on 2023-03-07 at 03:25:15 UTC


;
;

;
;
; 

; external perimeters extrusion width = 0.45mm
; perimeters extrusion width = 0.45mm
; infill extrusion width = 0.45mm
; solid infill extrusion width = 0.45mm
; top infill extrusion width = 0.40mm
; first layer extrusion width = 0.42mm

M73 P0 R20
M201 X2500 Y2500 Z400 E5000 ; sets maximum accelerations, mm/sec^2
M203 X180 Y180 Z12 E80 ; sets maximum feedrates, mm / sec
M204 P1250 R1250 T2500 ; sets acceleration (P, T) and retract acceleration (R), mm/sec^2
M205 X8.00 Y8.00 Z2.00 E10.00 ; sets the jerk limits, mm/sec
M205 S0 T0 ; sets the minimum extruding and travel feed rate, mm/sec
M107
;TYPE:Custom
M862.3 P "MINI" ; printer model check
G90 ; use absolute coordinates
M83 ; extruder relative mode
M104 S170 ; set extruder temp for bed leveling
M140 S55 ; set bed temp
M109 R170 ; wait for bed leveling temp
M190 S55 ; wait for bed temp
M204 T1250 ; set travel acceleration
G28 ; home all without mesh bed level
G29 ; mesh bed leveling 
M204 T2500 ; restore travel acceleration
M104 S240 ; set extruder temp
G92 E0
G1 Y-2 X179 F2400
G1 Z3 F720
M109 S240 ; wait for extruder temp

; intro line
G1 X170 F1000
G1 Z0.2 F720
G1 X110 E8 F900
G1 X40 E10 F700
G92 E0

M221 S95 ; set flow
G21 ; set units to millimeters
G90 ; use absolute coordinates
M83 ; use relative distances for extrusion
M900 K0 ; Filament gcode
M107
;LAYER_CHANGE
;Z:0.2
;HEIGHT:0.2
;BEFORE_LAYER_CHANGE
G92 E0.0
;0.2


G1 E-4 F2400
M73 P1 R20
G1 Z.2 F720
;AFTER_LAYER_CHANGE
;0.2
G1 X123.749 Y77.992 F9000
G1 E4 F900
M204 P800
;TYPE:Skirt/Brim
;WIDTH:0.42
G1 F1200
G1 X124.451 Y77.109 E.04067
G1 X125.166 Y76.484 E.03424
G1 X126.119 Y75.914 E.04004
G1 X127.006 Y75.579 E.03419
G1 X128.116 Y75.378 E.04067
G1 X148.279 Y75.36 E.72703
G1 X149.223 Y75.453 E.0342
G1 X150.15 Y75.704 E.03463
G1 X151.144 Y76.176 E.03968
G1 X151.915 Y76.728 E.03419
G1 X152.574 Y77.388 E.03363
G1 X153.126 Y78.158 E.03416
G1 X153.539 Y78.995 E.03365
G1 X153.814 Y79.902 E.03417
G1 X153.944 Y81.113 E.04392
G1 X153.944 Y98.378 E.62253
G1 X153.551 Y99.795 E.05302
G1 X152.485 Y100.808 E.05302
G1 X151.189 Y101.132 E.04817
G1 X125.582 Y101.132 E.92332
G1 X124.165 Y100.739 E.05302
G1 X123.152 Y99.673 E.05302
G1 X122.828 Y98.378 E.04813
G1 X122.828 Y81.113 E.62253
G1 X122.922 Y80.079 E.03744
G1 X123.233 Y78.995 E.04066
G1 X123.721 Y78.045 E.03851
M204 P1000
G1 X124.061 Y78.233 F9000
M204 P800
G1 F1200
G1 X124.156 Y78.062 E.00705
G1 X124.726 Y77.366 E.03244
G1 X125.386 Y76.79 E.03159
G1 X126.274 Y76.257 E.03734
G1 X127.116 Y75.94 E.03244
G1 X128.153 Y75.754 E.03799
G1 X148.267 Y75.737 E.72526
G1 X149.162 Y75.825 E.03243
G1 X150.017 Y76.057 E.03194
G1 X150.945 Y76.496 E.03702
G1 X151.675 Y77.02 E.0324
G1 X152.282 Y77.627 E.03095
G1 X152.806 Y78.358 E.03243
G1 X153.186 Y79.127 E.03093
G1 X153.447 Y79.988 E.03244
G1 X153.566 Y81.113 E.04079
G1 X153.566 Y98.378 E.62253
G1 X153.175 Y99.685 E.04919
M73 P2 R20
G1 X152.129 Y100.561 E.0492
G1 X151.189 Y100.755 E.03461
G1 X125.582 Y100.755 E.92332
G1 X124.275 Y100.363 E.0492
G1 X123.399 Y99.317 E.0492
G1 X123.205 Y98.378 E.03457
G1 X123.206 Y81.035 E.62534
G1 X123.325 Y79.988 E.038
G1 X123.645 Y78.984 E.038
G1 X124.032 Y78.285 E.02881
M204 P1000
; printing object Body64.stl id:0 copy 0
G1 E-4 F2400
G1 X129.448 Y82.802 F9000
G1 E4 F900
M204 P800
;TYPE:Perimeter
;WIDTH:0.419999
M73 P2 R19
G1 F1200
G1 X129.385 Y82.829 E.00247
G1 X128.983 Y82.896 E.0147
G1 X128.577 Y82.869 E.01467
G1 X128.189 Y82.753 E.0146
G1 X127.83 Y82.54 E.01505
G1 X127.414 Y82.109 E.0216
G1 X127.227 Y81.748 E.01466
G1 X127.125 Y81.298 E.01664
;WIDTH:0.464466
G1 X127.103 Y81.2 E.00405
;WIDTH:0.508932
G1 F1158.77
G1 X127.081 Y81.102 E.00448
;WIDTH:0.553398
G1 F1057.833
G1 X127.058 Y81.004 E.00491
;WIDTH:0.597864
G1 F973.071
G1 X127.036 Y80.905 E.00538
G1 X127.076 Y80.686 E.01181
;WIDTH:0.594621
G1 F978.791
G1 X127.286 Y80.173 E.02924
;WIDTH:0.570614
G1 F1023.32
G1 X127.611 Y79.791 E.02531
;WIDTH:0.541734
G1 F1082.568
G1 X128.06 Y79.486 E.02589
;WIDTH:0.503092
G1 F1173.474
G1 X128.498 Y79.35 E.02018
;WIDTH:0.463786
G1 F1200
G1 X128.919 Y79.318 E.01699
;WIDTH:0.477583
G1 X129.351 Y79.361 E.01804
G1 X129.627 Y79.503 E.0129
;WIDTH:0.448791
G1 X129.904 Y79.644 E.01206
;WIDTH:0.419999
G1 X130.339 Y80.07 E.02195
G1 X130.553 Y80.453 E.01582
G1 X130.674 Y80.973 E.01925
G1 X130.651 Y81.411 E.01581
G1 X130.467 Y81.958 E.02081
G1 X130.212 Y82.313 E.01576
G1 X129.828 Y82.637 E.01812
G1 X129.503 Y82.778 E.01277
M204 P1000
G1 X129.232 Y82.474 F9000
M204 P800
;TYPE:External perimeter
G1 F1200
G1 X128.994 Y82.519 E.00873
G1 X128.673 Y82.505 E.01159
G1 X128.364 Y82.419 E.01157
G1 X128.09 Y82.267 E.0113
G1 X127.742 Y81.924 E.01762
G1 X127.588 Y81.642 E.01159
G1 X127.502 Y81.298 E.01279
G1 X127.513 Y80.842 E.01645
G1 X127.681 Y80.397 E.01715
G1 X127.879 Y80.138 E.01176
G1 X128.256 Y79.856 E.01698
G1 X128.7 Y79.723 E.01671
G1 X128.867 Y79.706 E.00605
G1 X129.36 Y79.784 E.018
G1 X129.779 Y80.017 E.01729
G1 X130.092 Y80.369 E.01698
G1 X130.229 Y80.659 E.01156
G1 X130.297 Y80.973 E.01158
G1 X130.29 Y81.304 E.01194
G1 X130.15 Y81.754 E.01699
G1 X129.965 Y82.028 E.01192
G1 X129.604 Y82.331 E.01699
G1 X129.291 Y82.463 E.01225
M204 P1000
G1 X129.179 Y82.71 F9000
G1 E-4 F2400
G1 X126.369 Y97.59 F9000
G1 E4 F900
M204 P800
;TYPE:Perimeter
G1 F1200
G1 X126.375 Y81.485 E.5807
;WIDTH:0.464956
G1 X126.398 Y81.318 E.0068
;WIDTH:0.509913
G1 F1156.336
G1 X126.42 Y81.151 E.00752
;WIDTH:0.554869
G1 F1054.793
G1 X126.443 Y80.983 E.0083
;WIDTH:0.594621
G1 F978.791
G1 X126.558 Y80.496 E.0264
G1 X126.758 Y80.03 E.02675
;WIDTH:0.57747
G1 F1010.196
G1 X127.088 Y79.589 E.02815
;WIDTH:0.554921
G1 F1054.686
G1 X127.314 Y79.391 E.01471
;WIDTH:0.541734
G1 F1082.568
G1 X127.753 Y79.123 E.02453
;WIDTH:0.509298
G1 F1157.859
G1 X128.325 Y78.945 E.02672
;WIDTH:0.474345
G1 F1200
G1 X128.842 Y78.912 E.02137
;WIDTH:0.477583
G1 X129.38 Y78.929 E.02237
G1 X129.734 Y78.914 E.01473
;WIDTH:0.448791
G1 X130.088 Y78.9 E.01375
;WIDTH:0.419999
G1 X146.746 Y78.9 E.60064
;WIDTH:0.468481
G1 X147.467 Y78.924 E.02936
G1 X148.176 Y78.922 E.02885
;WIDTH:0.486396
G1 X148.705 Y79.009 E.02273
;WIDTH:0.52087
G1 F1129.825
G1 X149.222 Y79.221 E.02554
;WIDTH:0.548316
G1 F1068.469
G1 X149.643 Y79.536 E.02541
;WIDTH:0.579028
G1 F1007.26
G1 X150.019 Y80.026 E.03166
;WIDTH:0.584766
G1 F996.593
G1 X150.21 Y80.455 E.02433
;WIDTH:0.589789
G1 F987.439
G1 X150.306 Y80.956 E.02668
G1 X150.323 Y81.465 E.02663
;WIDTH:0.57888
G1 F1007.538
G1 X150.343 Y81.606 E.0073
;WIDTH:0.53916
G1 F1088.184
G1 X150.363 Y81.747 E.00676
;WIDTH:0.49944
G1 F1182.863
G1 X150.382 Y81.887 E.00617
;WIDTH:0.45972
G1 F1200
G1 X150.402 Y82.028 E.00568
;WIDTH:0.419999
G1 X150.402 Y97.59 E.56112
G1 X130.834 Y97.59 E.70557
G1 X126.429 Y97.59 E.15883
M204 P1000
G1 X125.992 Y97.968 F9000
M204 P800
;TYPE:External perimeter
G1 F1200
G1 X125.998 Y81.008 E.61153
G1 X126.07 Y80.515 E.01796
G1 X126.235 Y80.036 E.01827
G1 X126.491 Y79.597 E.01832
G1 X126.828 Y79.216 E.01834
G1 X127.233 Y78.91 E.0183
G1 X127.692 Y78.688 E.01838
G1 X128.148 Y78.568 E.017
G1 X128.592 Y78.523 E.01609
G1 X147.842 Y78.523 E.6941
G1 X148.419 Y78.538 E.02081
G1 X148.959 Y78.647 E.01986
G1 X149.31 Y78.792 E.01369
G1 X149.635 Y78.979 E.01352
G1 X150.064 Y79.333 E.02006
G1 X150.39 Y79.76 E.01937
G1 X150.593 Y80.175 E.01666
G1 X150.715 Y80.599 E.01591
G1 X150.779 Y81.123 E.01903
G1 X150.779 Y97.968 E.60739
G1 X126.052 Y97.968 E.89159
M204 P1000
G1 X126.12 Y97.588 F9000
M73 P3 R19
G1 E-4 F2400
G1 X135.39 Y95.882 F9000
G1 E4 F900
M204 P800
;TYPE:Perimeter
G1 F1200
G1 X135.34 Y95.818 E.00293
G1 X135.297 Y95.601 E.00798
G1 X135.297 Y87.155 E.30454
G1 X135.36 Y86.894 E.00968
G1 X135.526 Y86.7 E.00921
G1 X135.767 Y86.598 E.00944
G1 X135.862 Y86.59 E.00344
G1 X148.411 Y86.59 E.45248
G1 X148.651 Y86.643 E.00886
G1 X148.873 Y86.828 E.01042
G1 X148.976 Y87.155 E.01236
G1 X148.976 Y95.601 E.30454
G1 X148.968 Y95.698 E.00351
G1 X148.811 Y96 E.01227
G1 X148.509 Y96.158 E.01229
G1 X148.411 Y96.166 E.00355
G1 X135.862 Y96.166 E.45248
G1 X135.523 Y96.053 E.01288
G1 X135.426 Y95.929 E.00568
M204 P1000
G1 X135.862 Y95.789 F9000
M204 P800
;TYPE:External perimeter
G1 F1200
G1 X135.749 Y95.751 E.0043
G1 X135.674 Y95.601 E.00605
G1 X135.674 Y87.155 E.30454
G1 X135.74 Y87.011 E.00571
G1 X135.862 Y86.967 E.00468
G1 X148.411 Y86.967 E.45248
G1 X148.565 Y87.046 E.00624
G1 X148.599 Y87.155 E.00412
G1 X148.599 Y95.601 E.30454
G1 X148.544 Y95.734 E.00519
G1 X148.411 Y95.789 E.00519
G1 X135.922 Y95.789 E.45032
M204 P1000
G1 X135.782 Y95.877 F9000
G1 E-4 F2400
G1 X147.406 Y79.385 F9000
G1 E4 F900
M204 P800
;TYPE:Perimeter
;WIDTH:0.470225
G1 F1200
G1 X147.482 Y79.349 E.00344
G1 X147.919 Y79.318 E.0179
;WIDTH:0.479136
G1 X148.505 Y79.403 E.0247
;WIDTH:0.52087
G1 F1129.825
G1 X148.988 Y79.636 E.02451
;WIDTH:0.555003
G1 F1054.517
G1 X149.359 Y79.975 E.02461
;WIDTH:0.573624
G1 F1017.516
G1 X149.631 Y80.437 E.02721
;WIDTH:0.588808
G1 F989.214
G1 X149.757 Y80.931 E.02661
G1 X149.737 Y81.398 E.0244
;WIDTH:0.57888
G1 F1007.538
G1 X149.636 Y81.59 E.01112
;WIDTH:0.53916
G1 F1088.184
G1 X149.535 Y81.781 E.01025
;WIDTH:0.49944
G1 F1182.863
G1 X149.434 Y81.973 E.00947
;WIDTH:0.45972
G1 F1200
G1 X149.333 Y82.164 E.00861
;WIDTH:0.419999
G1 X149.035 Y82.486 E.01582
G1 X148.695 Y82.708 E.01464
G1 X148.143 Y82.877 E.02082
G1 X147.705 Y82.888 E.0158
G1 X147.189 Y82.753 E.01923
G1 X146.83 Y82.54 E.01505
G1 X146.415 Y82.111 E.02152
G1 X146.227 Y81.738 E.01506
G1 X146.125 Y81.316 E.01565
G1 X146.126 Y80.872 E.01601
G1 X146.22 Y80.497 E.01394
G1 X146.515 Y79.986 E.02128
G1 X146.979 Y79.584 E.02214
;WIDTH:0.445112
G1 X147.23 Y79.467 E.01065
;WIDTH:0.470225
G1 X147.351 Y79.41 E.00547
M204 P1000
G1 X147.47 Y79.777 F9000
M204 P800
;TYPE:External perimeter
;WIDTH:0.419999
G1 F1200
G1 X147.557 Y79.744 E.00336
G1 X147.867 Y79.706 E.01126
G1 X148.36 Y79.784 E.018
G1 X148.772 Y80.01 E.01694
G1 X149.004 Y80.246 E.01193
G1 X149.234 Y80.682 E.01777
G1 X149.297 Y80.973 E.01074
G1 X149.292 Y81.295 E.01161
G1 X149.21 Y81.615 E.01191
G1 X148.972 Y82.021 E.01697
G1 X148.738 Y82.242 E.01161
G1 X148.451 Y82.406 E.01192
G1 X147.994 Y82.519 E.01697
G1 X147.673 Y82.505 E.01159
G1 X147.364 Y82.419 E.01157
G1 X147.09 Y82.267 E.0113
G1 X146.742 Y81.924 E.01762
G1 X146.594 Y81.649 E.01126
G1 X146.492 Y81.227 E.01565
G1 X146.51 Y80.852 E.01354
G1 X146.604 Y80.554 E.01127
G1 X146.879 Y80.138 E.01798
G1 X147.256 Y79.856 E.01698
G1 X147.414 Y79.798 E.00607
M204 P1000
G1 X147.48 Y79.685 F9000
G1 X150.233 Y82.338
M204 P800
;TYPE:Solid infill
;WIDTH:0.421483
G1 F1200
G1 X149.844 Y81.949 E.01991
G1 X149.651 Y82.291 E.01422
G1 X150.063 Y82.703 E.02109
G1 X150.063 Y83.239 E.0194
G1 X149.412 Y82.588 E.03333
G1 X149.129 Y82.84 E.01372
G1 X150.063 Y83.774 E.04781
G1 X150.063 Y84.309 E.01937
G1 X148.789 Y83.035 E.06522
G1 X148.643 Y83.097 E.00574
G1 X148.382 Y83.164 E.00975
G1 X150.063 Y84.845 E.08606
G1 X150.063 Y85.38 E.01937
G1 X147.74 Y83.057 E.11892
M204 P1000
G1 X146.429 Y79.07 F9000
M204 P800
G1 F1200
G1 X146.717 Y79.358 E.01474
G1 X146.418 Y79.593 E.01377
G1 X146.064 Y79.239 E.01812
G1 X145.528 Y79.239 E.0194
G1 X146.176 Y79.887 E.03317
G1 X145.974 Y80.22 E.0141
G1 X144.993 Y79.239 E.05022
G1 X144.457 Y79.239 E.0194
G1 X145.841 Y80.622 E.07083
G1 X145.788 Y80.839 E.00809
G1 X145.774 Y81.091 E.00914
G1 X143.922 Y79.239 E.09481
G1 X143.387 Y79.239 E.01937
G1 X145.876 Y81.729 E.12745
G1 X145.986 Y82.044 E.01208
G1 X146.125 Y82.289 E.0102
G1 X146.274 Y82.478 E.00871
G1 X146.603 Y82.793 E.01649
G1 X146.792 Y82.928 E.00841
G1 X147.044 Y83.06 E.0103
G1 X147.28 Y83.133 E.00894
G1 X150.063 Y85.916 E.14247
G1 X150.063 Y86.451 E.01937
G1 X142.851 Y79.239 E.36921
G1 X142.316 Y79.239 E.01937
G1 X150.063 Y86.986 E.3966
G1 X150.063 Y87.522 E.0194
G1 X141.781 Y79.239 E.42401
G1 X141.245 Y79.239 E.0194
G1 X148.256 Y86.25 E.35892
G1 X148.427 Y86.25 E.00619
G1 X148.799 Y86.333 E.0138
G1 X149.157 Y86.632 E.01688
G1 X149.316 Y87.132 E.01899
G1 X149.316 Y87.31 E.00644
G1 X150.063 Y88.057 E.03824
G1 X150.063 Y88.592 E.01937
M73 P4 R19
G1 X149.316 Y87.845 E.03824
G1 X149.316 Y88.381 E.0194
G1 X150.063 Y89.128 E.03824
G1 X150.063 Y89.663 E.01937
G1 X149.316 Y88.916 E.03824
G1 X149.316 Y89.451 E.01937
G1 X150.063 Y90.198 E.03824
G1 X150.063 Y90.734 E.0194
G1 X149.316 Y89.987 E.03824
G1 X149.316 Y90.522 E.01937
G1 X150.063 Y91.269 E.03824
G1 X150.063 Y91.805 E.0194
G1 X149.316 Y91.057 E.03827
G1 X149.316 Y91.593 E.0194
G1 X150.063 Y92.34 E.03824
G1 X150.063 Y92.875 E.01937
G1 X149.316 Y92.128 E.03824
G1 X149.316 Y92.664 E.0194
G1 X150.063 Y93.411 E.03824
G1 X150.063 Y93.946 E.01937
G1 X149.316 Y93.199 E.03824
G1 X149.316 Y93.734 E.01937
G1 X150.063 Y94.481 E.03824
G1 X150.063 Y95.017 E.0194
G1 X149.316 Y94.27 E.03824
G1 X149.316 Y94.805 E.01937
G1 X150.063 Y95.552 E.03824
G1 X150.063 Y96.088 E.0194
G1 X149.316 Y95.34 E.03827
G1 X149.301 Y95.774 E.01572
G1 X149.271 Y95.831 E.00233
G1 X150.063 Y96.623 E.04055
G1 X150.063 Y97.158 E.01937
G1 X149.088 Y96.184 E.04989
G1 X149.056 Y96.245 E.00249
G1 X148.766 Y96.396 E.01184
G1 X149.62 Y97.251 E.04374
G1 X149.085 Y97.251 E.01937
G1 X148.339 Y96.506 E.03816
G1 X147.804 Y96.506 E.01937
G1 X148.55 Y97.251 E.03816
G1 X148.014 Y97.251 E.0194
G1 X147.269 Y96.506 E.03814
G1 X146.733 Y96.506 E.0194
G1 X147.479 Y97.251 E.03816
G1 X146.944 Y97.251 E.01937
G1 X146.198 Y96.506 E.03816
G1 X145.663 Y96.506 E.01937
G1 X146.408 Y97.251 E.03814
G1 X145.873 Y97.251 E.01937
G1 X145.127 Y96.506 E.03816
G1 X144.592 Y96.506 E.01937
G1 X145.337 Y97.251 E.03814
G1 X144.802 Y97.251 E.01937
G1 X144.056 Y96.506 E.03816
G1 X143.521 Y96.506 E.01937
G1 X144.267 Y97.251 E.03816
G1 X143.731 Y97.251 E.0194
G1 X142.986 Y96.506 E.03814
G1 X142.45 Y96.506 E.0194
G1 X143.196 Y97.251 E.03816
G1 X142.661 Y97.251 E.01937
G1 X141.915 Y96.506 E.03816
G1 X141.38 Y96.506 E.01937
G1 X142.125 Y97.251 E.03814
G1 X141.59 Y97.251 E.01937
G1 X140.844 Y96.506 E.03816
G1 X140.309 Y96.506 E.01937
G1 X141.054 Y97.251 E.03814
G1 X140.519 Y97.251 E.01937
G1 X139.774 Y96.506 E.03814
G1 X139.238 Y96.506 E.0194
G1 X139.984 Y97.251 E.03816
G1 X139.448 Y97.251 E.0194
G1 X138.703 Y96.506 E.03814
G1 X138.167 Y96.506 E.0194
G1 X138.913 Y97.251 E.03816
G1 X138.378 Y97.251 E.01937
G1 X137.632 Y96.506 E.03816
G1 X137.097 Y96.506 E.01937
G1 X137.842 Y97.251 E.03814
G1 X137.307 Y97.251 E.01937
G1 X136.392 Y96.336 E.04684
M204 P1000
G1 E-4 F2400
G1 X147.891 Y86.42 F9000
G1 E4 F900
M204 P800
G1 F1200
G1 X140.71 Y79.239 E.36762
G1 X140.174 Y79.239 E.0194
G1 X147.186 Y86.251 E.35897
G1 X146.651 Y86.252 E.01937
G1 X139.639 Y79.239 E.35899
G1 X139.104 Y79.239 E.01937
G1 X146.117 Y86.252 E.35902
G1 X145.582 Y86.253 E.01937
G1 X138.568 Y79.239 E.35907
G1 X138.033 Y79.239 E.01937
G1 X145.047 Y86.253 E.35907
G1 X144.512 Y86.253 E.01937
G1 X137.498 Y79.239 E.35907
G1 X136.962 Y79.239 E.0194
G1 X143.977 Y86.254 E.35912
G1 X143.442 Y86.254 E.01937
G1 X136.427 Y79.239 E.35912
G1 X135.891 Y79.239 E.0194
G1 X142.907 Y86.255 E.35917
G1 X142.372 Y86.255 E.01937
G1 X135.356 Y79.239 E.35917
G1 X134.821 Y79.239 E.01937
G1 X141.837 Y86.256 E.3592
G1 X141.302 Y86.256 E.01937
G1 X134.285 Y79.239 E.35922
G1 X133.75 Y79.239 E.01937
G1 X140.767 Y86.257 E.35925
G1 X140.233 Y86.257 E.01933
G1 X133.215 Y79.239 E.35928
G1 X132.679 Y79.239 E.0194
M73 P5 R19
G1 X139.698 Y86.258 E.35933
G1 X139.163 Y86.258 E.01937
G1 X132.144 Y79.239 E.35933
G1 X131.609 Y79.239 E.01937
G1 X138.628 Y86.259 E.35935
G1 X138.093 Y86.259 E.01937
G1 X131.073 Y79.239 E.35938
G1 X130.538 Y79.239 E.01937
G1 X137.558 Y86.259 E.35938
G1 X137.023 Y86.26 E.01937
G1 X129.844 Y79.081 E.36752
M204 P1000
G1 X130.744 Y80.516 F9000
M204 P800
G1 F1200
G1 X136.488 Y86.26 E.29406
G1 X135.953 Y86.261 E.01937
G1 X131.006 Y81.314 E.25325
G1 X130.98 Y81.497 E.00669
G1 X130.903 Y81.746 E.00943
G1 X135.492 Y86.335 E.23493
G1 X135.437 Y86.354 E.00211
G1 X135.181 Y86.559 E.01187
G1 X130.751 Y82.129 E.22679
G1 X130.542 Y82.455 E.01402
G1 X134.996 Y86.909 E.22802
G1 X134.957 Y87.127 E.00802
G1 X134.957 Y87.406 E.0101
G1 X130.26 Y82.709 E.24046
