; generated by PrusaSlicer 2.6.0-alpha3+MacOS-x64 on 2023-03-07 at 03:21:04 UTC


;
;

;
;
; 

; external perimeters extrusion width = 0.45mm
; perimeters extrusion width = 0.45mm
; infill extrusion width = 0.45mm
; solid infill extrusion width = 0.45mm
; top infill extrusion width = 0.40mm
; first layer extrusion width = 0.42mm

M73 P0 R32
M201 X2500 Y2500 Z400 E5000 ; sets maximum accelerations, mm/sec^2
M203 X180 Y180 Z12 E80 ; sets maximum feedrates, mm / sec
M204 P1250 R1250 T2500 ; sets acceleration (P, T) and retract acceleration (R), mm/sec^2
M205 X8.00 Y8.00 Z2.00 E10.00 ; sets the jerk limits, mm/sec
M205 S0 T0 ; sets the minimum extruding and travel feed rate, mm/sec
M107
;TYPE:Custom
M862.3 P "MINI" ; printer model check
G90 ; use absolute coordinates
M83 ; extruder relative mode
M104 S170 ; set extruder temp for bed leveling
M140 S85 ; set bed temp
M109 R170 ; wait for bed leveling temp
M190 S85 ; wait for bed temp
M204 T1250 ; set travel acceleration
G28 ; home all without mesh bed level
G29 ; mesh bed leveling 
M204 T2500 ; restore travel acceleration
M104 S230 ; set extruder temp
G92 E0
G1 Y-2 X179 F2400
G1 Z3 F720
M109 S230 ; wait for extruder temp

; intro line
G1 X170 F1000
G1 Z0.2 F720
G1 X110 E8 F900
G1 X40 E10 F700
G92 E0

M221 S95 ; set flow
G21 ; set units to millimeters
G90 ; use absolute coordinates
M83 ; use relative distances for extrusion
M900 K0.2 ; Filament gcode
M107
;LAYER_CHANGE
;Z:0.2
;HEIGHT:0.2
;BEFORE_LAYER_CHANGE
G92 E0.0
;0.2


G1 E-3.2 F2700
G1 Z.2 F720
;AFTER_LAYER_CHANGE
;0.2
G1 Z.4
G1 X124.572 Y83.28 F9000
G1 Z.2 F720
G1 E3.2 F1500
M204 P800
;TYPE:Skirt/Brim
;WIDTH:0.42
G1 F1200
G1 X125.649 Y81.769 E.05818
G1 X126.952 Y80.366 E.06004
G1 X128.427 Y79.144 E.06006
G1 X130.048 Y78.125 E.06003
G1 X131.789 Y77.326 E.06006
G1 X133.511 Y76.787 E.05658
G1 X135.396 Y76.451 E.06003
G1 X137.249 Y76.363 E.05816
G1 X139.217 Y76.527 E.06192
G1 X141.252 Y76.986 E.06541
G1 X143.415 Y77.831 E.07281
G1 X145.13 Y78.81 E.06192
G1 X146.162 Y79.563 E.04006
G1 X147.08 Y80.361 E.03814
G1 X151.721 Y84.789 E.20112
G1 X154.753 Y87.818 E.13438
G1 X155.56 Y89.764 E.06605
G1 X155.56 Y100.6 E.33976
G1 X154.753 Y102.545 E.06602
G1 X151.766 Y105.53 E.1324
G1 X149.819 Y106.336 E.06607
G1 X139.107 Y106.336 E.33587
G1 X138.011 Y106.108 E.0351
M73 P1 R32
G1 X128.666 Y102.051 E.31943
G1 X126.008 Y100.531 E.096
G1 X124.999 Y99.516 E.04487
G1 X123.874 Y97.498 E.07244
G1 X123.141 Y95.728 E.06007
G1 X122.645 Y93.879 E.06002
G1 X122.395 Y91.98 E.06006
G1 X122.391 Y90.125 E.05816
G1 X122.643 Y88.166 E.06193
G1 X123.119 Y86.373 E.05817
G1 X123.843 Y84.6 E.06005
G1 X124.543 Y83.332 E.04541
M204 P1000
G1 X124.873 Y83.514 F9000
M204 P800
G1 F1200
G1 X125.943 Y82.006 E.05798
G1 X127.212 Y80.639 E.05848
G1 X128.649 Y79.448 E.05852
G1 X130.229 Y78.456 E.05849
G1 X131.925 Y77.678 E.0585
G1 X133.6 Y77.154 E.05503
G1 X135.436 Y76.826 E.05848
G1 X137.248 Y76.74 E.05688
G1 X139.159 Y76.9 E.06013
G1 X141.138 Y77.346 E.06361
G1 X143.255 Y78.172 E.07125
G1 X144.92 Y79.123 E.06012
G1 X145.925 Y79.857 E.03902
G1 X146.859 Y80.67 E.03883
G1 X151.46 Y85.062 E.19944
G1 X154.486 Y88.085 E.13411
G1 X155.183 Y89.764 E.057
G1 X155.183 Y100.599 E.33972
G1 X154.486 Y102.279 E.05703
G1 X151.499 Y105.263 E.13238
G1 X149.819 Y105.959 E.05702
G1 X139.107 Y105.959 E.33587
G1 X138.161 Y105.762 E.0303
G1 X128.817 Y101.706 E.31939
G1 X126.197 Y100.205 E.09467
G1 X125.326 Y99.329 E.03873
G1 X124.213 Y97.332 E.07168
G1 X123.499 Y95.609 E.05848
G1 X123.016 Y93.806 E.05853
G1 X122.771 Y91.957 E.05848
G1 X122.767 Y90.142 E.05691
G1 X123.013 Y88.241 E.0601
G1 X123.478 Y86.487 E.0569
G1 X124.184 Y84.76 E.0585
G1 X124.844 Y83.567 E.04275
M204 P1000
G1 E-2.24 F2700
;WIPE_START
G1 F7200
G1 X125.943 Y82.006 E-.6801
G1 X126.478 Y81.43 E-.2799
;WIPE_END
G1 Z.4 F720
G1 X127.117 Y84.959 F9000
G1 Z.2 F720
G1 E3.2 F1500
M204 P800
G1 F1200
G1 X127.32 Y84.627 E.0122
G1 X127.753 Y84.014 E.02353
G1 X128.3 Y83.343 E.02714
G1 X129.018 Y82.597 E.03246
G1 X129.663 Y82.029 E.02695
G1 X130.158 Y81.644 E.01966
G1 X130.897 Y81.147 E.02792
G1 X131.51 Y80.792 E.02221
G1 X132.328 Y80.391 E.02856
G1 X133.174 Y80.058 E.02851
G1 X133.896 Y79.83 E.02374
G1 X134.646 Y79.647 E.02421
G1 X135.416 Y79.514 E.0245
G1 X136.238 Y79.428 E.02591
G1 X136.927 Y79.403 E.02162
G1 X137.693 Y79.421 E.02402
G1 X138.905 Y79.556 E.03824
G1 X139.862 Y79.755 E.03065
G1 X140.8 Y80.034 E.03068
G1 X141.39 Y80.257 E.01978
G1 X142.284 Y80.664 E.0308
G1 X143.072 Y81.104 E.0283
G1 X143.831 Y81.61 E.0286
G1 X144.405 Y82.054 E.02275
G1 X145.124 Y82.697 E.03024
G1 X145.779 Y83.391 E.02992
G1 X146.366 Y84.123 E.02942
G1 X146.918 Y84.942 E.03097
G1 X148.237 Y87.118 E.07978
G1 X148.69 Y87.156 E.01425
G1 X149.826 Y87.544 E.03764
G1 X150.693 Y88.101 E.03231
G1 X151.889 Y89.452 E.05657
G1 X152.318 Y90.455 E.0342
G1 X152.521 Y91.54 E.03461
G1 X152.51 Y98.992 E.23365
G1 X152.204 Y100.214 E.0395
G1 X151.815 Y101.036 E.02851
G1 X150.149 Y102.658 E.0729
G1 X149.135 Y103.092 E.03458
G1 X148.049 Y103.295 E.03464
G1 X140.672 Y103.28 E.2313
G1 X139.013 Y102.778 E.05435
G1 X138.21 Y102.248 E.03017
G1 X137.513 Y101.565 E.0306
G1 X136.821 Y100.465 E.04075
G1 X136.444 Y99.175 E.04214
G1 X136.421 Y97.606 E.0492
G1 X135.731 Y98.27 E.03002
G1 X134.719 Y98.86 E.03673
G1 X133.574 Y99.192 E.03738
G1 X130.619 Y99.216 E.09266
G1 X129.514 Y98.964 E.03554
G1 X128.488 Y98.459 E.03586
G1 X127.016 Y96.944 E.06623
G1 X126.332 Y95.568 E.04818
G1 X126.05 Y94.834 E.02465
G1 X125.821 Y94.098 E.02417
G1 X125.641 Y93.347 E.02421
G1 X125.513 Y92.596 E.02389
G1 X125.424 Y91.689 E.02857
G1 X125.407 Y90.77 E.02882
G1 X125.477 Y89.72 E.033
G1 X125.607 Y88.859 E.0273
G1 X125.779 Y88.092 E.02465
G1 X125.99 Y87.376 E.0234
G1 X126.239 Y86.693 E.02279
G1 X126.591 Y85.902 E.02715
G1 X126.919 Y85.282 E.02199
G1 X127.086 Y85.01 E.01001
M204 P1000
G1 X127.407 Y85.206 F9000
M204 P800
G1 F1200
G1 X127.632 Y84.839 E.0135
G1 X128.049 Y84.247 E.0227
G1 X128.577 Y83.599 E.02621
G1 X129.285 Y82.864 E.032
G1 X129.907 Y82.316 E.02599
G1 X130.384 Y81.946 E.01893
G1 X131.102 Y81.463 E.02713
G1 X131.693 Y81.122 E.02139
G1 X132.487 Y80.733 E.02772
G1 X133.306 Y80.411 E.02759
G1 X134.003 Y80.192 E.02291
G1 X134.729 Y80.015 E.02343
G1 X135.461 Y79.888 E.02329
G1 X136.271 Y79.804 E.02553
G1 X136.924 Y79.78 E.02049
G1 X137.676 Y79.798 E.02359
G1 X138.837 Y79.927 E.03663
G1 X139.763 Y80.119 E.02965
G1 X140.674 Y80.39 E.0298
G1 X141.24 Y80.603 E.01896
G1 X142.107 Y80.997 E.02986
G1 X142.882 Y81.43 E.02784
G1 X143.617 Y81.92 E.0277
G1 X144.159 Y82.34 E.0215
G1 X144.866 Y82.973 E.02975
G1 X145.49 Y83.633 E.02848
G1 X146.058 Y84.34 E.02844
G1 X146.603 Y85.149 E.03058
G1 X148.017 Y87.484 E.08559
G1 X148.593 Y87.521 E.0181
G1 X149.681 Y87.893 E.03605
G1 X150.466 Y88.403 E.02935
G1 X151.554 Y89.629 E.05139
G1 X151.964 Y90.584 E.03259
G1 X152.144 Y91.557 E.03103
G1 X152.138 Y98.923 E.23096
G1 X151.843 Y100.104 E.03817
G1 X151.49 Y100.843 E.02568
G1 X149.968 Y102.326 E.06663
G1 X149.043 Y102.726 E.0316
G1 X148.031 Y102.918 E.0323
G1 X140.753 Y102.91 E.2282
G1 X139.196 Y102.447 E.05093
G1 X138.461 Y101.965 E.02756
G1 X137.792 Y101.311 E.02933
G1 X137.176 Y100.334 E.03621
G1 X136.813 Y99.094 E.04051
G1 X136.796 Y96.936 E.06766
G1 X136.536 Y96.852 E.00857
G1 X136.267 Y97.222 E.01434
G1 X135.52 Y97.956 E.03284
G1 X134.55 Y98.522 E.03521
G1 X133.496 Y98.822 E.03436
G1 X130.639 Y98.838 E.08958
G1 X129.622 Y98.602 E.03273
G1 X128.685 Y98.136 E.03281
G1 X127.341 Y96.75 E.06053
G1 X126.681 Y95.424 E.04644
G1 X126.404 Y94.705 E.02416
G1 X126.186 Y94.004 E.02302
G1 X126.011 Y93.277 E.02345
G1 X125.887 Y92.552 E.02306
G1 X125.8 Y91.659 E.02813
G1 X125.784 Y90.772 E.02782
G1 X125.851 Y89.768 E.03155
G1 X125.979 Y88.922 E.02683
G1 X126.142 Y88.193 E.02342
G1 X126.35 Y87.488 E.02305
G1 X126.586 Y86.841 E.02159
G1 X126.933 Y86.061 E.02677
G1 X127.376 Y85.258 E.02875
M204 P1000
G1 X127.698 Y85.454 F9000
M204 P800
G1 F1200
G1 X127.944 Y85.051 E.0148
G1 X128.346 Y84.48 E.0219
G1 X128.855 Y83.855 E.02527
G1 X129.551 Y83.132 E.03147
G1 X130.152 Y82.603 E.0251
G1 X130.61 Y82.248 E.01817
G1 X131.307 Y81.78 E.02632
G1 X131.876 Y81.451 E.02061
G1 X132.646 Y81.076 E.02685
G1 X133.437 Y80.764 E.02666
G1 X134.109 Y80.553 E.02208
G1 X134.812 Y80.383 E.02268
G1 X135.506 Y80.262 E.02209
G1 X136.304 Y80.18 E.02515
G1 X136.92 Y80.157 E.01933
G1 X137.659 Y80.175 E.02318
G1 X138.769 Y80.298 E.03502
G1 X139.678 Y80.487 E.02911
G1 X140.547 Y80.745 E.02842
G1 X141.09 Y80.949 E.01819
G1 X141.93 Y81.33 E.02892
G1 X142.679 Y81.748 E.02689
G1 X143.402 Y82.23 E.02724
G1 X143.912 Y82.625 E.02023
G1 X144.598 Y83.238 E.02885
G1 X145.201 Y83.875 E.0275
G1 X145.759 Y84.57 E.02795
G1 X146.282 Y85.348 E.02939
G1 X147.799 Y87.852 E.0918
G1 X148.499 Y87.887 E.02198
G1 X149.498 Y88.223 E.03305
G1 X150.204 Y88.675 E.02628
G1 X151.221 Y89.808 E.04774
G1 X151.597 Y90.675 E.02963
G1 X151.767 Y91.575 E.02872
G1 X151.767 Y98.854 E.22823
G1 X151.482 Y99.993 E.03681
G1 X151.165 Y100.649 E.02284
G1 X149.786 Y101.993 E.06038
G1 X148.913 Y102.371 E.02983
G1 X148.014 Y102.541 E.02869
G1 X140.833 Y102.541 E.22516
G1 X139.378 Y102.115 E.04754
G1 X138.709 Y101.681 E.025
G1 X138.097 Y101.088 E.02672
G1 X137.53 Y100.202 E.03298
G1 X137.182 Y99.014 E.03881
G1 X137.166 Y95.176 E.12034
G1 X136.857 Y95.121 E.00984
G1 X136.359 Y96.45 E.0445
G1 X135.99 Y96.965 E.01986
G1 X135.273 Y97.671 E.03155
G1 X134.422 Y98.166 E.03087
G1 X133.467 Y98.445 E.0312
G1 X130.659 Y98.461 E.08804
G1 X129.77 Y98.255 E.02861
G1 X128.881 Y97.813 E.03113
G1 X127.665 Y96.556 E.05484
G1 X127.029 Y95.28 E.0447
M73 P2 R32
G1 X126.758 Y94.575 E.02368
G1 X126.551 Y93.909 E.02187
G1 X126.382 Y93.207 E.02264
G1 X126.262 Y92.508 E.02224
G1 X126.176 Y91.645 E.02719
G1 X126.161 Y90.773 E.02734
G1 X126.225 Y89.817 E.03004
G1 X126.351 Y88.985 E.02638
G1 X126.506 Y88.294 E.0222
G1 X126.71 Y87.6 E.02268
G1 X126.933 Y86.988 E.02042
G1 X127.275 Y86.221 E.02633
G1 X127.667 Y85.505 E.02559
M204 P1000
G1 X127.988 Y85.702 F9000
M204 P800
G1 F1200
G1 X128.262 Y85.253 E.01649
G1 X128.643 Y84.713 E.02072
G1 X129.132 Y84.11 E.02434
G1 X129.817 Y83.399 E.03096
G1 X130.396 Y82.891 E.02415
G1 X130.836 Y82.55 E.01745
G1 X131.512 Y82.097 E.02551
G1 X132.058 Y81.781 E.01978
G1 X132.804 Y81.418 E.02601
G1 X133.569 Y81.118 E.02576
G1 X134.204 Y80.918 E.02087
G1 X134.895 Y80.751 E.02229
G1 X135.552 Y80.637 E.02091
G1 X136.336 Y80.555 E.02472
G1 X136.917 Y80.534 E.01823
G1 X137.642 Y80.552 E.02274
G1 X138.702 Y80.669 E.03344
G1 X139.579 Y80.851 E.02808
G1 X140.421 Y81.1 E.02753
G1 X140.941 Y81.295 E.01741
G1 X141.753 Y81.663 E.02795
G1 X142.488 Y82.073 E.02639
G1 X143.187 Y82.54 E.02636
G1 X143.666 Y82.911 E.019
G1 X144.33 Y83.503 E.02789
G1 X144.922 Y84.129 E.02701
G1 X145.46 Y84.8 E.02697
G1 X145.962 Y85.547 E.02822
G1 X147.583 Y88.222 E.09807
G1 X148.407 Y88.254 E.02586
G1 X149.318 Y88.555 E.03008
G1 X149.943 Y88.948 E.02315
G1 X150.889 Y89.988 E.04408
G1 X151.231 Y90.768 E.0267
G1 X151.39 Y91.594 E.02637
G1 X151.39 Y98.83 E.22688
G1 X151.122 Y99.88 E.03398
G1 X150.841 Y100.453 E.02001
G1 X149.603 Y101.662 E.05426
G1 X148.82 Y102.005 E.0268
G1 X147.995 Y102.164 E.02634
G1 X140.86 Y102.164 E.22371
G1 X139.559 Y101.783 E.04251
G1 X138.958 Y101.397 E.0224
G1 X138.375 Y100.832 E.02546
G1 X137.883 Y100.068 E.02849
G1 X137.559 Y98.985 E.03544
G1 X137.525 Y90.985 E.25084
G1 X137.483 Y90.816 E.00546
G1 X137.398 Y90.683 E.00495
G1 X137.287 Y90.584 E.00466
G1 X137.131 Y90.525 E.00523
G1 X136.956 Y90.512 E.0055
G1 X136.799 Y90.555 E.0051
G1 X136.585 Y90.743 E.00893
G1 X136.519 Y90.926 E.0061
G1 X136.499 Y91.161 E.00739
G1 X136.437 Y95.166 E.12559
G1 X136.037 Y96.253 E.03632
G1 X135.714 Y96.708 E.0175
G1 X135.026 Y97.385 E.03026
G1 X134.253 Y97.828 E.02793
G1 X133.438 Y98.068 E.02664
G1 X130.68 Y98.084 E.08648
G1 X129.878 Y97.893 E.02585
G1 X129.128 Y97.526 E.02618
G1 X127.989 Y96.361 E.05108
G1 X127.378 Y95.136 E.04292
G1 X127.112 Y94.446 E.02319
G1 X126.916 Y93.815 E.02072
G1 X126.75 Y93.124 E.02228
G1 X126.636 Y92.464 E.021
G1 X126.552 Y91.616 E.02672
G1 X126.538 Y90.775 E.02637
G1 X126.599 Y89.865 E.0286
G1 X126.722 Y89.048 E.02591
G1 X126.869 Y88.394 E.02102
G1 X127.07 Y87.713 E.02226
G1 X127.285 Y87.124 E.01966
G1 X127.616 Y86.38 E.02553
G1 X127.957 Y85.753 E.02238
M204 P1000
G1 X128.279 Y85.949 F9000
M204 P800
G1 F1200
G1 X128.581 Y85.455 E.01815
G1 X128.94 Y84.945 E.01956
G1 X129.409 Y84.366 E.02336
G1 X130.083 Y83.666 E.03047
G1 X130.64 Y83.178 E.02322
G1 X131.061 Y82.853 E.01668
G1 X131.716 Y82.414 E.02472
G1 X132.241 Y82.111 E.01901
G1 X132.962 Y81.76 E.02514
G1 X133.7 Y81.471 E.02485
G1 X134.299 Y81.283 E.01968
G1 X134.977 Y81.119 E.02187
G1 X135.597 Y81.011 E.01973
G1 X136.369 Y80.931 E.02434
G1 X136.914 Y80.911 E.0171
G1 X137.625 Y80.928 E.0223
G1 X138.634 Y81.04 E.03183
G1 X139.479 Y81.214 E.02705
G1 X140.295 Y81.456 E.02669
G1 X140.791 Y81.641 E.0166
G1 X141.577 Y81.997 E.02705
G1 X142.285 Y82.391 E.0254
G1 X142.972 Y82.85 E.02591
G1 X143.42 Y83.197 E.01777
G1 X144.062 Y83.769 E.02696
G1 X144.633 Y84.371 E.02602
G1 X145.161 Y85.029 E.02645
G1 X145.642 Y85.746 E.02707
G1 X147.367 Y88.594 E.1044
G1 X148.318 Y88.621 E.02983
G1 X149.141 Y88.889 E.02714
G1 X149.684 Y89.224 E.02
G1 X150.557 Y90.171 E.04038
G1 X150.865 Y90.862 E.02372
G1 X151.013 Y91.612 E.02397
G1 X151.013 Y98.806 E.22556
G1 X150.762 Y99.765 E.03108
G1 X150.518 Y100.257 E.01722
G1 X149.419 Y101.332 E.0482
G1 X148.726 Y101.64 E.02378
G1 X147.977 Y101.787 E.02393
G1 X140.888 Y101.787 E.22227
G1 X139.694 Y101.43 E.03907
G1 X139.206 Y101.112 E.01826
G1 X138.68 Y100.609 E.02282
G1 X138.216 Y99.887 E.02691
G1 X137.929 Y98.905 E.03208
G1 X137.902 Y90.939 E.24977
G1 X137.834 Y90.665 E.00885
G1 X137.688 Y90.436 E.00852
G1 X137.486 Y90.256 E.00848
G1 X137.213 Y90.153 E.00915
G1 X136.938 Y90.133 E.00865
G1 X136.745 Y90.172 E.00617
G1 X136.603 Y90.234 E.00486
G1 X136.379 Y90.404 E.00882
G1 X136.265 Y90.548 E.00576
G1 X136.192 Y90.695 E.00515
G1 X136.145 Y90.869 E.00565
G1 X136.122 Y91.143 E.00862
G1 X136.072 Y95.068 E.12308
G1 X135.713 Y96.058 E.03302
G1 X135.436 Y96.454 E.01515
G1 X134.814 Y97.072 E.02749
G1 X134.125 Y97.473 E.025
G1 X133.357 Y97.699 E.0251
G1 X130.746 Y97.712 E.08187
G1 X129.986 Y97.531 E.0245
G1 X129.324 Y97.202 E.02318
G1 X128.314 Y96.166 E.04537
G1 X127.727 Y94.992 E.04115
G1 X127.467 Y94.316 E.02271
G1 X127.281 Y93.721 E.01955
G1 X127.118 Y93.042 E.02189
G1 X127.011 Y92.42 E.01979
G1 X126.929 Y91.601 E.02581
G1 X126.915 Y90.776 E.02587
G1 X126.973 Y89.914 E.02709
G1 X127.094 Y89.111 E.02546
G1 X127.232 Y88.495 E.01979
G1 X127.43 Y87.825 E.02191
G1 X127.637 Y87.26 E.01887
G1 X127.958 Y86.539 E.02475
G1 X128.248 Y86.001 E.01916
M204 P1000
G1 X128.569 Y86.197 F9000
M204 P800
G1 F1200
G1 X128.9 Y85.656 E.01989
G1 X129.237 Y85.177 E.01836
G1 X129.687 Y84.622 E.0224
G1 X130.349 Y83.934 E.02994
G1 X130.884 Y83.466 E.02229
G1 X131.287 Y83.155 E.01596
G1 X131.921 Y82.73 E.02393
G1 X132.423 Y82.442 E.01815
G1 X133.12 Y82.103 E.0243
G1 X133.831 Y81.825 E.02394
G1 X134.394 Y81.648 E.0185
G1 X135.06 Y81.487 E.02148
G1 X135.642 Y81.386 E.01852
G1 X136.402 Y81.307 E.02396
G1 X136.91 Y81.288 E.01594
G1 X137.608 Y81.305 E.02189
G1 X138.567 Y81.411 E.03025
G1 X139.38 Y81.578 E.02602
G1 X140.17 Y81.812 E.02583
G1 X140.642 Y81.988 E.01579
G1 X141.4 Y82.33 E.02607
G1 X142.095 Y82.717 E.02494
G1 X142.757 Y83.16 E.02498
G1 X143.174 Y83.483 E.01654
G1 X143.793 Y84.034 E.02598
G1 X144.353 Y84.624 E.02551
G1 X144.861 Y85.259 E.0255
G1 X145.322 Y85.945 E.02591
G1 X147.153 Y88.968 E.11081
G1 X148.231 Y88.989 E.03381
G1 X148.966 Y89.224 E.02419
G1 X149.428 Y89.502 E.01691
G1 X150.226 Y90.354 E.0366
G1 X150.512 Y90.996 E.02204
G1 X150.636 Y91.63 E.02026
M73 P2 R31
G1 X150.636 Y98.78 E.22418
G1 X150.404 Y99.648 E.02817
G1 X150.196 Y100.059 E.01444
G1 X149.234 Y101.001 E.04222
G1 X148.592 Y101.286 E.02202
G1 X147.959 Y101.41 E.02022
G1 X140.916 Y101.41 E.22083
G1 X139.831 Y101.078 E.03558
G1 X139.453 Y100.827 E.01423
G1 X138.984 Y100.385 E.02021
G1 X138.548 Y99.707 E.02527
G1 X138.299 Y98.828 E.02864
G1 X138.279 Y90.892 E.24883
G1 X138.185 Y90.513 E.01224
