; generated by PrusaSlicer 2.6.0-alpha3+MacOS-x64 on 2023-02-12 at 23:57:07 UTC


;
;

;
;
; 

; external perimeters extrusion width = 0.45mm
; perimeters extrusion width = 0.45mm
; infill extrusion width = 0.45mm
; solid infill extrusion width = 0.45mm
; top infill extrusion width = 0.40mm
; first layer extrusion width = 0.42mm

; external perimeters extrusion width = 0.45mm
; perimeters extrusion width = 0.45mm
; infill extrusion width = 0.45mm
; solid infill extrusion width = 0.45mm
; top infill extrusion width = 0.40mm
; first layer extrusion width = 0.42mm

M73 P0 R27
M201 X2500 Y2500 Z400 E5000 ; sets maximum accelerations, mm/sec^2
M203 X180 Y180 Z12 E80 ; sets maximum feedrates, mm / sec
M204 P1250 R1250 T2500 ; sets acceleration (P, T) and retract acceleration (R), mm/sec^2
M205 X8.00 Y8.00 Z2.00 E10.00 ; sets the jerk limits, mm/sec
M205 S0 T0 ; sets the minimum extruding and travel feed rate, mm/sec
M107
;TYPE:Custom
M862.3 P "MINI" ; printer model check
G90 ; use absolute coordinates
M83 ; extruder relative mode
M104 S170 ; set extruder temp for bed leveling
M140 S85 ; set bed temp
M109 R170 ; wait for bed leveling temp
M190 S85 ; wait for bed temp
M204 T1250 ; set travel acceleration
G28 ; home all without mesh bed level
G29 ; mesh bed leveling 
M204 T2500 ; restore travel acceleration
M104 S230 ; set extruder temp
G92 E0
G1 Y-2 X179 F2400
G1 Z3 F720
M109 S230 ; wait for extruder temp

; intro line
G1 X170 F1000
G1 Z0.2 F720
M73 P0 R26
G1 X110 E8 F900
G1 X40 E10 F700
G92 E0

M221 S95 ; set flow
G21 ; set units to millimeters
G90 ; use absolute coordinates
M83 ; use relative distances for extrusion
M900 K0.2 ; Filament gcode
M107
;LAYER_CHANGE
;Z:0.2
;HEIGHT:0.2
;BEFORE_LAYER_CHANGE
G92 E0.0
;0.2


G1 E-3.2 F2700
G1 Z.2 F720
;AFTER_LAYER_CHANGE
;0.2
G1 Z.4
G1 X128.068 Y84.942 F9000
G1 Z.2 F720
M73 P1 R26
G1 E3.2 F1500
M204 P800
;TYPE:Skirt/Brim
;WIDTH:0.42
G1 F1200
G1 X129.058 Y83.858 E.04603
G1 X130.353 Y82.878 E.05092
G1 X131.686 Y82.211 E.04674
G1 X133.28 Y81.757 E.05197
G1 X134.8 Y81.62 E.04785
G1 X154.449 Y82.206 E.61635
G1 X156.147 Y82.435 E.05372
G1 X157.226 Y82.771 E.03543
G1 X158.229 Y83.236 E.03466
G1 X159.198 Y83.853 E.03602
G1 X159.949 Y84.477 E.03061
G1 X160.704 Y85.277 E.03449
G1 X161.363 Y86.193 E.03538
G1 X161.903 Y87.208 E.03605
G1 X162.29 Y88.247 E.03476
G1 X162.559 Y89.468 E.0392
G1 X162.643 Y90.85 E.04341
G1 X162.098 Y112.586 E.68173
G1 X160.771 Y153.226 E1.27492
G1 X160.694 Y153.847 E.01962
G1 X160.468 Y154.611 E.02498
G1 X159.845 Y155.694 E.03917
G1 X158.942 Y156.557 E.03916
G1 X158.279 Y156.947 E.02412
G1 X157.695 Y157.174 E.01965
G1 X156.635 Y157.391 E.03392
G1 X155.505 Y157.466 E.03551
G1 X136.302 Y157.6 E.60211
G1 X134.769 Y157.465 E.04825
G1 X133.698 Y157.204 E.03456
G1 X132.427 Y156.696 E.04292
G1 X131.472 Y156.146 E.03455
G1 X130.518 Y155.414 E.0377
G1 X129.74 Y154.634 E.03454
G1 X128.92 Y153.537 E.04294
G1 X128.391 Y152.571 E.03453
G1 X127.957 Y151.449 E.03772
G1 X127.657 Y150.114 E.0429
G1 X127.569 Y148.99 E.03535
G1 X126.325 Y90.318 E1.84003
G1 X126.366 Y89.232 E.03408
G1 X126.653 Y87.751 E.0473
G1 X127.261 Y86.216 E.05177
G1 X128.036 Y84.993 E.0454
M204 P1000
; printing object d7e5a2bd-09a8-4293-9729-f4b29cb0cb12.stl id:0 copy 0
G1 E-2.24 F2700
;WIPE_START
G1 F7200
G1 X129.058 Y83.858 E-.54411
G1 X129.989 Y83.154 E-.41589
;WIPE_END
G1 Z.4 F720
G1 X151.076 Y140.845 F9000
G1 Z.2 F720
G1 E3.2 F1500
M204 P800
;TYPE:Perimeter
;WIDTH:0.419999
G1 F1200
G1 X151.05 Y140.76 E.00279
G1 X150.605 Y140.052 E.02622
G1 X150.374 Y139.559 E.01707
G1 X150.198 Y139.069 E.01632
G1 X150.054 Y138.492 E.01865
G1 X149.969 Y137.908 E.0185
G1 X149.946 Y137.357 E.01729
G1 X149.983 Y136.806 E.01732
G1 X150.107 Y136.142 E.02118
G1 X150.337 Y135.382 E.0249
G1 X150.56 Y134.883 E.01714
G1 X150.924 Y134.275 E.02222
G1 X151.362 Y133.717 E.02224
G1 X151.747 Y133.331 E.01709
G1 X152.18 Y132.979 E.0175
G1 X152.894 Y132.52 E.02661
G1 X153.373 Y132.292 E.01663
G1 X153.89 Y132.103 E.01726
G1 X154.402 Y131.983 E.01649
G1 X154.957 Y131.893 E.01763
G1 X155.506 Y131.863 E.01724
G1 X156.132 Y131.903 E.01967
G1 X156.662 Y131.984 E.01681
G1 X157.07 Y132.152 E.01383
G1 X157.354 Y132.416 E.01216
G1 X157.551 Y132.748 E.0121
G1 X157.631 Y133.197 E.0143
G1 X157.629 Y136.198 E.09409
;WIDTH:0.452078
G1 X157.612 Y136.868 E.0228
;WIDTH:0.501026
G1 X157.587 Y137.593 E.02763
G1 X157.607 Y137.917 E.01237
;WIDTH:0.460513
G1 X157.627 Y138.241 E.01127
;WIDTH:0.419999
G1 X157.625 Y140.109 E.05857
G1 X157.268 Y140.57 E.01828
G1 X156.787 Y141.547 E.03414
G1 X156.596 Y142.28 E.02375
G1 X156.526 Y143.146 E.02724
G1 X156.617 Y144.004 E.02705
G1 X156.868 Y144.836 E.02725
G1 X157.264 Y145.597 E.0269
G1 X157.62 Y146.058 E.01826
G1 X157.619 Y147.512 E.04559
;WIDTH:0.452083
G1 X157.602 Y148.181 E.02277
;WIDTH:0.501025
G1 X157.577 Y148.907 E.02767
G1 X157.597 Y149.231 E.01237
;WIDTH:0.460512
G1 X157.617 Y149.555 E.01127
;WIDTH:0.419999
G1 X157.6 Y153.087 E.11074
G1 X157.503 Y153.489 E.01297
G1 X157.207 Y153.887 E.01555
G1 X156.899 Y154.096 E.01167
G1 X156.476 Y154.205 E.0137
G1 X155.71 Y154.292 E.02417
G1 X155.21 Y154.282 E.01568
G1 X154.671 Y154.235 E.01696
G1 X154.139 Y154.128 E.01701
G1 X153.623 Y153.97 E.01692
G1 X153.106 Y153.756 E.01754
G1 X152.648 Y153.502 E.01642
G1 X152.087 Y153.129 E.02112
G1 X151.671 Y152.775 E.01713
G1 X151.185 Y152.251 E.02241
G1 X150.864 Y151.81 E.0171
G1 X150.514 Y151.199 E.02208
G1 X150.3 Y150.711 E.01671
G1 X150.128 Y150.189 E.01723
G1 X149.988 Y149.498 E.02211
G1 X149.936 Y148.791 E.02223
G1 X149.951 Y148.335 E.01431
G1 X150.034 Y147.731 E.01912
G1 X150.159 Y147.178 E.01778
G1 X150.351 Y146.645 E.01776
G1 X150.66 Y146.001 E.0224
G1 X150.986 Y145.485 E.01914
G1 X151.117 Y145.229 E.00902
G1 X151.128 Y145.017 E.00666
G1 X151.023 Y144.25 E.02427
;WIDTH:0.422769
G1 X150.977 Y143.717 E.0169
;WIDTH:0.463449
G1 X150.988 Y143.5 E.0076
;WIDTH:0.504129
G1 X150.999 Y143.283 E.00833
;WIDTH:0.544808
G1 X151.01 Y143.067 E.00903
;WIDTH:0.570013
G1 X151.046 Y142.566 E.02201
G1 X151.029 Y142.426 E.00618
;WIDTH:0.521655
G1 X151.012 Y142.285 E.00565
;WIDTH:0.473297
G1 X150.994 Y142.145 E.00505
;WIDTH:0.424939
G1 X151.063 Y141.633 E.01641
;WIDTH:0.419999
G1 X151.137 Y141.048 E.01849
G1 X151.093 Y140.902 E.00478
M204 P1000
G1 X150.699 Y140.911 F9000
M204 P800
;TYPE:External perimeter
G1 F1200
G1 X150.275 Y140.235 E.02502
G1 X150.022 Y139.694 E.01873
G1 X149.851 Y139.224 E.01568
G1 X149.719 Y138.742 E.01567
G1 X149.618 Y138.158 E.01858
G1 X149.571 Y137.452 E.02219
G1 X149.59 Y136.952 E.01569
G1 X149.665 Y136.359 E.01874
G1 X149.817 Y135.748 E.01974
G1 X149.983 Y135.253 E.01637
G1 X150.227 Y134.707 E.01875
G1 X150.613 Y134.061 E.0236
G1 X151 Y133.567 E.01968
G1 X151.424 Y133.112 E.0195
G1 X151.803 Y132.783 E.01574
G1 X152.418 Y132.352 E.02355
G1 X152.945 Y132.07 E.01874
G1 X153.405 Y131.873 E.01569
G1 X153.937 Y131.705 E.01749
G1 X154.639 Y131.553 E.02252
G1 X155.239 Y131.497 E.01889
G1 X155.795 Y131.503 E.01743
G1 X156.363 Y131.551 E.01787
G1 X156.966 Y131.679 E.01933
G1 X157.407 Y131.94 E.01607
G1 X157.754 Y132.311 E.01593
G1 X157.949 Y132.781 E.01595
G1 X158.008 Y133.184 E.01277
G1 X158.002 Y140.238 E.22117
G1 X157.566 Y140.801 E.02233
G1 X157.151 Y141.647 E.02955
G1 X156.972 Y142.31 E.02153
G1 X156.902 Y143.177 E.02727
G1 X156.951 Y143.668 E.01547
G1 X157.079 Y144.23 E.01807
G1 X157.243 Y144.76 E.0174
G1 X157.562 Y145.366 E.02147
G1 X157.997 Y145.929 E.02231
G1 X157.992 Y152.456 E.20465
G1 X157.97 Y153.179 E.02268
M73 P2 R26
G1 X157.846 Y153.654 E.01539
G1 X157.706 Y153.87 E.00807
G1 X157.463 Y154.163 E.01194
G1 X157.055 Y154.442 E.0155
G1 X156.531 Y154.578 E.01697
G1 X155.703 Y154.67 E.02612
G1 X155.186 Y154.658 E.01621
G1 X154.607 Y154.607 E.01822
G1 X154.044 Y154.492 E.01802
G1 X153.386 Y154.286 E.02162
G1 X152.837 Y154.049 E.01875
G1 X152.293 Y153.731 E.01976
G1 X151.864 Y153.433 E.01638
G1 X151.409 Y153.046 E.01873
G1 X150.98 Y152.584 E.01977
G1 X150.597 Y152.094 E.0195
G1 X150.332 Y151.67 E.01568
G1 X150.104 Y151.225 E.01568
G1 X149.913 Y150.762 E.0157
G1 X149.763 Y150.284 E.01571
G1 X149.614 Y149.549 E.02351
G1 X149.559 Y148.799 E.02358
G1 X149.574 Y148.303 E.01556
G1 X149.66 Y147.679 E.01975
G1 X149.773 Y147.169 E.01638
G1 X149.957 Y146.601 E.01872
G1 X150.168 Y146.141 E.01587
G1 X150.41 Y145.684 E.01621
G1 X150.723 Y145.2 E.01807
G1 X150.755 Y145.068 E.00426
G1 X150.612 Y144.027 E.03295
G1 X150.57 Y143.078 E.02978
G1 X150.613 Y142.128 E.02982
G1 X150.758 Y141.087 E.03295
G1 X150.731 Y140.962 E.00401
M204 P1000
G1 X150.956 Y140.604 F9000
G1 E-2.24 F2700
;WIPE_START
G1 F7200
G1 X150.275 Y140.235 E-.30572
G1 X150.022 Y139.694 E-.21277
G1 X149.851 Y139.224 E-.17818
G1 X149.719 Y138.742 E-.17804
G1 X149.678 Y138.506 E-.08529
;WIPE_END
G1 Z.4 F720
G1 X155.134 Y150.27 F9000
G1 Z.2 F720
G1 E3.2 F1500
M204 P800
;TYPE:Perimeter
G1 F1200
G1 X155.06 Y150.257 E.00236
G1 X154.596 Y150.045 E.01599
G1 X154.286 Y149.754 E.01333
G1 X154.018 Y149.311 E.01623
G1 X153.948 Y149.067 E.00796
G1 X153.929 Y148.547 E.01632
G1 X154.023 Y148.202 E.01121
G1 X154.194 Y147.838 E.01261
G1 X154.448 Y147.558 E.01185
G1 X154.86 Y147.285 E.0155
G1 X155.377 Y147.156 E.01671
G1 X155.833 Y147.189 E.01433
G1 X156.198 Y147.321 E.01217
G1 X156.641 Y147.641 E.01713
G1 X156.87 Y147.954 E.01216
;WIDTH:0.465685
G1 X156.988 Y148.208 E.00985
;WIDTH:0.511371
G1 X157.105 Y148.462 E.01089
G1 X157.114 Y148.862 E.01558
;WIDTH:0.501025
G1 X157.03 Y149.124 E.01048
;WIDTH:0.460512
G1 X156.945 Y149.386 E.00956
;WIDTH:0.419999
G1 X156.741 Y149.715 E.01214
G1 X156.337 Y150.084 E.01716
G1 X155.983 Y150.243 E.01217
G1 X155.466 Y150.325 E.01641
G1 X155.193 Y150.279 E.00868
M204 P1000
G1 X155.058 Y149.841 F9000
M204 P800
;TYPE:External perimeter
G1 F1200
G1 X154.789 Y149.716 E.0093
G1 X154.543 Y149.457 E.0112
G1 X154.372 Y149.179 E.01023
G1 X154.31 Y148.964 E.00702
G1 X154.318 Y148.483 E.01508
G1 X154.49 Y148.072 E.01397
G1 X154.663 Y147.867 E.00841
G1 X155.082 Y147.611 E.0154
G1 X155.456 Y147.531 E.01199
G1 X155.727 Y147.551 E.00852
G1 X155.992 Y147.637 E.00874
G1 X156.351 Y147.882 E.01363
G1 X156.523 Y148.101 E.00873
G1 X156.684 Y148.504 E.01361
G1 X156.704 Y148.782 E.00874
G1 X156.613 Y149.207 E.01363
G1 X156.474 Y149.449 E.00875
G1 X156.161 Y149.75 E.01362
G1 X155.911 Y149.873 E.00874
G1 X155.483 Y149.948 E.01362
G1 X155.207 Y149.91 E.00874
G1 X155.112 Y149.866 E.00328
M204 P1000
G1 X154.826 Y150.026 F9000
G1 E-2.24 F2700
;WIPE_START
G1 F7200
G1 X154.789 Y149.716 E-.12687
G1 X154.543 Y149.457 E-.12726
G1 X154.372 Y149.179 E-.11627
G1 X154.31 Y148.964 E-.07971
G1 X154.318 Y148.483 E-.17138
G1 X154.49 Y148.072 E-.15872
G1 X154.663 Y147.867 E-.09556
G1 X154.865 Y147.744 E-.08423
;WIPE_END
G1 Z.4 F720
G1 X153.108 Y141.502 F9000
G1 Z.2 F720
G1 E3.2 F1500
M204 P800
;TYPE:Perimeter
G1 F1200
G1 X153.495 Y141.535 E.01218
G1 X154.003 Y141.737 E.01714
G1 X154.324 Y142.016 E.01334
G1 X154.609 Y142.437 E.01594
G1 X154.717 Y142.81 E.01218
G1 X154.721 Y143.356 E.01712
G1 X154.587 Y143.751 E.01308
G1 X154.3 Y144.181 E.01621
G1 X153.953 Y144.441 E.0136
G1 X153.49 Y144.63 E.01568
G1 X153.103 Y144.659 E.01217
G1 X152.568 Y144.55 E.01712
G1 X152.23 Y144.358 E.01219
G1 X151.847 Y143.968 E.01714
;WIDTH:0.462013
G1 X151.74 Y143.734 E.00897
;WIDTH:0.504027
G1 X151.634 Y143.5 E.00985
;WIDTH:0.546041
G1 X151.527 Y143.266 E.01076
;WIDTH:0.547562
G1 X151.527 Y142.856 E.0172
;WIDTH:0.570013
G1 X151.556 Y142.672 E.00816
G1 X151.627 Y142.553 E.00607
;WIDTH:0.53251
G1 X151.699 Y142.435 E.00563
;WIDTH:0.495006
G1 X151.771 Y142.316 E.00523
;WIDTH:0.457503
G1 X151.843 Y142.197 E.00479
;WIDTH:0.419999
G1 X152.1 Y141.907 E.01215
G1 X152.514 Y141.63 E.01562
G1 X153.048 Y141.497 E.01725
M204 P1000
G1 X153.043 Y141.884 F9000
M204 P800
;TYPE:External perimeter
G1 F1200
G1 X153.095 Y141.872 E.00167
G1 X153.372 Y141.891 E.00871
G1 X153.78 Y142.042 E.01364
G1 X154.022 Y142.243 E.00986
G1 X154.254 Y142.565 E.01244
G1 X154.341 Y142.83 E.00875
G1 X154.355 Y143.264 E.01361
G1 X154.264 Y143.557 E.00962
G1 X154.048 Y143.9 E.01271
G1 X153.793 Y144.1 E.01016
G1 X153.438 Y144.257 E.01217
G1 X153.161 Y144.287 E.00874
G1 X152.733 Y144.211 E.01363
G1 X152.487 Y144.082 E.00871
G1 X152.174 Y143.78 E.01364
G1 X152.042 Y143.535 E.00873
G1 X151.955 Y143.166 E.01189
G1 X151.978 Y142.832 E.0105
G1 X152.14 Y142.429 E.01362
G1 X152.318 Y142.215 E.00873
G1 X152.69 Y141.967 E.01402
G1 X152.985 Y141.898 E.0095
M204 P1000
G1 X153.055 Y141.833 F9000
G1 E-2.24 F2700
;WIPE_START
G1 F7200
G1 X153.095 Y141.872 E-.04027
G1 X153.372 Y141.891 E-.09891
G1 X153.78 Y142.042 E-.15499
G1 X154.022 Y142.243 E-.11207
G1 X154.254 Y142.565 E-.14139
G1 X154.341 Y142.83 E-.09936
G1 X154.355 Y143.264 E-.15469
G1 X154.264 Y143.557 E-.1093
G1 X154.191 Y143.673 E-.04902
;WIPE_END
G1 Z.4 F720
G1 X155.118 Y138.947 F9000
G1 Z.2 F720
G1 E3.2 F1500
M204 P800
;TYPE:Perimeter
G1 F1200
G1 X155.047 Y138.934 E.00226
G1 X154.577 Y138.708 E.01635
G1 X154.296 Y138.44 E.01218
G1 X154.022 Y137.98 E.01679
G1 X153.957 Y137.754 E.00737
G1 X153.938 Y137.233 E.01635
G1 X153.977 Y137.032 E.00642
G1 X154.181 Y136.555 E.01627
G1 X154.457 Y136.244 E.01304
G1 X154.891 Y135.963 E.01621
G1 X155.391 Y135.842 E.01613
G1 X155.843 Y135.876 E.01421
G1 X156.207 Y136.007 E.01213
G1 X156.651 Y136.327 E.01716
G1 X156.88 Y136.64 E.01216
;WIDTH:0.465683
G1 X156.997 Y136.894 E.00983
;WIDTH:0.511367
G1 X157.115 Y137.148 E.01091
G1 X157.124 Y137.548 E.01558
;WIDTH:0.501026
G1 X157.039 Y137.81 E.01049
;WIDTH:0.460513
G1 X156.955 Y138.072 E.00955
;WIDTH:0.419999
G1 X156.751 Y138.401 E.01214
G1 X156.347 Y138.77 E.01716
G1 X155.993 Y138.929 E.01217
G1 X155.471 Y139.011 E.01657
G1 X155.177 Y138.957 E.00937
M204 P1000
G1 X155.059 Y138.526 F9000
M204 P800
;TYPE:External perimeter
G1 F1200
G1 X154.82 Y138.419 E.00821
G1 X154.612 Y138.234 E.00873
G1 X154.381 Y137.865 E.01365
G1 X154.32 Y137.65 E.00701
G1 X154.328 Y137.169 E.01508
G1 X154.493 Y136.766 E.01365
G1 X154.673 Y136.553 E.00874
G1 X155.046 Y136.309 E.01398
G1 X155.516 Y136.22 E.015
G1 X155.737 Y136.237 E.00695
G1 X156.001 Y136.323 E.00871
G1 X156.361 Y136.568 E.01365
G1 X156.533 Y136.787 E.00873
G1 X156.694 Y137.191 E.01364
G1 X156.714 Y137.468 E.00871
G1 X156.623 Y137.894 E.01366
G1 X156.484 Y138.135 E.00872
G1 X156.171 Y138.436 E.01362
G1 X155.921 Y138.559 E.00874
G1 X155.493 Y138.634 E.01362
G1 X155.194 Y138.587 E.00949
G1 X155.114 Y138.551 E.00275
M204 P1000
G1 X154.856 Y138.692 F9000
G1 E-2.24 F2700
;WIPE_START
G1 F7200
G1 X154.82 Y138.419 E-.11481
G1 X154.612 Y138.234 E-.09917
G1 X154.381 Y137.865 E-.15509
G1 X154.32 Y137.65 E-.07962
G1 X154.328 Y137.169 E-.17138
G1 X154.493 Y136.766 E-.15514
G1 X154.673 Y136.553 E-.09935
G1 X154.874 Y136.422 E-.08544
;WIPE_END
G1 Z.4 F720
G1 X156.978 Y138.377 F9000
G1 Z.2 F720
G1 E3.2 F1500
M204 P800
;TYPE:Solid infill
;WIDTH:0.42053
G1 F1200
G1 X157.287 Y138.685 E.0137
G1 X157.286 Y139.219 E.01677
G1 X156.85 Y138.782 E.01938
G1 X156.715 Y138.917 E.00599
G1 X156.563 Y139.029 E.00593
G1 X157.286 Y139.753 E.03213
G1 X157.286 Y139.994 E.00757
G1 X157.16 Y140.16 E.00654
G1 X156.214 Y139.215 E.04198
G1 X155.78 Y139.315 E.01398
G1 X156.93 Y140.465 E.05106
G1 X156.755 Y140.823 E.01251
G1 X155.043 Y139.111 E.07602
M204 P1000
G1 E-2.24 F2700
;WIPE_START
G1 F7200
G1 X156.755 Y140.823 E-.86253
G1 X156.875 Y140.577 E-.09747
;WIPE_END
G1 Z.4 F720
G1 X157.461 Y133.52 F9000
G1 Z.2 F720
G1 E3.2 F1500
M204 P800
G1 F1200
G1 X156.19 Y132.249 E.05644
G1 X155.618 Y132.21 E.018
G1 X157.291 Y133.884 E.07431
G1 X157.291 Y134.417 E.01674
G1 X155.094 Y132.22 E.09756
G1 X154.62 Y132.28 E.015
G1 X157.29 Y134.951 E.11858
G1 X157.29 Y135.484 E.01674
G1 X154.188 Y132.382 E.13774
G1 X153.775 Y132.503 E.01351
G1 X157.289 Y136.018 E.15606
G1 X157.284 Y136.546 E.01658
G1 X153.392 Y132.655 E.1728
G1 X153.034 Y132.83 E.01251
G1 X155.718 Y135.514 E.11918
G1 X155.332 Y135.506 E.01212
G1 X155.205 Y135.536 E.0041
G1 X152.699 Y133.03 E.11128
G1 X152.385 Y133.25 E.01204
G1 X154.783 Y135.647 E.10646
G1 X154.654 Y135.698 E.00436
G1 X154.445 Y135.844 E.008
G1 X152.087 Y133.485 E.10473
G1 X151.81 Y133.743 E.01189
G1 X154.142 Y136.075 E.10355
